; G-Code generated by Simplify3D(R) Version 4.0.0
; Feb 17, 2019 at 1:45:45 PM
; Settings Summary
;   processName,Process1
;   applyToModels,CUBE
;   profileName,Default
;   profileVersion,2017-03-01 08:00:00
;   baseProfile,
;   printMaterial,PLA
;   printQuality,Medium
;   printExtruders,
;   extruderName,Primary Extruder
;   extruderToolheadNumber,0
;   extruderDiameter,0.35
;   extruderAutoWidth,0
;   extruderWidth,0.4
;   extrusionMultiplier,0.9
;   extruderUseRetract,1
;   extruderRetractionDistance,1
;   extruderExtraRestartDistance,0
;   extruderRetractionZLift,0
;   extruderRetractionSpeed,1800
;   extruderUseCoasting,0
;   extruderCoastingDistance,0.2
;   extruderUseWipe,0
;   extruderWipeDistance,5
;   primaryExtruder,0
;   layerHeight,0.2
;   topSolidLayers,3
;   bottomSolidLayers,3
;   perimeterOutlines,2
;   printPerimetersInsideOut,1
;   startPointOption,2
;   startPointOriginX,0
;   startPointOriginY,0
;   sequentialIslands,0
;   spiralVaseMode,0
;   firstLayerHeightPercentage,90
;   firstLayerWidthPercentage,100
;   firstLayerUnderspeed,0.5
;   useRaft,0
;   raftExtruder,0
;   raftTopLayers,3
;   raftBaseLayers,2
;   raftOffset,3
;   raftSeparationDistance,0.14
;   raftTopInfill,100
;   aboveRaftSpeedMultiplier,0.3
;   useSkirt,1
;   skirtExtruder,0
;   skirtLayers,1
;   skirtOutlines,2
;   skirtOffset,4
;   usePrimePillar,0
;   primePillarExtruder,999
;   primePillarWidth,12
;   primePillarLocation,7
;   primePillarSpeedMultiplier,1
;   useOozeShield,0
;   oozeShieldExtruder,999
;   oozeShieldOffset,2
;   oozeShieldOutlines,1
;   oozeShieldSidewallShape,1
;   oozeShieldSidewallAngle,30
;   oozeShieldSpeedMultiplier,1
;   infillExtruder,0
;   internalInfillPattern,Rectilinear
;   externalInfillPattern,Rectilinear
;   infillPercentage,20
;   outlineOverlapPercentage,15
;   infillExtrusionWidthPercentage,100
;   minInfillLength,5
;   infillLayerInterval,1
;   internalInfillAngles,45,-45
;   overlapInternalInfillAngles,0
;   externalInfillAngles,45,-45
;   generateSupport,0
;   supportExtruder,0
;   supportInfillPercentage,30
;   supportExtraInflation,0
;   supportBaseLayers,0
;   denseSupportExtruder,0
;   denseSupportLayers,0
;   denseSupportInfillPercentage,70
;   supportLayerInterval,1
;   supportHorizontalPartOffset,0.3
;   supportUpperSeparationLayers,1
;   supportLowerSeparationLayers,1
;   supportType,0
;   supportGridSpacing,4
;   maxOverhangAngle,45
;   supportAngles,0
;   temperatureName,Primary Extruder
;   temperatureNumber,0
;   temperatureSetpointCount,1
;   temperatureSetpointLayers,1
;   temperatureSetpointTemperatures,190
;   temperatureStabilizeAtStartup,1
;   temperatureHeatedBed,0
;   temperatureRelayBetweenLayers,0
;   temperatureRelayBetweenLoops,0
;   fanLayers,1,2
;   fanSpeeds,0,100
;   blipFanToFullPower,0
;   adjustSpeedForCooling,1
;   minSpeedLayerTime,15
;   minCoolingSpeedSlowdown,20
;   increaseFanForCooling,0
;   minFanLayerTime,45
;   maxCoolingFanSpeed,100
;   increaseFanForBridging,0
;   bridgingFanSpeed,100
;   use5D,1
;   relativeEdistances,0
;   allowEaxisZeroing,1
;   independentExtruderAxes,0
;   includeM10123,0
;   stickySupport,1
;   applyToolheadOffsets,0
;   gcodeXoffset,0
;   gcodeYoffset,0
;   gcodeZoffset,0
;   overrideMachineDefinition,0
;   machineTypeOverride,0
;   strokeXoverride,200
;   strokeYoverride,200
;   strokeZoverride,200
;   originOffsetXoverride,0
;   originOffsetYoverride,0
;   originOffsetZoverride,0
;   homeXdirOverride,-1
;   homeYdirOverride,-1
;   homeZdirOverride,-1
;   flipXoverride,1
;   flipYoverride,-1
;   flipZoverride,1
;   toolheadOffsets,0,0|0,0|0,0|0,0|0,0|0,0
;   overrideFirmwareConfiguration,0
;   firmwareTypeOverride,RepRap (Marlin/Repetier/Sprinter)
;   GPXconfigOverride,r2
;   baudRateOverride,115200
;   overridePrinterModels,0
;   printerModelsOverride
;   startingGcode,G28 ; home all axes
;   layerChangeGcode,
;   retractionGcode,
;   toolChangeGcode,
;   endingGcode,M104 S0 ; turn off extruder,M140 S0 ; turn off bed,M84 ; disable motors
;   exportFileFormat,gcode
;   celebration,0
;   celebrationSong,Random Song
;   postProcessing,
;   defaultSpeed,3600
;   outlineUnderspeed,0.5
;   solidInfillUnderspeed,0.8
;   supportUnderspeed,0.8
;   rapidXYspeed,4800
;   rapidZspeed,1000
;   minBridgingArea,50
;   bridgingExtraInflation,0
;   bridgingExtrusionMultiplier,1
;   bridgingSpeedMultiplier,1
;   useFixedBridgingAngle,0
;   fixedBridgingAngle,0
;   applyBridgingToPerimeters,0
;   filamentDiameters,1.75|1.75|1.75|1.75|1.75|1.75
;   filamentPricesPerKg,46|46|46|46|46|46
;   filamentDensities,1.25|1.25|1.25|1.25|1.25|1.25
;   useMinPrintHeight,0
;   minPrintHeight,0
;   useMaxPrintHeight,0
;   maxPrintHeight,0
;   useDiaphragm,0
;   diaphragmLayerInterval,20
;   robustSlicing,1
;   mergeAllIntoSolid,0
;   onlyRetractWhenCrossingOutline,1
;   retractBetweenLayers,1
;   useRetractionMinTravel,0
;   retractionMinTravel,3
;   retractWhileWiping,0
;   onlyWipeOutlines,1
;   avoidCrossingOutline,0
;   maxMovementDetourFactor,3
;   toolChangeRetractionDistance,12
;   toolChangeExtraRestartDistance,-0.5
;   toolChangeRetractionSpeed,600
;   externalThinWallType,0
;   internalThinWallType,2
;   thinWallAllowedOverlapPercentage,10
;   singleExtrusionMinLength,1
;   singleExtrusionMinPrintingWidthPercentage,50
;   singleExtrusionMaxPrintingWidthPercentage,200
;   singleExtrusionEndpointExtension,0.2
;   horizontalSizeCompensation,0
G90
M82
M106 S0
M104 S190 T0
M109 S190 T0
G28 ; home all axes
G92 E0
G1 E-1.0000 F1800
G1 Z0.180 F1000
; process Process1
; layer 1, Z = 0.180
T0
; tool H0.200 W0.400
; skirt
G1 X91.278 Y93.790 F4800
G1 E0.0000 F540
G92 E0
G1 X93.790 Y91.278 E0.1063 F1010
G1 X94.010 Y91.187 E0.1135
G1 X105.989 Y91.187 E0.4721
G1 X106.210 Y91.278 E0.4792
G1 X108.722 Y93.790 E0.5855
G1 X108.813 Y94.010 E0.5927
G1 X108.813 Y105.989 E0.9513
G1 X108.722 Y106.210 E0.9584
G1 X106.210 Y108.722 E1.0648
G1 X105.989 Y108.813 E1.0719
G1 X94.010 Y108.813 E1.4305
G1 X93.790 Y108.722 E1.4376
G1 X91.278 Y106.210 E1.5440
G1 X91.187 Y105.989 E1.5511
G1 X91.187 Y94.010 E1.9097
G1 X91.278 Y93.790 E1.9168
G1 X91.617 Y94.017 F4800
G92 E0
G1 X94.017 Y91.617 E0.1016 F1010
G1 X94.090 Y91.587 E0.1040
G1 X105.910 Y91.587 E0.4578
G1 X105.983 Y91.617 E0.4602
G1 X108.383 Y94.017 E0.5617
G1 X108.413 Y94.090 E0.5641
G1 X108.413 Y105.910 E0.9179
G1 X108.383 Y105.983 E0.9203
G1 X105.983 Y108.383 E1.0219
G1 X105.910 Y108.413 E1.0243
G1 X94.090 Y108.413 E1.3781
G1 X94.017 Y108.383 E1.3805
G1 X91.617 Y105.983 E1.4820
G1 X91.587 Y105.910 E1.4844
G1 X91.587 Y94.090 E1.8382
G1 X91.617 Y94.017 E1.8406
G92 E0
G1 E-1.0000 F1800
; inner perimeter
G1 X96.387 Y96.387 F4800
G1 E0.0000 F1800
G92 E0
G1 X103.613 Y96.387 E0.2163 F757
G1 X103.613 Y103.613 E0.4326
G1 X96.387 Y103.613 E0.6490
G1 X96.387 Y96.387 E0.8653
; outer perimeter
G1 X95.987 Y95.987 F4800
G92 E0
G1 X104.013 Y95.987 E0.2403 F505
G1 X104.013 Y104.013 E0.4805
G1 X95.987 Y104.013 E0.7208
G1 X95.987 Y95.987 E0.9611
; solid layer
G1 X102.949 Y96.727 F4800
G92 E0
G1 X103.273 Y97.051 E0.0137 F808
G1 X103.273 Y97.616 E0.0307
G1 X102.384 Y96.727 E0.0683
G1 X101.818 Y96.727 E0.0852
G1 X103.273 Y98.182 E0.1469
G1 X103.273 Y98.748 E0.1638
G1 X101.252 Y96.727 E0.2494
G1 X100.687 Y96.727 E0.2663
G1 X103.273 Y99.313 E0.3758
G1 X103.273 Y99.879 E0.3927
G1 X100.121 Y96.727 E0.5262
G1 X99.555 Y96.727 E0.5431
G1 X103.273 Y100.445 E0.7005
G1 X103.273 Y101.011 E0.7174
G1 X98.989 Y96.727 E0.8988
G1 X98.424 Y96.727 E0.9157
G1 X103.273 Y101.576 E1.1210
G1 X103.273 Y102.142 E1.1380
G1 X97.858 Y96.727 E1.3672
G1 X97.292 Y96.727 E1.3841
G1 X103.273 Y102.708 E1.6373
G1 X103.273 Y103.273 E1.6543
G1 X96.727 Y96.727 E1.9314
G1 X96.727 Y97.292 E1.9483
G1 X102.708 Y103.273 E2.2015
G1 X102.142 Y103.273 E2.2185
G1 X96.727 Y97.858 E2.4477
G1 X96.727 Y98.424 E2.4646
G1 X101.576 Y103.273 E2.6699
G1 X101.011 Y103.273 E2.6869
G1 X96.727 Y98.989 E2.8682
G1 X96.727 Y99.555 E2.8851
G1 X100.445 Y103.273 E3.0425
G1 X99.879 Y103.273 E3.0595
G1 X96.727 Y100.121 E3.1929
G1 X96.727 Y100.686 E3.2099
G1 X99.314 Y103.273 E3.3194
G1 X98.748 Y103.273 E3.3363
G1 X96.727 Y101.252 E3.4219
G1 X96.727 Y101.818 E3.4388
G1 X98.182 Y103.273 E3.5004
G1 X97.616 Y103.273 E3.5174
G1 X96.727 Y102.384 E3.5550
G1 X96.727 Y102.949 E3.5720
G1 X97.051 Y103.273 E3.5857
G92 E0
G1 E-1.0000 F1800
; process Process2
; layer 2, Z = 0.180
; layer 3, Z = 0.380
M106 S255
; process Process1
; layer 4, Z = 0.380
; inner perimeter
G1 X96.387 Y103.613 F4800
G1 Z0.380 F1000
G1 E0.0000 F1800
G92 E0
G1 X96.387 Y96.387 E0.2163 F757
G1 X103.613 Y96.387 E0.4326
G1 X103.613 Y103.613 E0.6490
G1 X96.387 Y103.613 E0.8653
; outer perimeter
G1 X95.987 Y104.013 F4800
G92 E0
G1 X95.987 Y95.987 E0.2403 F505
G1 X104.013 Y95.987 E0.4805
G1 X104.013 Y104.013 E0.7208
G1 X95.987 Y104.013 E0.9611
; solid layer
G1 X96.727 Y97.051 F4800
G92 E0
G1 X97.051 Y96.727 E0.0137 F808
G1 X97.616 Y96.727 E0.0307
G1 X96.727 Y97.616 E0.0683
G1 X96.727 Y98.182 E0.0853
G1 X98.182 Y96.727 E0.1469
G1 X98.748 Y96.727 E0.1638
G1 X96.727 Y98.748 E0.2494
G1 X96.727 Y99.314 E0.2663
G1 X99.314 Y96.727 E0.3758
G1 X99.879 Y96.727 E0.3927
G1 X96.727 Y99.879 E0.5262
G1 X96.727 Y100.445 E0.5431
G1 X100.445 Y96.727 E0.7005
G1 X101.011 Y96.727 E0.7175
G1 X96.727 Y101.011 E0.8988
G1 X96.727 Y101.576 E0.9157
G1 X101.576 Y96.727 E1.1210
G1 X102.142 Y96.727 E1.1380
G1 X96.727 Y102.142 E1.3672
G1 X96.727 Y102.708 E1.3842
G1 X102.708 Y96.727 E1.6374
G1 X103.273 Y96.727 E1.6543
G1 X96.727 Y103.273 E1.9314
G1 X97.292 Y103.273 E1.9484
G1 X103.273 Y97.292 E2.2015
G1 X103.273 Y97.858 E2.2185
G1 X97.858 Y103.273 E2.4477
G1 X98.424 Y103.273 E2.4647
G1 X103.273 Y98.424 E2.6699
G1 X103.273 Y98.989 E2.6869
G1 X98.989 Y103.273 E2.8682
G1 X99.555 Y103.273 E2.8852
G1 X103.273 Y99.555 E3.0426
G1 X103.273 Y100.121 E3.0595
G1 X100.121 Y103.273 E3.1929
G1 X100.687 Y103.273 E3.2099
G1 X103.273 Y100.687 E3.3194
G1 X103.273 Y101.252 E3.3363
G1 X101.252 Y103.273 E3.4219
G1 X101.818 Y103.273 E3.4388
G1 X103.273 Y101.818 E3.5004
G1 X103.273 Y102.384 E3.5174
G1 X102.384 Y103.273 E3.5550
G1 X102.949 Y103.273 E3.5720
G1 X103.273 Y102.949 E3.5857
G92 E0
G1 E-1.0000 F1800
; layer 5, Z = 0.580
; inner perimeter
G1 X103.613 Y103.613 F4800
G1 Z0.580 F1000
G1 E0.0000 F1800
G92 E0
G1 X96.387 Y103.613 E0.2163 F757
G1 X96.387 Y96.387 E0.4326
G1 X103.613 Y96.387 E0.6490
G1 X103.613 Y103.613 E0.8653
; outer perimeter
G1 X104.013 Y104.013 F4800
G92 E0
G1 X95.987 Y104.013 E0.2403 F505
G1 X95.987 Y95.987 E0.4805
G1 X104.013 Y95.987 E0.7208
G1 X104.013 Y104.013 E0.9611
; solid layer
G1 X97.051 Y103.273 F4800
G92 E0
G1 X96.727 Y102.949 E0.0137 F808
G1 X96.727 Y102.384 E0.0307
G1 X97.616 Y103.273 E0.0683
G1 X98.182 Y103.273 E0.0853
G1 X96.727 Y101.818 E0.1469
G1 X96.727 Y101.252 E0.1638
G1 X98.748 Y103.273 E0.2494
G1 X99.314 Y103.273 E0.2663
G1 X96.727 Y100.686 E0.3758
G1 X96.727 Y100.121 E0.3927
G1 X99.879 Y103.273 E0.5262
G1 X100.445 Y103.273 E0.5431
G1 X96.727 Y99.555 E0.7005
G1 X96.727 Y98.989 E0.7175
G1 X101.011 Y103.273 E0.8988
G1 X101.576 Y103.273 E0.9157
G1 X96.727 Y98.424 E1.1210
G1 X96.727 Y97.858 E1.1380
G1 X102.142 Y103.273 E1.3672
G1 X102.708 Y103.273 E1.3841
G1 X96.727 Y97.292 E1.6373
G1 X96.727 Y96.727 E1.6543
G1 X103.273 Y103.273 E1.9314
G1 X103.273 Y102.708 E1.9483
G1 X97.292 Y96.727 E2.2015
G1 X97.858 Y96.727 E2.2185
G1 X103.273 Y102.142 E2.4477
G1 X103.273 Y101.576 E2.4646
G1 X98.424 Y96.727 E2.6699
G1 X98.989 Y96.727 E2.6869
G1 X103.273 Y101.011 E2.8682
G1 X103.273 Y100.445 E2.8852
G1 X99.555 Y96.727 E3.0426
G1 X100.121 Y96.727 E3.0595
G1 X103.273 Y99.879 E3.1929
G1 X103.273 Y99.313 E3.2099
G1 X100.687 Y96.727 E3.3194
G1 X101.252 Y96.727 E3.3363
G1 X103.273 Y98.748 E3.4219
G1 X103.273 Y98.182 E3.4388
G1 X101.818 Y96.727 E3.5004
G1 X102.384 Y96.727 E3.5174
G1 X103.273 Y97.616 E3.5550
G1 X103.273 Y97.051 E3.5720
G1 X102.949 Y96.727 E3.5857
G92 E0
G1 E-1.0000 F1800
; process Process2
; layer 6, Z = 0.580
; outer perimeter
G1 X109.136 Y88.868 F4800
G1 E0.0000 F1800
G92 E0
G1 X110.183 Y89.817 E0.0423 F1112
G1 X111.132 Y90.864 E0.0846
G1 X111.974 Y91.999 E0.1269
G1 X112.700 Y93.212 E0.1692
G1 X113.305 Y94.489 E0.2115
G1 X113.781 Y95.820 E0.2538
G1 X114.124 Y97.191 E0.2961
G1 X114.331 Y98.589 E0.3384
G1 X114.401 Y100.000 E0.3807
G1 X114.331 Y101.411 E0.4230
G1 X114.124 Y102.809 E0.4653
G1 X113.781 Y104.180 E0.5076
G1 X113.305 Y105.511 E0.5499
G1 X112.700 Y106.788 E0.5922
G1 X111.974 Y108.001 E0.6346
G1 X111.132 Y109.136 E0.6769
G1 X110.183 Y110.183 E0.7192
G1 X109.136 Y111.132 E0.7615
G1 X108.001 Y111.974 E0.8038
G1 X106.788 Y112.700 E0.8461
G1 X105.511 Y113.305 E0.8884
G1 X104.180 Y113.781 E0.9307
G1 X102.809 Y114.124 E0.9730
G1 X101.411 Y114.331 E1.0153
G1 X100.000 Y114.401 E1.0576
G1 X98.589 Y114.331 E1.0999
G1 X97.191 Y114.124 E1.1422
G1 X95.820 Y113.781 E1.1845
G1 X94.489 Y113.305 E1.2268
G1 X93.212 Y112.700 E1.2691
G1 X91.999 Y111.974 E1.3114
G1 X90.864 Y111.132 E1.3537
G1 X89.817 Y110.183 E1.3960
G1 X88.868 Y109.136 E1.4383
G1 X88.026 Y108.001 E1.4806
G1 X87.300 Y106.788 E1.5229
G1 X86.695 Y105.511 E1.5652
G1 X86.219 Y104.180 E1.6075
G1 X85.876 Y102.809 E1.6498
G1 X85.669 Y101.411 E1.6921
G1 X85.599 Y100.000 E1.7344
G1 X85.669 Y98.589 E1.7767
G1 X85.876 Y97.191 E1.8190
G1 X86.219 Y95.820 E1.8614
G1 X86.695 Y94.489 E1.9037
G1 X87.300 Y93.212 E1.9460
G1 X88.026 Y91.999 E1.9883
G1 X88.868 Y90.864 E2.0306
G1 X89.817 Y89.817 E2.0729
G1 X90.864 Y88.868 E2.1152
G1 X91.999 Y88.026 E2.1575
G1 X93.212 Y87.300 E2.1998
G1 X94.489 Y86.695 E2.2421
G1 X95.820 Y86.219 E2.2844
G1 X97.191 Y85.876 E2.3267
G1 X98.589 Y85.669 E2.3690
G1 X100.000 Y85.599 E2.4113
G1 X101.411 Y85.669 E2.4536
G1 X102.809 Y85.876 E2.4959
G1 X104.180 Y86.219 E2.5382
G1 X105.511 Y86.695 E2.5805
G1 X106.788 Y87.300 E2.6228
G1 X108.001 Y88.026 E2.6651
G1 X109.136 Y88.868 E2.7074
G1 X108.463 Y89.687 F4800
G92 E0
G1 X107.412 Y88.907 E0.0392 F1112
G1 X106.289 Y88.234 E0.0784
G1 X105.105 Y87.674 E0.1176
G1 X103.873 Y87.233 E0.1568
G1 X102.603 Y86.915 E0.1960
G1 X101.308 Y86.723 E0.2351
G1 X100.000 Y86.659 E0.2743
G1 X98.692 Y86.723 E0.3135
G1 X97.397 Y86.915 E0.3527
G1 X96.127 Y87.233 E0.3919
G1 X94.895 Y87.674 E0.4311
G1 X93.711 Y88.234 E0.4703
G1 X92.588 Y88.907 E0.5095
G1 X91.537 Y89.687 E0.5487
G1 X90.566 Y90.566 E0.5879
G1 X89.687 Y91.537 E0.6270
G1 X88.907 Y92.588 E0.6662
G1 X88.234 Y93.711 E0.7054
G1 X87.674 Y94.895 E0.7446
G1 X87.233 Y96.127 E0.7838
G1 X86.915 Y97.397 E0.8230
G1 X86.723 Y98.692 E0.8622
G1 X86.659 Y100.000 E0.9014
G1 X86.723 Y101.308 E0.9406
G1 X86.915 Y102.603 E0.9798
G1 X87.233 Y103.873 E1.0190
G1 X87.674 Y105.105 E1.0581
G1 X88.234 Y106.289 E1.0973
G1 X88.907 Y107.412 E1.1365
G1 X89.687 Y108.463 E1.1757
G1 X90.566 Y109.434 E1.2149
G1 X91.537 Y110.313 E1.2541
G1 X92.588 Y111.093 E1.2933
G1 X93.711 Y111.766 E1.3325
G1 X94.895 Y112.326 E1.3717
G1 X96.127 Y112.767 E1.4109
G1 X97.397 Y113.085 E1.4501
G1 X98.692 Y113.277 E1.4892
G1 X100.000 Y113.341 E1.5284
G1 X101.308 Y113.277 E1.5676
G1 X102.603 Y113.085 E1.6068
G1 X103.873 Y112.767 E1.6460
G1 X105.105 Y112.326 E1.6852
G1 X106.289 Y111.766 E1.7244
G1 X107.412 Y111.093 E1.7636
G1 X108.463 Y110.313 E1.8028
G1 X109.434 Y109.434 E1.8420
G1 X110.313 Y108.463 E1.8811
G1 X111.093 Y107.412 E1.9203
G1 X111.766 Y106.289 E1.9595
G1 X112.326 Y105.105 E1.9987
G1 X112.767 Y103.873 E2.0379
G1 X113.085 Y102.603 E2.0771
G1 X113.277 Y101.308 E2.1163
G1 X113.341 Y100.000 E2.1555
G1 X113.277 Y98.692 E2.1947
G1 X113.085 Y97.397 E2.2339
G1 X112.767 Y96.127 E2.2731
