; G-Code generated by Simplify3D(R) Version 4.0.0
; Sep 11, 2019 at 10:08:39 AM
; Settings Summary
;   processName,Process1
;   applyToModels,strand_30x1x1
;   profileName,Dual_1stPrint (modified)
;   profileVersion,2019-09-06 10:19:38
;   baseProfile,Default (modified)
;   printMaterial,PLA
;   printQuality,Medium
;   printExtruders,
;   extruderName,VAP 1,VAP 2
;   extruderToolheadNumber,0,1
;   extruderDiameter,0.5,0.5
;   extruderAutoWidth,1,1
;   extruderWidth,0.6,0.6
;   extrusionMultiplier,1,1
;   extruderUseRetract,1,1
;   extruderRetractionDistance,1,1
;   extruderExtraRestartDistance,0,0
;   extruderRetractionZLift,0,0
;   extruderRetractionSpeed,1800,1800
;   extruderUseCoasting,0,0
;   extruderCoastingDistance,0.2,0.2
;   extruderUseWipe,0,0
;   extruderWipeDistance,5,5
;   primaryExtruder,0
;   layerHeight,0.3
;   topSolidLayers,1
;   bottomSolidLayers,1
;   perimeterOutlines,3
;   printPerimetersInsideOut,1
;   startPointOption,2
;   startPointOriginX,0
;   startPointOriginY,0
;   sequentialIslands,0
;   spiralVaseMode,0
;   firstLayerHeightPercentage,10
;   firstLayerWidthPercentage,100
;   firstLayerUnderspeed,0.5
;   useRaft,0
;   raftExtruder,0
;   raftTopLayers,3
;   raftBaseLayers,2
;   raftOffset,3
;   raftSeparationDistance,0.14
;   raftTopInfill,100
;   aboveRaftSpeedMultiplier,0.3
;   useSkirt,1
;   skirtExtruder,0
;   skirtLayers,1
;   skirtOutlines,2
;   skirtOffset,4
;   usePrimePillar,0
;   primePillarExtruder,999
;   primePillarWidth,12
;   primePillarLocation,7
;   primePillarSpeedMultiplier,1
;   useOozeShield,0
;   oozeShieldExtruder,999
;   oozeShieldOffset,2
;   oozeShieldOutlines,1
;   oozeShieldSidewallShape,1
;   oozeShieldSidewallAngle,30
;   oozeShieldSpeedMultiplier,1
;   infillExtruder,0
;   internalInfillPattern,Rectilinear
;   externalInfillPattern,Rectilinear
;   infillPercentage,30
;   outlineOverlapPercentage,15
;   infillExtrusionWidthPercentage,100
;   minInfillLength,5
;   infillLayerInterval,1
;   internalInfillAngles,45,-45
;   overlapInternalInfillAngles,0
;   externalInfillAngles,45,-45
;   generateSupport,0
;   supportExtruder,0
;   supportInfillPercentage,30
;   supportExtraInflation,0
;   supportBaseLayers,0
;   denseSupportExtruder,0
;   denseSupportLayers,0
;   denseSupportInfillPercentage,70
;   supportLayerInterval,1
;   supportHorizontalPartOffset,0.3
;   supportUpperSeparationLayers,1
;   supportLowerSeparationLayers,1
;   supportType,0
;   supportGridSpacing,4
;   maxOverhangAngle,45
;   supportAngles,0
;   temperatureName,VAP 1,VAP 2
;   temperatureNumber,0,1
;   temperatureSetpointCount,1,1
;   temperatureSetpointLayers,1,1
;   temperatureSetpointTemperatures,0,0
;   temperatureStabilizeAtStartup,1,1
;   temperatureHeatedBed,0,0
;   temperatureRelayBetweenLayers,0,0
;   temperatureRelayBetweenLoops,0,0
;   fanLayers
;   fanSpeeds
;   blipFanToFullPower,0
;   adjustSpeedForCooling,1
;   minSpeedLayerTime,15
;   minCoolingSpeedSlowdown,20
;   increaseFanForCooling,0
;   minFanLayerTime,45
;   maxCoolingFanSpeed,100
;   increaseFanForBridging,0
;   bridgingFanSpeed,100
;   use5D,1
;   relativeEdistances,0
;   allowEaxisZeroing,1
;   independentExtruderAxes,0
;   includeM10123,0
;   stickySupport,1
;   applyToolheadOffsets,1
;   gcodeXoffset,0
;   gcodeYoffset,0
;   gcodeZoffset,0
;   overrideMachineDefinition,1
;   machineTypeOverride,0
;   strokeXoverride,135
;   strokeYoverride,300
;   strokeZoverride,300
;   originOffsetXoverride,0
;   originOffsetYoverride,0
;   originOffsetZoverride,0
;   homeXdirOverride,-1
;   homeYdirOverride,-1
;   homeZdirOverride,-1
;   flipXoverride,1
;   flipYoverride,-1
;   flipZoverride,1
;   toolheadOffsets,0,0|-111.5,2.95|0,0|0,0|0,0|0,0
;   overrideFirmwareConfiguration,0
;   firmwareTypeOverride,RepRap (Marlin/Repetier/Sprinter)
;   GPXconfigOverride,r2
;   baudRateOverride,115200
;   overridePrinterModels,0
;   printerModelsOverride
;   startingGcode,G28 ; home all axes
;   layerChangeGcode,
;   retractionGcode,
;   toolChangeGcode,
;   endingGcode,M104 S0 ; turn off extruder,M140 S0 ; turn off bed,M84 ; disable motors
;   exportFileFormat,gcode
;   celebration,0
;   celebrationSong,Random Song
;   postProcessing,
;   defaultSpeed,3600
;   outlineUnderspeed,0.5
;   solidInfillUnderspeed,0.8
;   supportUnderspeed,0.8
;   rapidXYspeed,4800
;   rapidZspeed,1000
;   minBridgingArea,50
;   bridgingExtraInflation,0
;   bridgingExtrusionMultiplier,1
;   bridgingSpeedMultiplier,1
;   useFixedBridgingAngle,0
;   fixedBridgingAngle,0
;   applyBridgingToPerimeters,0
;   filamentDiameters,1.75|1.75|1.75|1.75|1.75|1.75
;   filamentPricesPerKg,46|46|46|46|46|46
;   filamentDensities,1.25|1.25|1.25|1.25|1.25|1.25
;   useMinPrintHeight,0
;   minPrintHeight,0
;   useMaxPrintHeight,0
;   maxPrintHeight,0
;   useDiaphragm,0
;   diaphragmLayerInterval,20
;   robustSlicing,1
;   mergeAllIntoSolid,0
;   onlyRetractWhenCrossingOutline,1
;   retractBetweenLayers,1
;   useRetractionMinTravel,0
;   retractionMinTravel,3
;   retractWhileWiping,0
;   onlyWipeOutlines,1
;   avoidCrossingOutline,0
;   maxMovementDetourFactor,3
;   toolChangeRetractionDistance,12
;   toolChangeExtraRestartDistance,-0.5
;   toolChangeRetractionSpeed,600
;   externalThinWallType,0
;   internalThinWallType,2
;   thinWallAllowedOverlapPercentage,10
;   singleExtrusionMinLength,1
;   singleExtrusionMinPrintingWidthPercentage,50
;   singleExtrusionMaxPrintingWidthPercentage,200
;   singleExtrusionEndpointExtension,0.2
;   horizontalSizeCompensation,0
G90
M82
M104 S0 T0
M104 S0 T1
G28 ; home all axes
G92 E0
G1 E-1.0000 F1800
G1 Z0.030 F1000
; process Process1
; layer 1, Z = 0.030
T0
; tool H0.300 W0.600
; outer perimeter
G1 X132.300 Y100.800 F4800
G1 E0.0000 F540
G92 E0
M400
M106 S255 ;turns UV on
G1 X132.700 Y100.800 E0.0299 F360
G1 X132.700 Y130.200 E2.2301
G1 X132.300 Y130.200 E2.2600
G1 X132.300 Y100.800 E4.4602
G92 E0
M400
M106 S0 ;turns UV off
G1 E-1.0000 F1800
; layer 2, Z = 0.330
G1 X132.300 Y100.800 F4800
G1 Z0.330 F1000
G1 E0.0000 F1800
G92 E0
M400
M106 S255 ;turns UV on
G1 X132.700 Y100.800 E0.0299 F360
G1 X132.700 Y130.200 E2.2301
G1 X132.300 Y130.200 E2.2600
G1 X132.300 Y100.800 E4.4602
G92 E0
M400
M106 S0 ;turns UV off
G1 E-1.0000 F1800
; layer 3, Z = 0.630
G1 X132.300 Y100.800 F4800
G1 Z0.630 F1000
G1 E0.0000 F1800
G92 E0
M400
M106 S255 ;turns UV on
G1 X132.700 Y100.800 E0.0299 F360
G1 X132.700 Y130.200 E2.2301
G1 X132.300 Y130.200 E2.2600
G1 X132.300 Y100.800 E4.4602
G92 E0
M400
M106 S0 ;turns UV off
G1 E-1.0000 F1800
; layer 4, Z = 0.930
G1 X132.300 Y100.800 F4800
G1 Z0.930 F1000
G1 E0.0000 F1800
G92 E0
M400
M106 S255 ;turns UV on
G1 X132.700 Y100.800 E0.0299 F360
G1 X132.700 Y130.200 E2.2301
G1 X132.300 Y130.200 E2.2600
G1 X132.300 Y100.800 E4.4602
G92 E0
M400
M106 S0 ;turns UV off
G1 E-12.0000 F600
; process Process2
; layer 5, Z = 0.030
; layer 6, Z = 0.330
; layer 7, Z = 0.630
; layer 8, Z = 0.930
; layer 9, Z = 1.230
T1
; tool H0.300 W0.600
G1 X21.100 Y103.750 F4800
G1 Z1.230 F1000
G92 E0
M400
M42 P7 S255 ;turns UV on
G1 X21.100 Y133.150 E2.2002 F360
G1 X20.700 Y133.150 E2.2301
G1 X20.700 Y103.750 E4.4302
G1 X21.100 Y103.750 E4.4602
G92 E0
M400
M42 P7 S0 ;turns UV off
G1 E-1.0000 F1800
; layer 10, Z = 1.530
G1 X21.100 Y103.750 F4800
G1 Z1.530 F1000
G1 E0.0000 F1800
G92 E0
M400
M42 P7 S255 ;turns UV on
G1 X21.100 Y133.150 E2.2002 F360
G1 X20.700 Y133.150 E2.2301
G1 X20.700 Y103.750 E4.4302
G1 X21.100 Y103.750 E4.4602
G92 E0
M400
M42 P7 S0 ;turns UV off
G1 E-1.0000 F1800
; layer 11, Z = 1.830
G1 X21.100 Y103.750 F4800
G1 Z1.830 F1000
G1 E0.0000 F1800
G92 E0
M400
M42 P7 S255 ;turns UV on
G1 X21.100 Y133.150 E2.2002 F360
G1 X20.700 Y133.150 E2.2301
G1 X20.700 Y103.750 E4.4302
G1 X21.100 Y103.750 E4.4602
G92 E0
M400
M42 P7 S0 ;turns UV off
G1 E-1.0000 F1800
; layer 12, Z = 2.130
G1 X21.100 Y103.750 F4800
G1 Z2.130 F1000
G1 E0.0000 F1800
G92 E0
M400
M42 P7 S255 ;turns UV on
G1 X21.100 Y133.150 E2.2002 F360
G1 X20.700 Y133.150 E2.2301
G1 X20.700 Y103.750 E4.4302
G1 X21.100 Y103.750 E4.4602
G92 E0
M400
M42 P7 S0 ;turns UV off
G1 E-1.0000 F1800
; layer end
M104 S0 ; turn off extruder
M140 S0 ; turn off bed
M84 ; disable motors
; Build Summary
;   Build time: 0 hours 1 minute
;   Filament length: 23.7 mm (0.02 m)
;   Plastic volume: 56.96 mm^3 (0.06 cc)
;   Plastic weight: 0.07 g (0.00 lb)
