; G-Code generated by Simplify3D(R) Version 4.0.0
; Sep 25, 2019 at 1:05:17 PM
; Settings Summary
;   processName,Process1
;   applyToModels,hollow cylinder_D15mm_d3mm
;   profileName,VAP_clay_cyl_3mm_0.6m-nozzle (modified)
;   profileVersion,2019-07-11 13:46:52
;   baseProfile,Default (modified)
;   printMaterial,Clay
;   printQuality,Medium
;   printExtruders,
;   extruderName,Primary Extruder
;   extruderToolheadNumber,0
;   extruderDiameter,0.6
;   extruderAutoWidth,0
;   extruderWidth,0.6
;   extrusionMultiplier,1
;   extruderUseRetract,1
;   extruderRetractionDistance,1
;   extruderExtraRestartDistance,0
;   extruderRetractionZLift,0
;   extruderRetractionSpeed,1800
;   extruderUseCoasting,0
;   extruderCoastingDistance,0.2
;   extruderUseWipe,0
;   extruderWipeDistance,5
;   primaryExtruder,0
;   layerHeight,0.3
;   topSolidLayers,1
;   bottomSolidLayers,1
;   perimeterOutlines,5
;   printPerimetersInsideOut,1
;   startPointOption,2
;   startPointOriginX,0
;   startPointOriginY,0
;   sequentialIslands,0
;   spiralVaseMode,0
;   firstLayerHeightPercentage,100
;   firstLayerWidthPercentage,100
;   firstLayerUnderspeed,0.5
;   useRaft,0
;   raftExtruder,0
;   raftTopLayers,3
;   raftBaseLayers,2
;   raftOffset,3
;   raftSeparationDistance,0.14
;   raftTopInfill,100
;   aboveRaftSpeedMultiplier,0.3
;   useSkirt,1
;   skirtExtruder,0
;   skirtLayers,1
;   skirtOutlines,1
;   skirtOffset,4
;   usePrimePillar,0
;   primePillarExtruder,999
;   primePillarWidth,12
;   primePillarLocation,7
;   primePillarSpeedMultiplier,1
;   useOozeShield,0
;   oozeShieldExtruder,999
;   oozeShieldOffset,2
;   oozeShieldOutlines,1
;   oozeShieldSidewallShape,1
;   oozeShieldSidewallAngle,30
;   oozeShieldSpeedMultiplier,1
;   infillExtruder,0
;   internalInfillPattern,Wiggle
;   externalInfillPattern,Concentric
;   infillPercentage,0
;   outlineOverlapPercentage,15
;   infillExtrusionWidthPercentage,100
;   minInfillLength,5
;   infillLayerInterval,1
;   internalInfillAngles,0
;   overlapInternalInfillAngles,0
;   externalInfillAngles,45,-45
;   generateSupport,0
;   supportExtruder,0
;   supportInfillPercentage,30
;   supportExtraInflation,0
;   supportBaseLayers,0
;   denseSupportExtruder,0
;   denseSupportLayers,0
;   denseSupportInfillPercentage,70
;   supportLayerInterval,1
;   supportHorizontalPartOffset,0.3
;   supportUpperSeparationLayers,1
;   supportLowerSeparationLayers,1
;   supportType,0
;   supportGridSpacing,4
;   maxOverhangAngle,45
;   supportAngles,0
;   temperatureName,Primary Extruder
;   temperatureNumber,0
;   temperatureSetpointCount,1
;   temperatureSetpointLayers,1
;   temperatureSetpointTemperatures,0
;   temperatureStabilizeAtStartup,1
;   temperatureHeatedBed,0
;   temperatureRelayBetweenLayers,0
;   temperatureRelayBetweenLoops,0
;   fanLayers
;   fanSpeeds
;   blipFanToFullPower,0
;   adjustSpeedForCooling,1
;   minSpeedLayerTime,15
;   minCoolingSpeedSlowdown,20
;   increaseFanForCooling,0
;   minFanLayerTime,45
;   maxCoolingFanSpeed,100
;   increaseFanForBridging,0
;   bridgingFanSpeed,100
;   use5D,1
;   relativeEdistances,0
;   allowEaxisZeroing,1
;   independentExtruderAxes,0
;   includeM10123,0
;   stickySupport,1
;   applyToolheadOffsets,0
;   gcodeXoffset,0
;   gcodeYoffset,0
;   gcodeZoffset,0
;   overrideMachineDefinition,0
;   machineTypeOverride,0
;   strokeXoverride,200
;   strokeYoverride,200
;   strokeZoverride,200
;   originOffsetXoverride,0
;   originOffsetYoverride,0
;   originOffsetZoverride,0
;   homeXdirOverride,-1
;   homeYdirOverride,-1
;   homeZdirOverride,-1
;   flipXoverride,1
;   flipYoverride,-1
;   flipZoverride,1
;   toolheadOffsets,0,0|0,0|0,0|0,0|0,0|0,0
;   overrideFirmwareConfiguration,0
;   firmwareTypeOverride,RepRap (Marlin/Repetier/Sprinter)
;   GPXconfigOverride,r2
;   baudRateOverride,115200
;   overridePrinterModels,0
;   printerModelsOverride
;   startingGcode,G28 ; home all axes
;   layerChangeGcode,
;   retractionGcode,
;   toolChangeGcode,
;   endingGcode,G28 X0 ; home X axis,M104 S0 ; turn off extruder,M140 S0 ; turn off bed,M84 ; disable motors
;   exportFileFormat,gcode
;   celebration,0
;   celebrationSong,Random Song
;   postProcessing,
;   defaultSpeed,500
;   outlineUnderspeed,1
;   solidInfillUnderspeed,1
;   supportUnderspeed,0.8
;   rapidXYspeed,1000
;   rapidZspeed,1000
;   minBridgingArea,50
;   bridgingExtraInflation,0
;   bridgingExtrusionMultiplier,1
;   bridgingSpeedMultiplier,1
;   useFixedBridgingAngle,0
;   fixedBridgingAngle,0
;   applyBridgingToPerimeters,0
;   filamentDiameters,1.75|1.75|1.75|1.75|1.75|1.75
;   filamentPricesPerKg,46|46|46|46|46|46
;   filamentDensities,1.25|1.25|1.25|1.25|1.25|1.25
;   useMinPrintHeight,0
;   minPrintHeight,0
;   useMaxPrintHeight,0
;   maxPrintHeight,0
;   useDiaphragm,0
;   diaphragmLayerInterval,20
;   robustSlicing,1
;   mergeAllIntoSolid,0
;   onlyRetractWhenCrossingOutline,1
;   retractBetweenLayers,1
;   useRetractionMinTravel,0
;   retractionMinTravel,3
;   retractWhileWiping,0
;   onlyWipeOutlines,1
;   avoidCrossingOutline,0
;   maxMovementDetourFactor,3
;   toolChangeRetractionDistance,12
;   toolChangeExtraRestartDistance,-0.5
;   toolChangeRetractionSpeed,600
;   externalThinWallType,0
;   internalThinWallType,2
;   thinWallAllowedOverlapPercentage,10
;   singleExtrusionMinLength,1
;   singleExtrusionMinPrintingWidthPercentage,50
;   singleExtrusionMaxPrintingWidthPercentage,200
;   singleExtrusionEndpointExtension,0.2
;   horizontalSizeCompensation,0
G90
M82
M104 S0 T0
G28 ; home all axes
G92 E0
G1 E-1.0000 F1800
G1 Z0.300 F1000
; process Process1
; layer 1, Z = 0.300
T0
; tool H0.300 W0.600
; skirt
G1 X94.373 Y169.627 F1000
G1 E0.0000 F540
G92 E0
M400
M42 P9 S255 ;turns UV on
G1 X94.572 Y169.522 E0.0168 F250
G1 X94.579 Y169.518 E0.0174
G1 X95.520 Y169.083 E0.0950
G1 X95.528 Y169.080 E0.0956
G1 X95.737 Y168.996 E0.1125
G1 X95.744 Y168.994 E0.1131
G1 X96.727 Y168.663 E0.1907
G1 X96.735 Y168.660 E0.1913
G1 X96.952 Y168.600 E0.2081
G1 X96.959 Y168.598 E0.2087
G1 X97.972 Y168.375 E0.2863
G1 X97.980 Y168.374 E0.2869
G1 X98.202 Y168.337 E0.3037
G1 X98.210 Y168.336 E0.3044
G1 X99.241 Y168.224 E0.3820
G1 X99.249 Y168.223 E0.3826
G1 X99.473 Y168.211 E0.3994
G1 X99.482 Y168.211 E0.4000
G1 X100.518 Y168.211 E0.4776
G1 X100.527 Y168.211 E0.4782
G1 X100.751 Y168.223 E0.4950
G1 X100.759 Y168.224 E0.4956
G1 X101.790 Y168.336 E0.5732
G1 X101.798 Y168.337 E0.5738
G1 X102.020 Y168.374 E0.5907
G1 X102.028 Y168.375 E0.5913
G1 X103.041 Y168.598 E0.6689
G1 X103.048 Y168.600 E0.6695
G1 X103.265 Y168.660 E0.6863
G1 X103.273 Y168.663 E0.6869
G1 X104.256 Y168.994 E0.7645
G1 X104.263 Y168.996 E0.7651
G1 X104.472 Y169.080 E0.7819
G1 X104.480 Y169.083 E0.7826
G1 X105.421 Y169.518 E0.8602
G1 X105.428 Y169.522 E0.8608
G1 X105.627 Y169.627 E0.8776
G1 X105.634 Y169.631 E0.8782
G1 X106.522 Y170.166 E0.9558
G1 X106.529 Y170.170 E0.9564
G1 X106.715 Y170.296 E0.9732
G1 X106.722 Y170.301 E0.9738
G1 X107.547 Y170.929 E1.0514
G1 X107.553 Y170.934 E1.0520
G1 X107.725 Y171.079 E1.0689
G1 X107.731 Y171.085 E1.0695
G1 X108.484 Y171.798 E1.1471
G1 X108.489 Y171.804 E1.1477
G1 X108.644 Y171.967 E1.1645
G1 X108.649 Y171.973 E1.1651
G1 X109.321 Y172.763 E1.2427
G1 X109.326 Y172.769 E1.2433
G1 X109.462 Y172.948 E1.2602
G1 X109.467 Y172.955 E1.2608
G1 X110.049 Y173.813 E1.3384
G1 X110.053 Y173.820 E1.3390
G1 X110.169 Y174.013 E1.3558
G1 X110.173 Y174.020 E1.3564
G1 X110.659 Y174.936 E1.4340
G1 X110.662 Y174.943 E1.4346
G1 X110.757 Y175.147 E1.4514
G1 X110.760 Y175.155 E1.4520
G1 X111.144 Y176.118 E1.5296
G1 X111.146 Y176.126 E1.5302
G1 X111.218 Y176.339 E1.5471
G1 X111.221 Y176.347 E1.5477
G1 X111.498 Y177.346 E1.6253
G1 X111.500 Y177.354 E1.6259
G1 X111.548 Y177.573 E1.6427
G1 X111.550 Y177.581 E1.6433
G1 X111.718 Y178.604 E1.7209
G1 X111.719 Y178.612 E1.7215
G1 X111.743 Y178.836 E1.7384
G1 X111.744 Y178.844 E1.7390
G1 X111.800 Y179.879 E1.8166
G1 X111.800 Y179.888 E1.8172
G1 X111.800 Y180.112 E1.8340
G1 X111.800 Y180.121 E1.8346
G1 X111.744 Y181.156 E1.9122
G1 X111.743 Y181.164 E1.9128
G1 X111.719 Y181.388 E1.9296
G1 X111.718 Y181.396 E1.9302
G1 X111.550 Y182.419 E2.0078
G1 X111.548 Y182.427 E2.0085
G1 X111.500 Y182.646 E2.0253
G1 X111.498 Y182.654 E2.0259
G1 X111.221 Y183.653 E2.1035
G1 X111.218 Y183.661 E2.1041
G1 X111.146 Y183.874 E2.1209
G1 X111.144 Y183.882 E2.1215
G1 X110.760 Y184.845 E2.1991
G1 X110.757 Y184.853 E2.1997
G1 X110.662 Y185.057 E2.2166
G1 X110.659 Y185.064 E2.2172
G1 X110.173 Y185.980 E2.2948
G1 X110.169 Y185.987 E2.2954
G1 X110.053 Y186.180 E2.3122
G1 X110.049 Y186.187 E2.3128
G1 X109.467 Y187.045 E2.3904
G1 X109.462 Y187.052 E2.3910
G1 X109.326 Y187.231 E2.4078
G1 X109.321 Y187.237 E2.4084
G1 X108.649 Y188.027 E2.4860
G1 X108.644 Y188.033 E2.4867
G1 X108.489 Y188.196 E2.5035
G1 X108.484 Y188.202 E2.5041
G1 X107.731 Y188.915 E2.5817
G1 X107.725 Y188.921 E2.5823
G1 X107.553 Y189.066 E2.5991
G1 X107.547 Y189.071 E2.5997
G1 X106.722 Y189.699 E2.6773
G1 X106.715 Y189.704 E2.6779
G1 X106.529 Y189.830 E2.6948
G1 X106.522 Y189.834 E2.6954
G1 X105.634 Y190.369 E2.7730
G1 X105.627 Y190.373 E2.7736
G1 X105.428 Y190.478 E2.7904
G1 X105.421 Y190.482 E2.7910
G1 X104.480 Y190.917 E2.8686
G1 X104.472 Y190.920 E2.8692
G1 X104.263 Y191.004 E2.8860
G1 X104.256 Y191.006 E2.8867
G1 X103.273 Y191.337 E2.9643
G1 X103.265 Y191.340 E2.9649
G1 X103.048 Y191.400 E2.9817
G1 X103.041 Y191.402 E2.9823
G1 X102.028 Y191.625 E3.0599
G1 X102.020 Y191.626 E3.0605
G1 X101.798 Y191.663 E3.0773
G1 X101.790 Y191.664 E3.0779
G1 X100.759 Y191.776 E3.1555
G1 X100.751 Y191.777 E3.1561
G1 X100.527 Y191.789 E3.1730
G1 X100.518 Y191.789 E3.1736
G1 X99.482 Y191.789 E3.2512
G1 X99.473 Y191.789 E3.2518
G1 X99.249 Y191.777 E3.2686
G1 X99.241 Y191.776 E3.2692
G1 X98.210 Y191.664 E3.3468
G1 X98.202 Y191.663 E3.3474
G1 X97.980 Y191.626 E3.3642
G1 X97.972 Y191.625 E3.3649
G1 X96.959 Y191.402 E3.4424
G1 X96.952 Y191.400 E3.4431
G1 X96.735 Y191.340 E3.4599
G1 X96.727 Y191.337 E3.4605
G1 X95.744 Y191.006 E3.5381
G1 X95.737 Y191.004 E3.5387
G1 X95.528 Y190.920 E3.5555
G1 X95.520 Y190.917 E3.5561
G1 X94.579 Y190.482 E3.6337
G1 X94.572 Y190.478 E3.6343
G1 X94.373 Y190.373 E3.6512
G1 X94.366 Y190.369 E3.6518
G1 X93.478 Y189.834 E3.7294
G1 X93.471 Y189.830 E3.7300
G1 X93.285 Y189.704 E3.7468
G1 X93.278 Y189.699 E3.7474
G1 X92.453 Y189.071 E3.8250
G1 X92.447 Y189.066 E3.8256
G1 X92.275 Y188.921 E3.8424
G1 X92.269 Y188.915 E3.8431
G1 X91.516 Y188.202 E3.9207
G1 X91.511 Y188.196 E3.9213
G1 X91.356 Y188.033 E3.9381
G1 X91.351 Y188.027 E3.9387
G1 X90.679 Y187.237 E4.0163
G1 X90.674 Y187.231 E4.0169
G1 X90.538 Y187.052 E4.0337
G1 X90.533 Y187.045 E4.0343
G1 X89.951 Y186.187 E4.1119
G1 X89.947 Y186.180 E4.1125
G1 X89.831 Y185.987 E4.1294
G1 X89.827 Y185.980 E4.1300
G1 X89.341 Y185.064 E4.2076
G1 X89.338 Y185.057 E4.2082
G1 X89.243 Y184.853 E4.2250
G1 X89.240 Y184.845 E4.2256
G1 X88.856 Y183.882 E4.3032
G1 X88.854 Y183.874 E4.3038
G1 X88.782 Y183.661 E4.3206
G1 X88.779 Y183.653 E4.3213
G1 X88.502 Y182.654 E4.3989
G1 X88.500 Y182.646 E4.3995
G1 X88.452 Y182.427 E4.4163
G1 X88.450 Y182.419 E4.4169
G1 X88.282 Y181.396 E4.4945
G1 X88.281 Y181.388 E4.4951
G1 X88.257 Y181.164 E4.5119
G1 X88.256 Y181.156 E4.5125
G1 X88.200 Y180.121 E4.5901
G1 X88.200 Y180.112 E4.5907
G1 X88.200 Y179.888 E4.6076
G1 X88.200 Y179.879 E4.6082
G1 X88.256 Y178.844 E4.6858
G1 X88.257 Y178.836 E4.6864
G1 X88.281 Y178.612 E4.7032
G1 X88.282 Y178.604 E4.7038
G1 X88.450 Y177.581 E4.7814
G1 X88.452 Y177.573 E4.7820
G1 X88.500 Y177.354 E4.7989
G1 X88.502 Y177.346 E4.7995
G1 X88.779 Y176.347 E4.8771
G1 X88.782 Y176.339 E4.8777
G1 X88.854 Y176.126 E4.8945
G1 X88.856 Y176.118 E4.8951
G1 X89.240 Y175.155 E4.9727
G1 X89.243 Y175.147 E4.9733
G1 X89.338 Y174.943 E4.9901
G1 X89.341 Y174.936 E4.9907
G1 X89.827 Y174.020 E5.0683
G1 X89.831 Y174.013 E5.0689
G1 X89.947 Y173.820 E5.0858
G1 X89.951 Y173.813 E5.0864
G1 X90.533 Y172.955 E5.1640
G1 X90.538 Y172.948 E5.1646
G1 X90.674 Y172.769 E5.1814
G1 X90.679 Y172.763 E5.1820
G1 X91.351 Y171.973 E5.2596
G1 X91.356 Y171.967 E5.2602
G1 X91.511 Y171.804 E5.2771
G1 X91.516 Y171.798 E5.2777
G1 X92.269 Y171.085 E5.3553
G1 X92.275 Y171.079 E5.3559
G1 X92.447 Y170.934 E5.3727
G1 X92.453 Y170.929 E5.3733
G1 X93.278 Y170.301 E5.4509
G1 X93.285 Y170.296 E5.4515
G1 X93.471 Y170.170 E5.4683
G1 X93.478 Y170.166 E5.4689
G1 X94.366 Y169.631 E5.5465
G1 X94.373 Y169.627 E5.5472
G92 E0
M400
M42 P9 S0 ;turns UV off
G1 E-1.0000 F1800
; inner perimeter
G1 X97.754 Y175.763 F1000
G1 E0.0000 F1800
G92 E0
M400
M42 P9 S255 ;turns UV on
G1 X98.225 Y175.545 E0.0389 F250
G1 X98.717 Y175.379 E0.0777
G1 X99.224 Y175.267 E0.1166
G1 X99.740 Y175.211 E0.1554
G1 X100.260 Y175.211 E0.1943
G1 X100.776 Y175.267 E0.2332
G1 X101.283 Y175.379 E0.2720
G1 X101.775 Y175.545 E0.3109
G1 X102.246 Y175.763 E0.3498
G1 X102.691 Y176.030 E0.3886
G1 X103.105 Y176.345 E0.4275
G1 X103.482 Y176.702 E0.4663
G1 X103.818 Y177.098 E0.5052
G1 X104.109 Y177.527 E0.5441
G1 X104.353 Y177.986 E0.5829
G1 X104.545 Y178.469 E0.6218
G1 X104.684 Y178.969 E0.6607
G1 X104.768 Y179.481 E0.6995
G1 X104.796 Y180.000 E0.7384
G1 X104.768 Y180.519 E0.7772
G1 X104.684 Y181.031 E0.8161
G1 X104.545 Y181.531 E0.8550
G1 X104.353 Y182.014 E0.8938
G1 X104.109 Y182.473 E0.9327
G1 X103.818 Y182.902 E0.9715
G1 X103.482 Y183.298 E1.0104
G1 X103.105 Y183.655 E1.0493
G1 X102.691 Y183.970 E1.0881
G1 X102.246 Y184.237 E1.1270
G1 X101.775 Y184.455 E1.1659
G1 X101.283 Y184.621 E1.2047
G1 X100.776 Y184.733 E1.2436
G1 X100.260 Y184.789 E1.2825
G1 X99.740 Y184.789 E1.3213
G1 X99.224 Y184.733 E1.3602
G1 X98.717 Y184.621 E1.3990
G1 X98.225 Y184.455 E1.4379
G1 X97.754 Y184.237 E1.4768
G1 X97.309 Y183.970 E1.5156
G1 X96.895 Y183.655 E1.5545
G1 X96.518 Y183.298 E1.5934
G1 X96.182 Y182.902 E1.6322
G1 X95.891 Y182.473 E1.6711
G1 X95.647 Y182.014 E1.7099
G1 X95.455 Y181.531 E1.7488
G1 X95.316 Y181.031 E1.7877
G1 X95.232 Y180.519 E1.8265
G1 X95.204 Y180.000 E1.8654
G1 X95.232 Y179.481 E1.9043
G1 X95.316 Y178.969 E1.9431
G1 X95.455 Y178.469 E1.9820
G1 X95.647 Y177.986 E2.0208
G1 X95.891 Y177.527 E2.0597
G1 X96.182 Y177.098 E2.0986
G1 X96.518 Y176.702 E2.1374
G1 X96.895 Y176.345 E2.1763
G1 X97.309 Y176.030 E2.2151
G1 X97.754 Y175.763 E2.2540
M400
M42 P9 S0 ;turns UV off
G1 X97.472 Y175.232 F1000
G92 E0
M400
M42 P9 S255 ;turns UV on
G1 X98.002 Y174.986 E0.0437 F250
G1 X98.556 Y174.800 E0.0875
G1 X99.127 Y174.674 E0.1312
G1 X99.708 Y174.611 E0.1749
G1 X100.292 Y174.611 E0.2187
G1 X100.873 Y174.674 E0.2624
G1 X101.444 Y174.800 E0.3061
G1 X101.998 Y174.986 E0.3498
G1 X102.528 Y175.232 E0.3936
G1 X103.029 Y175.533 E0.4373
G1 X103.494 Y175.887 E0.4810
G1 X103.918 Y176.289 E0.5248
G1 X104.296 Y176.734 E0.5685
G1 X104.624 Y177.218 E0.6122
G1 X104.898 Y177.734 E0.6560
G1 X105.114 Y178.277 E0.6997
G1 X105.271 Y178.840 E0.7434
G1 X105.365 Y179.417 E0.7872
G1 X105.397 Y180.000 E0.8309
G1 X105.365 Y180.583 E0.8746
G1 X105.271 Y181.160 E0.9184
G1 X105.114 Y181.723 E0.9621
G1 X104.898 Y182.266 E1.0058
G1 X104.624 Y182.782 E1.0495
G1 X104.296 Y183.266 E1.0933
G1 X103.918 Y183.711 E1.1370
G1 X103.494 Y184.113 E1.1807
G1 X103.029 Y184.467 E1.2245
G1 X102.528 Y184.768 E1.2682
G1 X101.998 Y185.014 E1.3119
G1 X101.444 Y185.200 E1.3557
G1 X100.873 Y185.326 E1.3994
G1 X100.292 Y185.389 E1.4431
G1 X99.708 Y185.389 E1.4869
G1 X99.127 Y185.326 E1.5306
G1 X98.556 Y185.200 E1.5743
G1 X98.002 Y185.014 E1.6181
G1 X97.472 Y184.768 E1.6618
G1 X96.971 Y184.467 E1.7055
G1 X96.506 Y184.113 E1.7492
G1 X96.082 Y183.711 E1.7930
G1 X95.704 Y183.266 E1.8367
