; G-Code generated by Simplify3D(R) Version 4.0.0
; Nov 24, 2019 at 8:19:40 PM
; Settings Summary
;   processName,Process1
;   applyToModels,hollowcyl_10x30
;   profileName,VAP_T0 (modified)
;   profileVersion,2019-11-24 20:18:43
;   baseProfile,Default (modified)
;   printMaterial,PLA
;   printQuality,Medium
;   printExtruders,
;   extruderName,VAP 1
;   extruderToolheadNumber,0
;   extruderDiameter,0.6
;   extruderAutoWidth,1
;   extruderWidth,0.72
;   extrusionMultiplier,1
;   extruderUseRetract,1
;   extruderRetractionDistance,1
;   extruderExtraRestartDistance,0
;   extruderRetractionZLift,0
;   extruderRetractionSpeed,1800
;   extruderUseCoasting,0
;   extruderCoastingDistance,0.2
;   extruderUseWipe,0
;   extruderWipeDistance,5
;   primaryExtruder,0
;   layerHeight,0.3
;   topSolidLayers,0
;   bottomSolidLayers,0
;   perimeterOutlines,1
;   printPerimetersInsideOut,1
;   startPointOption,2
;   startPointOriginX,0
;   startPointOriginY,0
;   sequentialIslands,0
;   spiralVaseMode,0
;   firstLayerHeightPercentage,100
;   firstLayerWidthPercentage,100
;   firstLayerUnderspeed,1
;   useRaft,0
;   raftExtruder,0
;   raftTopLayers,3
;   raftBaseLayers,2
;   raftOffset,3
;   raftSeparationDistance,0.14
;   raftTopInfill,100
;   aboveRaftSpeedMultiplier,0.3
;   useSkirt,0
;   skirtExtruder,0
;   skirtLayers,1
;   skirtOutlines,1
;   skirtOffset,5
;   usePrimePillar,0
;   primePillarExtruder,999
;   primePillarWidth,12
;   primePillarLocation,7
;   primePillarSpeedMultiplier,1
;   useOozeShield,0
;   oozeShieldExtruder,999
;   oozeShieldOffset,2
;   oozeShieldOutlines,1
;   oozeShieldSidewallShape,1
;   oozeShieldSidewallAngle,30
;   oozeShieldSpeedMultiplier,1
;   infillExtruder,0
;   internalInfillPattern,Rectilinear
;   externalInfillPattern,Rectilinear
;   infillPercentage,99
;   outlineOverlapPercentage,0
;   infillExtrusionWidthPercentage,100
;   minInfillLength,5
;   infillLayerInterval,1
;   internalInfillAngles,45,-45
;   overlapInternalInfillAngles,0
;   externalInfillAngles,45,-45
;   generateSupport,0
;   supportExtruder,0
;   supportInfillPercentage,30
;   supportExtraInflation,0
;   supportBaseLayers,0
;   denseSupportExtruder,0
;   denseSupportLayers,0
;   denseSupportInfillPercentage,70
;   supportLayerInterval,1
;   supportHorizontalPartOffset,0.3
;   supportUpperSeparationLayers,1
;   supportLowerSeparationLayers,1
;   supportType,0
;   supportGridSpacing,4
;   maxOverhangAngle,45
;   supportAngles,0
;   temperatureName,VAP 1
;   temperatureNumber,0
;   temperatureSetpointCount,1
;   temperatureSetpointLayers,1
;   temperatureSetpointTemperatures,0
;   temperatureStabilizeAtStartup,1
;   temperatureHeatedBed,0
;   temperatureRelayBetweenLayers,0
;   temperatureRelayBetweenLoops,0
;   fanLayers
;   fanSpeeds
;   blipFanToFullPower,0
;   adjustSpeedForCooling,1
;   minSpeedLayerTime,15
;   minCoolingSpeedSlowdown,20
;   increaseFanForCooling,0
;   minFanLayerTime,45
;   maxCoolingFanSpeed,100
;   increaseFanForBridging,0
;   bridgingFanSpeed,100
;   use5D,1
;   relativeEdistances,0
;   allowEaxisZeroing,1
;   independentExtruderAxes,0
;   includeM10123,0
;   stickySupport,1
;   applyToolheadOffsets,1
;   gcodeXoffset,0
;   gcodeYoffset,0
;   gcodeZoffset,0
;   overrideMachineDefinition,1
;   machineTypeOverride,0
;   strokeXoverride,135
;   strokeYoverride,300
;   strokeZoverride,300
;   originOffsetXoverride,0
;   originOffsetYoverride,0
;   originOffsetZoverride,0
;   homeXdirOverride,-1
;   homeYdirOverride,-1
;   homeZdirOverride,-1
;   flipXoverride,1
;   flipYoverride,-1
;   flipZoverride,1
;   toolheadOffsets,0,0|0,-127|0,0|0,0|0,0|0,0
;   overrideFirmwareConfiguration,0
;   firmwareTypeOverride,RepRap (Marlin/Repetier/Sprinter)
;   GPXconfigOverride,r2
;   baudRateOverride,115200
;   overridePrinterModels,0
;   printerModelsOverride
;   startingGcode,
;   layerChangeGcode,
;   retractionGcode,
;   toolChangeGcode,; code before tool change (still T0),; T(tool number),; code after tool change (T1),M42 P7 S0; turn off T0,M107; turn off T1,T1; calls 2nd VAP head,G91; relative positioning,G1 Z5; raise nozzle,G90; absolute positioning,G1 X0 F3000; home X to prime,M106; extrude with T1,G4 P15; prime for 15 sec,M107; turn off extruder,G91; relative positioning,G1 Z-5; lower nozzle again,G90; switch back to absolute coordinates
;   endingGcode,M104 S0 ; turn off extruder,M140 S0 ; turn off bed,M84 ; disable motors
;   exportFileFormat,gcode
;   celebration,0
;   celebrationSong,Indiana
;   postProcessing,
;   defaultSpeed,500
;   outlineUnderspeed,0.5
;   solidInfillUnderspeed,0.8
;   supportUnderspeed,0.8
;   rapidXYspeed,4800
;   rapidZspeed,1000
;   minBridgingArea,50
;   bridgingExtraInflation,0
;   bridgingExtrusionMultiplier,1
;   bridgingSpeedMultiplier,1
;   useFixedBridgingAngle,0
;   fixedBridgingAngle,0
;   applyBridgingToPerimeters,0
;   filamentDiameters,1.75|1.75|1.75|1.75|1.75|1.75
;   filamentPricesPerKg,46|46|46|46|46|46
;   filamentDensities,2|1.25|1.25|1.25|1.25|1.25
;   useMinPrintHeight,0
;   minPrintHeight,0
;   useMaxPrintHeight,0
;   maxPrintHeight,0
;   useDiaphragm,0
;   diaphragmLayerInterval,20
;   robustSlicing,1
;   mergeAllIntoSolid,0
;   onlyRetractWhenCrossingOutline,1
;   retractBetweenLayers,1
;   useRetractionMinTravel,0
;   retractionMinTravel,3
;   retractWhileWiping,0
;   onlyWipeOutlines,1
;   avoidCrossingOutline,0
;   maxMovementDetourFactor,3
;   toolChangeRetractionDistance,12
;   toolChangeExtraRestartDistance,-0.5
;   toolChangeRetractionSpeed,600
;   externalThinWallType,0
;   internalThinWallType,2
;   thinWallAllowedOverlapPercentage,10
;   singleExtrusionMinLength,1
;   singleExtrusionMinPrintingWidthPercentage,50
;   singleExtrusionMaxPrintingWidthPercentage,200
;   singleExtrusionEndpointExtension,0.2
;   horizontalSizeCompensation,0
G90
M82
M104 S0 T0
G92 E0
G1 E-1.0000 F1800
G1 Z0.300 F1000
; process Process1
; layer 1, Z = 0.300
; code before tool change (still T0)
; T(tool number)
; code after tool change (T1)
M42 P7 S0; turn off T0
M107; turn off T1
T1; calls 2nd VAP head
G91; relative positioning
G1 Z5; raise nozzle
G90; absolute positioning
G1 X0 F3000; home X to prime
M106; extrude with T1
G4 P15; prime for 15 sec
M107; turn off extruder
G91; relative positioning
G1 Z-5; lower nozzle again
G90; switch back to absolute coordinates
T0
; tool H0.300 W0.720
; outer perimeter
G1 X50.476 Y186.077 F4800
G1 E0.0000 F540
G92 E0
G1 X51.956 Y185.680 E0.1376 F250
G1 X53.470 Y185.441 E0.2752
G1 X55.000 Y185.361 E0.4128
G1 X56.530 Y185.441 E0.5504
G1 X58.044 Y185.680 E0.6880
G1 X59.524 Y186.077 E0.8256
G1 X60.954 Y186.626 E0.9633
G1 X62.320 Y187.322 E1.1009
G1 X63.605 Y188.156 E1.2385
G1 X64.796 Y189.121 E1.3761
G1 X65.879 Y190.204 E1.5137
G1 X66.844 Y191.395 E1.6513
G1 X67.678 Y192.680 E1.7889
G1 X68.374 Y194.046 E1.9265
G1 X68.923 Y195.476 E2.0641
G1 X69.320 Y196.956 E2.2017
G1 X69.559 Y198.470 E2.3393
G1 X69.639 Y200.000 E2.4769
G1 X69.559 Y201.530 E2.6146
G1 X69.320 Y203.044 E2.7522
G1 X68.923 Y204.524 E2.8898
G1 X68.374 Y205.954 E3.0274
G1 X67.678 Y207.320 E3.1650
G1 X66.844 Y208.605 E3.3026
G1 X65.879 Y209.796 E3.4402
G1 X64.796 Y210.879 E3.5778
G1 X63.605 Y211.844 E3.7154
G1 X62.320 Y212.678 E3.8530
G1 X60.954 Y213.374 E3.9906
G1 X59.524 Y213.923 E4.1282
G1 X58.044 Y214.320 E4.2658
G1 X56.530 Y214.559 E4.4035
G1 X55.000 Y214.639 E4.5411
G1 X53.470 Y214.559 E4.6787
G1 X51.956 Y214.320 E4.8163
G1 X50.476 Y213.923 E4.9539
G1 X49.046 Y213.374 E5.0915
G1 X47.680 Y212.678 E5.2291
G1 X46.395 Y211.844 E5.3667
G1 X45.204 Y210.879 E5.5043
G1 X44.121 Y209.796 E5.6419
G1 X43.156 Y208.605 E5.7795
G1 X42.322 Y207.320 E5.9171
G1 X41.626 Y205.954 E6.0548
G1 X41.077 Y204.524 E6.1924
G1 X40.680 Y203.044 E6.3300
G1 X40.441 Y201.530 E6.4676
G1 X40.361 Y200.000 E6.6052
G1 X40.441 Y198.470 E6.7428
G1 X40.680 Y196.956 E6.8804
G1 X41.077 Y195.476 E7.0180
G1 X41.626 Y194.046 E7.1556
G1 X42.322 Y192.680 E7.2932
G1 X43.156 Y191.395 E7.4308
G1 X44.121 Y190.204 E7.5684
G1 X45.204 Y189.121 E7.7061
G1 X46.395 Y188.156 E7.8437
G1 X47.680 Y187.322 E7.9813
G1 X49.046 Y186.626 E8.1189
G1 X50.476 Y186.077 E8.2565
G1 X50.415 Y186.391 F4800
G92 E0
G1 X48.970 Y186.967 E0.1396 F250
G1 X47.596 Y187.695 E0.2793
G1 X46.309 Y188.568 E0.4189
G1 X45.124 Y189.574 E0.5585
G1 X44.055 Y190.703 E0.6982
G1 X43.114 Y191.941 E0.8378
G1 X42.312 Y193.273 E0.9775
G1 X41.659 Y194.685 E1.1171
G1 X41.163 Y196.158 E1.2567
G1 X40.829 Y197.677 E1.3964
G1 X40.661 Y199.223 E1.5360
G1 X40.661 Y200.777 E1.6756
G1 X40.829 Y202.323 E1.8153
G1 X41.163 Y203.842 E1.9549
G1 X41.659 Y205.315 E2.0945
G1 X42.312 Y206.727 E2.2342
G1 X43.114 Y208.059 E2.3738
G1 X44.055 Y209.297 E2.5134
G1 X45.124 Y210.426 E2.6531
G1 X46.309 Y211.432 E2.7927
G1 X47.596 Y212.305 E2.9324
G1 X48.970 Y213.033 E3.0720
G1 X50.415 Y213.609 E3.2116
G1 X51.913 Y214.025 E3.3513
G1 X53.447 Y214.276 E3.4909
G1 X55.000 Y214.361 E3.6305
G1 X56.553 Y214.276 E3.7702
G1 X58.087 Y214.025 E3.9098
G1 X59.585 Y213.609 E4.0494
G1 X61.030 Y213.033 E4.1891
G1 X62.404 Y212.305 E4.3287
G1 X63.691 Y211.432 E4.4684
G1 X64.876 Y210.426 E4.6080
G1 X65.945 Y209.297 E4.7476
G1 X66.886 Y208.059 E4.8873
G1 X67.688 Y206.727 E5.0269
G1 X68.341 Y205.315 E5.1665
G1 X68.837 Y203.842 E5.3062
G1 X69.171 Y202.323 E5.4458
G1 X69.339 Y200.777 E5.5854
G1 X69.339 Y199.223 E5.7251
G1 X69.171 Y197.677 E5.8647
G1 X68.837 Y196.158 E6.0044
G1 X68.341 Y194.685 E6.1440
G1 X67.688 Y193.273 E6.2836
G1 X66.886 Y191.941 E6.4233
G1 X65.945 Y190.703 E6.5629
G1 X64.876 Y189.574 E6.7025
G1 X63.691 Y188.568 E6.8422
G1 X62.404 Y187.695 E6.9818
G1 X61.030 Y186.967 E7.1214
G1 X59.585 Y186.391 E7.2611
G1 X58.087 Y185.975 E7.4007
G1 X56.553 Y185.724 E7.5403
G1 X55.000 Y185.639 E7.6800
G1 X53.447 Y185.724 E7.8196
G1 X51.913 Y185.975 E7.9593
G1 X50.415 Y186.391 E8.0989
G92 E0
G1 E-1.0000 F1800
; layer 2, Z = 0.600
G1 X50.476 Y186.077 F4800
G1 Z0.600 F1000
G1 E0.0000 F1800
G92 E0
G1 X51.956 Y185.680 E0.1376 F250
G1 X53.470 Y185.441 E0.2752
G1 X55.000 Y185.361 E0.4128
G1 X56.530 Y185.441 E0.5504
G1 X58.044 Y185.680 E0.6880
G1 X59.524 Y186.077 E0.8256
G1 X60.954 Y186.626 E0.9633
G1 X62.320 Y187.322 E1.1009
G1 X63.605 Y188.156 E1.2385
G1 X64.796 Y189.121 E1.3761
G1 X65.879 Y190.204 E1.5137
G1 X66.844 Y191.395 E1.6513
G1 X67.678 Y192.680 E1.7889
G1 X68.374 Y194.046 E1.9265
G1 X68.923 Y195.476 E2.0641
G1 X69.320 Y196.956 E2.2017
G1 X69.559 Y198.470 E2.3393
G1 X69.639 Y200.000 E2.4769
G1 X69.559 Y201.530 E2.6146
G1 X69.320 Y203.044 E2.7522
G1 X68.923 Y204.524 E2.8898
G1 X68.374 Y205.954 E3.0274
G1 X67.678 Y207.320 E3.1650
G1 X66.844 Y208.605 E3.3026
G1 X65.879 Y209.796 E3.4402
G1 X64.796 Y210.879 E3.5778
G1 X63.605 Y211.844 E3.7154
G1 X62.320 Y212.678 E3.8530
G1 X60.954 Y213.374 E3.9906
G1 X59.524 Y213.923 E4.1282
G1 X58.044 Y214.320 E4.2658
G1 X56.530 Y214.559 E4.4035
G1 X55.000 Y214.639 E4.5411
G1 X53.470 Y214.559 E4.6787
G1 X51.956 Y214.320 E4.8163
G1 X50.476 Y213.923 E4.9539
G1 X49.046 Y213.374 E5.0915
G1 X47.680 Y212.678 E5.2291
G1 X46.395 Y211.844 E5.3667
G1 X45.204 Y210.879 E5.5043
G1 X44.121 Y209.796 E5.6419
G1 X43.156 Y208.605 E5.7795
G1 X42.322 Y207.320 E5.9171
G1 X41.626 Y205.954 E6.0548
G1 X41.077 Y204.524 E6.1924
G1 X40.680 Y203.044 E6.3300
G1 X40.441 Y201.530 E6.4676
G1 X40.361 Y200.000 E6.6052
G1 X40.441 Y198.470 E6.7428
G1 X40.680 Y196.956 E6.8804
G1 X41.077 Y195.476 E7.0180
G1 X41.626 Y194.046 E7.1556
G1 X42.322 Y192.680 E7.2932
G1 X43.156 Y191.395 E7.4308
G1 X44.121 Y190.204 E7.5684
G1 X45.204 Y189.121 E7.7061
G1 X46.395 Y188.156 E7.8437
G1 X47.680 Y187.322 E7.9813
G1 X49.046 Y186.626 E8.1189
G1 X50.476 Y186.077 E8.2565
G1 X50.415 Y186.391 F4800
G92 E0
G1 X48.970 Y186.967 E0.1396 F250
G1 X47.596 Y187.695 E0.2793
G1 X46.309 Y188.568 E0.4189
G1 X45.124 Y189.574 E0.5585
G1 X44.055 Y190.703 E0.6982
G1 X43.114 Y191.941 E0.8378
G1 X42.312 Y193.273 E0.9775
G1 X41.659 Y194.685 E1.1171
G1 X41.163 Y196.158 E1.2567
G1 X40.829 Y197.677 E1.3964
G1 X40.661 Y199.223 E1.5360
G1 X40.661 Y200.777 E1.6756
G1 X40.829 Y202.323 E1.8153
G1 X41.163 Y203.842 E1.9549
G1 X41.659 Y205.315 E2.0945
G1 X42.312 Y206.727 E2.2342
G1 X43.114 Y208.059 E2.3738
G1 X44.055 Y209.297 E2.5134
G1 X45.124 Y210.426 E2.6531
G1 X46.309 Y211.432 E2.7927
G1 X47.596 Y212.305 E2.9324
G1 X48.970 Y213.033 E3.0720
G1 X50.415 Y213.609 E3.2116
G1 X51.913 Y214.025 E3.3513
G1 X53.447 Y214.276 E3.4909
G1 X55.000 Y214.361 E3.6305
G1 X56.553 Y214.276 E3.7702
G1 X58.087 Y214.025 E3.9098
G1 X59.585 Y213.609 E4.0494
G1 X61.030 Y213.033 E4.1891
G1 X62.404 Y212.305 E4.3287
G1 X63.691 Y211.432 E4.4684
G1 X64.876 Y210.426 E4.6080
G1 X65.945 Y209.297 E4.7476
G1 X66.886 Y208.059 E4.8873
G1 X67.688 Y206.727 E5.0269
G1 X68.341 Y205.315 E5.1665
G1 X68.837 Y203.842 E5.3062
G1 X69.171 Y202.323 E5.4458
G1 X69.339 Y200.777 E5.5854
G1 X69.339 Y199.223 E5.7251
G1 X69.171 Y197.677 E5.8647
G1 X68.837 Y196.158 E6.0044
G1 X68.341 Y194.685 E6.1440
G1 X67.688 Y193.273 E6.2836
G1 X66.886 Y191.941 E6.4233
G1 X65.945 Y190.703 E6.5629
G1 X64.876 Y189.574 E6.7025
G1 X63.691 Y188.568 E6.8422
G1 X62.404 Y187.695 E6.9818
G1 X61.030 Y186.967 E7.1214
G1 X59.585 Y186.391 E7.2611
G1 X58.087 Y185.975 E7.4007
G1 X56.553 Y185.724 E7.5403
G1 X55.000 Y185.639 E7.6800
G1 X53.447 Y185.724 E7.8196
G1 X51.913 Y185.975 E7.9593
G1 X50.415 Y186.391 E8.0989
G92 E0
G1 E-1.0000 F1800
; layer 3, Z = 0.900
G1 X50.476 Y186.077 F4800
G1 Z0.900 F1000
G1 E0.0000 F1800
G92 E0
G1 X51.956 Y185.680 E0.1376 F250
G1 X53.470 Y185.441 E0.2752
G1 X55.000 Y185.361 E0.4128
G1 X56.530 Y185.441 E0.5504
G1 X58.044 Y185.680 E0.6880
G1 X59.524 Y186.077 E0.8256
G1 X60.954 Y186.626 E0.9633
G1 X62.320 Y187.322 E1.1009
G1 X63.605 Y188.156 E1.2385
G1 X64.796 Y189.121 E1.3761
G1 X65.879 Y190.204 E1.5137
G1 X66.844 Y191.395 E1.6513
G1 X67.678 Y192.680 E1.7889
G1 X68.374 Y194.046 E1.9265
G1 X68.923 Y195.476 E2.0641
G1 X69.320 Y196.956 E2.2017
G1 X69.559 Y198.470 E2.3393
G1 X69.639 Y200.000 E2.4769
G1 X69.559 Y201.530 E2.6146
G1 X69.320 Y203.044 E2.7522
G1 X68.923 Y204.524 E2.8898
G1 X68.374 Y205.954 E3.0274
G1 X67.678 Y207.320 E3.1650
G1 X66.844 Y208.605 E3.3026
G1 X65.879 Y209.796 E3.4402
G1 X64.796 Y210.879 E3.5778
G1 X63.605 Y211.844 E3.7154
G1 X62.320 Y212.678 E3.8530
G1 X60.954 Y213.374 E3.9906
G1 X59.524 Y213.923 E4.1282
G1 X58.044 Y214.320 E4.2658
G1 X56.530 Y214.559 E4.4035
G1 X55.000 Y214.639 E4.5411
G1 X53.470 Y214.559 E4.6787
G1 X51.956 Y214.320 E4.8163
G1 X50.476 Y213.923 E4.9539
G1 X49.046 Y213.374 E5.0915
G1 X47.680 Y212.678 E5.2291
G1 X46.395 Y211.844 E5.3667
G1 X45.204 Y210.879 E5.5043
G1 X44.121 Y209.796 E5.6419
G1 X43.156 Y208.605 E5.7795
G1 X42.322 Y207.320 E5.9171
G1 X41.626 Y205.954 E6.0548
G1 X41.077 Y204.524 E6.1924
G1 X40.680 Y203.044 E6.3300
G1 X40.441 Y201.530 E6.4676
G1 X40.361 Y200.000 E6.6052
G1 X40.441 Y198.470 E6.7428
G1 X40.680 Y196.956 E6.8804
G1 X41.077 Y195.476 E7.0180
G1 X41.626 Y194.046 E7.1556
G1 X42.322 Y192.680 E7.2932
G1 X43.156 Y191.395 E7.4308
G1 X44.121 Y190.204 E7.5684
G1 X45.204 Y189.121 E7.7061
G1 X46.395 Y188.156 E7.8437
G1 X47.680 Y187.322 E7.9813
G1 X49.046 Y186.626 E8.1189
G1 X50.476 Y186.077 E8.2565
G1 X50.415 Y186.391 F4800
G92 E0
G1 X48.970 Y186.967 E0.1396 F250
G1 X47.596 Y187.695 E0.2793
G1 X46.309 Y188.568 E0.4189
G1 X45.124 Y189.574 E0.5585
G1 X44.055 Y190.703 E0.6982
G1 X43.114 Y191.941 E0.8378
G1 X42.312 Y193.273 E0.9775
G1 X41.659 Y194.685 E1.1171
G1 X41.163 Y196.158 E1.2567
G1 X40.829 Y197.677 E1.3964
G1 X40.661 Y199.223 E1.5360
G1 X40.661 Y200.777 E1.6756
G1 X40.829 Y202.323 E1.8153
G1 X41.163 Y203.842 E1.9549
