; G-Code generated by Simplify3D(R) Version 4.0.0
; Nov 26, 2019 at 2:22:41 PM
; Settings Summary
;   processName,Casing
;   applyToModels,shapedcharge_casing
;   profileName,VAP_T0 (modified)
;   profileVersion,2019-11-24 20:18:43
;   baseProfile,Default (modified)
;   printMaterial,PLA
;   printQuality,Medium
;   printExtruders,
;   extruderName,VAP 1
;   extruderToolheadNumber,0
;   extruderDiameter,0.75
;   extruderAutoWidth,1
;   extruderWidth,0.9
;   extrusionMultiplier,1
;   extruderUseRetract,1
;   extruderRetractionDistance,1
;   extruderExtraRestartDistance,0
;   extruderRetractionZLift,0
;   extruderRetractionSpeed,1800
;   extruderUseCoasting,0
;   extruderCoastingDistance,0.2
;   extruderUseWipe,0
;   extruderWipeDistance,5
;   primaryExtruder,0
;   layerHeight,0.3
;   topSolidLayers,999
;   bottomSolidLayers,999
;   perimeterOutlines,1
;   printPerimetersInsideOut,1
;   startPointOption,2
;   startPointOriginX,0
;   startPointOriginY,0
;   sequentialIslands,0
;   spiralVaseMode,0
;   firstLayerHeightPercentage,100
;   firstLayerWidthPercentage,100
;   firstLayerUnderspeed,1
;   useRaft,0
;   raftExtruder,0
;   raftTopLayers,3
;   raftBaseLayers,2
;   raftOffset,3
;   raftSeparationDistance,0.14
;   raftTopInfill,100
;   aboveRaftSpeedMultiplier,0.3
;   useSkirt,0
;   skirtExtruder,0
;   skirtLayers,1
;   skirtOutlines,1
;   skirtOffset,5
;   usePrimePillar,0
;   primePillarExtruder,999
;   primePillarWidth,12
;   primePillarLocation,7
;   primePillarSpeedMultiplier,1
;   useOozeShield,0
;   oozeShieldExtruder,999
;   oozeShieldOffset,2
;   oozeShieldOutlines,1
;   oozeShieldSidewallShape,1
;   oozeShieldSidewallAngle,30
;   oozeShieldSpeedMultiplier,1
;   infillExtruder,0
;   internalInfillPattern,Rectilinear
;   externalInfillPattern,Concentric
;   infillPercentage,30
;   outlineOverlapPercentage,0
;   infillExtrusionWidthPercentage,100
;   minInfillLength,5
;   infillLayerInterval,1
;   internalInfillAngles,45,-45
;   overlapInternalInfillAngles,0
;   externalInfillAngles,45,-45
;   generateSupport,0
;   supportExtruder,0
;   supportInfillPercentage,30
;   supportExtraInflation,0
;   supportBaseLayers,0
;   denseSupportExtruder,0
;   denseSupportLayers,0
;   denseSupportInfillPercentage,70
;   supportLayerInterval,1
;   supportHorizontalPartOffset,0.3
;   supportUpperSeparationLayers,1
;   supportLowerSeparationLayers,1
;   supportType,0
;   supportGridSpacing,4
;   maxOverhangAngle,45
;   supportAngles,0
;   temperatureName,VAP 1
;   temperatureNumber,0
;   temperatureSetpointCount,1
;   temperatureSetpointLayers,1
;   temperatureSetpointTemperatures,0
;   temperatureStabilizeAtStartup,1
;   temperatureHeatedBed,0
;   temperatureRelayBetweenLayers,0
;   temperatureRelayBetweenLoops,0
;   fanLayers
;   fanSpeeds
;   blipFanToFullPower,0
;   adjustSpeedForCooling,1
;   minSpeedLayerTime,15
;   minCoolingSpeedSlowdown,20
;   increaseFanForCooling,0
;   minFanLayerTime,45
;   maxCoolingFanSpeed,100
;   increaseFanForBridging,0
;   bridgingFanSpeed,100
;   use5D,1
;   relativeEdistances,0
;   allowEaxisZeroing,1
;   independentExtruderAxes,0
;   includeM10123,0
;   stickySupport,1
;   applyToolheadOffsets,1
;   gcodeXoffset,0
;   gcodeYoffset,0
;   gcodeZoffset,0
;   overrideMachineDefinition,1
;   machineTypeOverride,0
;   strokeXoverride,135
;   strokeYoverride,300
;   strokeZoverride,300
;   originOffsetXoverride,0
;   originOffsetYoverride,0
;   originOffsetZoverride,0
;   homeXdirOverride,-1
;   homeYdirOverride,-1
;   homeZdirOverride,-1
;   flipXoverride,1
;   flipYoverride,-1
;   flipZoverride,1
;   toolheadOffsets,0,0|0,-127|0,0|0,0|0,0|0,0
;   overrideFirmwareConfiguration,0
;   firmwareTypeOverride,RepRap (Marlin/Repetier/Sprinter)
;   GPXconfigOverride,r2
;   baudRateOverride,115200
;   overridePrinterModels,0
;   printerModelsOverride
;   startingGcode,
;   layerChangeGcode,
;   retractionGcode,
;   toolChangeGcode,
;   endingGcode,M104 S0 ; turn off extruder,M140 S0 ; turn off bed,M84 ; disable motors
;   exportFileFormat,gcode
;   celebration,0
;   celebrationSong,Indiana
;   postProcessing,
;   defaultSpeed,1000
;   outlineUnderspeed,0.5
;   solidInfillUnderspeed,0.8
;   supportUnderspeed,0.8
;   rapidXYspeed,4800
;   rapidZspeed,1000
;   minBridgingArea,50
;   bridgingExtraInflation,0
;   bridgingExtrusionMultiplier,1
;   bridgingSpeedMultiplier,1
;   useFixedBridgingAngle,0
;   fixedBridgingAngle,0
;   applyBridgingToPerimeters,0
;   filamentDiameters,1.75|1.75|1.75|1.75|1.75|1.75
;   filamentPricesPerKg,46|46|46|46|46|46
;   filamentDensities,2|1.25|1.25|1.25|1.25|1.25
;   useMinPrintHeight,0
;   minPrintHeight,0
;   useMaxPrintHeight,0
;   maxPrintHeight,0
;   useDiaphragm,0
;   diaphragmLayerInterval,20
;   robustSlicing,1
;   mergeAllIntoSolid,0
;   onlyRetractWhenCrossingOutline,1
;   retractBetweenLayers,1
;   useRetractionMinTravel,0
;   retractionMinTravel,3
;   retractWhileWiping,0
;   onlyWipeOutlines,1
;   avoidCrossingOutline,0
;   maxMovementDetourFactor,3
;   toolChangeRetractionDistance,12
;   toolChangeExtraRestartDistance,-0.5
;   toolChangeRetractionSpeed,600
;   externalThinWallType,0
;   internalThinWallType,2
;   thinWallAllowedOverlapPercentage,10
;   singleExtrusionMinLength,1
;   singleExtrusionMinPrintingWidthPercentage,50
;   singleExtrusionMaxPrintingWidthPercentage,200
;   singleExtrusionEndpointExtension,0.2
;   horizontalSizeCompensation,0
G90
M82
M104 S0 T0
G92 E0
G1 E-1.0000 F1800
G1 Z0.300 F1000
; process Casing
; layer 1, Z = 0.300
T0
; tool H0.300 W0.900
; outer perimeter
G1 X47.516 Y149.043 F4800
G1 E0.0000 F540
G92 E0
G1 X49.819 Y148.517 E0.2656
M400
M42 P9 S255 ;turns extruder on
G1 X49.819 Y148.517 E0.2656
G1 X51.000 Y148.451 E0.3984
G1 X52.181 Y148.517 E0.5312
G1 X53.347 Y148.715 E0.6640
G1 X54.484 Y149.043 E0.7968
G1 X55.577 Y149.495 E0.9296
G1 X56.613 Y150.068 E1.0624
G1 X57.577 Y150.752 E1.1952
G1 X58.459 Y151.541 E1.3280
G1 X59.248 Y152.423 E1.4608
G1 X59.932 Y153.387 E1.5935
G1 X60.505 Y154.423 E1.7263
G1 X60.957 Y155.516 E1.8591
G1 X61.285 Y156.653 E1.9919
G1 X61.483 Y157.819 E2.1247
G1 X61.549 Y159.000 E2.2575
G1 X61.483 Y160.181 E2.3903
G1 X61.285 Y161.347 E2.5231
G1 X60.957 Y162.484 E2.6559
G1 X60.505 Y163.577 E2.7887
G1 X59.932 Y164.613 E2.9215
G1 X59.248 Y165.577 E3.0543
G1 X58.459 Y166.459 E3.1871
G1 X57.577 Y167.248 E3.3199
G1 X56.613 Y167.932 E3.4527
G1 X55.577 Y168.505 E3.5855
G1 X54.484 Y168.957 E3.7183
G1 X53.347 Y169.285 E3.8511
G1 X52.181 Y169.483 E3.9839
G1 X51.000 Y169.549 E4.1167
G1 X49.819 Y169.483 E4.2495
G1 X48.653 Y169.285 E4.3823
G1 X47.516 Y168.957 E4.5151
G1 X46.423 Y168.505 E4.6479
G1 X45.387 Y167.932 E4.7807
G1 X44.423 Y167.248 E4.9134
G1 X43.541 Y166.459 E5.0462
G1 X42.752 Y165.577 E5.1790
G1 X42.068 Y164.613 E5.3118
G1 X41.495 Y163.577 E5.4446
G1 X41.043 Y162.484 E5.5774
G1 X40.715 Y161.347 E5.7102
G1 X40.517 Y160.181 E5.8430
G1 X40.451 Y159.000 E5.9758
G1 X40.517 Y157.819 E6.1086
G1 X40.715 Y156.653 E6.2414
G1 X41.043 Y155.516 E6.3742
G1 X41.495 Y154.423 E6.5070
G1 X42.068 Y153.387 E6.6398
G1 X42.752 Y152.423 E6.7726
G1 X43.541 Y151.541 E6.9054
G1 X44.423 Y150.752 E7.0382
G1 X45.387 Y150.068 E7.1710
G1 X46.423 Y149.495 E7.3038
G1 X47.516 Y149.043 E7.4366
; solid layer
G92 E0
M400
M42 P9 S0 ;turns extruder off
G92 E0
G1 X49.920 Y149.413 E0.2429
M400
M42 P9 S255 ;turns extruder on
G1 X49.920 Y149.413 E0.2429
G1 X51.000 Y149.352 E0.3644
G1 X52.080 Y149.413 E0.4858
G1 X53.147 Y149.594 E0.6073
G1 X54.187 Y149.894 E0.7287
G1 X55.186 Y150.308 E0.8502
G1 X56.133 Y150.831 E0.9716
G1 X57.015 Y151.457 E1.0931
G1 X57.822 Y152.178 E1.2145
G1 X58.543 Y152.985 E1.3360
G1 X59.169 Y153.867 E1.4574
G1 X59.692 Y154.814 E1.5789
G1 X60.106 Y155.813 E1.7003
G1 X60.406 Y156.853 E1.8218
G1 X60.587 Y157.920 E1.9432
G1 X60.648 Y159.000 E2.0646
G1 X60.587 Y160.080 E2.1861
G1 X60.406 Y161.147 E2.3075
G1 X60.106 Y162.186 E2.4290
G1 X59.692 Y163.186 E2.5504
G1 X59.169 Y164.133 E2.6719
G1 X58.543 Y165.015 E2.7933
G1 X57.822 Y165.822 E2.9148
G1 X57.015 Y166.543 E3.0363
G1 X56.133 Y167.169 E3.1577
G1 X55.186 Y167.692 E3.2791
G1 X54.186 Y168.106 E3.4006
G1 X53.147 Y168.406 E3.5220
G1 X52.080 Y168.587 E3.6435
G1 X51.000 Y168.648 E3.7649
G1 X49.920 Y168.587 E3.8864
G1 X48.853 Y168.406 E4.0078
G1 X47.813 Y168.106 E4.1293
G1 X46.814 Y167.692 E4.2507
G1 X45.867 Y167.169 E4.3722
G1 X44.985 Y166.543 E4.4936
G1 X44.178 Y165.822 E4.6151
G1 X43.457 Y165.015 E4.7365
G1 X42.831 Y164.133 E4.8580
G1 X42.308 Y163.186 E4.9794
G1 X41.894 Y162.186 E5.1009
G1 X41.594 Y161.147 E5.2223
G1 X41.413 Y160.080 E5.3438
G1 X41.352 Y159.000 E5.4652
G1 X41.413 Y157.920 E5.5867
G1 X41.594 Y156.853 E5.7081
G1 X41.894 Y155.814 E5.8296
G1 X42.308 Y154.814 E5.9510
G1 X42.831 Y153.867 E6.0725
G1 X43.457 Y152.985 E6.1939
G1 X44.178 Y152.178 E6.3154
G1 X44.985 Y151.457 E6.4368
G1 X45.867 Y150.831 E6.5583
G1 X46.814 Y150.308 E6.6797
G1 X47.813 Y149.894 E6.8011
G92 E0
M400
M42 P9 S0 ;turns extruder off
G92 E0
G1 X50.021 Y150.309 E0.2202
M400
M42 P9 S255 ;turns extruder on
G1 X50.021 Y150.309 E0.2202
G1 X51.000 Y150.254 E0.3303
G1 X51.979 Y150.309 E0.4404
G1 X52.946 Y150.473 E0.5505
G1 X53.889 Y150.744 E0.6606
G1 X54.795 Y151.120 E0.7707
G1 X55.653 Y151.594 E0.8808
G1 X56.453 Y152.162 E0.9909
G1 X57.185 Y152.815 E1.1010
G1 X57.838 Y153.547 E1.2112
G1 X58.406 Y154.347 E1.3212
G1 X58.880 Y155.205 E1.4313
G1 X59.256 Y156.111 E1.5414
G1 X59.527 Y157.054 E1.6516
G1 X59.691 Y158.021 E1.7617
G1 X59.746 Y159.000 E1.8718
G1 X59.691 Y159.979 E1.9819
G1 X59.527 Y160.946 E2.0920
G1 X59.256 Y161.889 E2.2021
G1 X58.880 Y162.795 E2.3122
G1 X58.406 Y163.653 E2.4223
G1 X57.838 Y164.453 E2.5324
G1 X57.185 Y165.185 E2.6425
G1 X56.453 Y165.838 E2.7526
G1 X55.653 Y166.406 E2.8627
G1 X54.795 Y166.880 E2.9728
G1 X53.889 Y167.256 E3.0829
G1 X52.946 Y167.527 E3.1930
G1 X51.979 Y167.691 E3.3031
G1 X51.000 Y167.746 E3.4132
G1 X50.021 Y167.691 E3.5233
G1 X49.054 Y167.527 E3.6334
G1 X48.111 Y167.256 E3.7435
G1 X47.205 Y166.880 E3.8536
G1 X46.347 Y166.406 E3.9637
G1 X45.547 Y165.838 E4.0738
G1 X44.815 Y165.185 E4.1839
G1 X44.162 Y164.453 E4.2940
G1 X43.594 Y163.653 E4.4041
G1 X43.120 Y162.795 E4.5142
G1 X42.744 Y161.889 E4.6243
G1 X42.473 Y160.946 E4.7344
G1 X42.309 Y159.979 E4.8445
G1 X42.254 Y159.000 E4.9546
G1 X42.309 Y158.021 E5.0647
G1 X42.473 Y157.054 E5.1748
G1 X42.744 Y156.111 E5.2849
G1 X43.120 Y155.205 E5.3950
G1 X43.594 Y154.347 E5.5051
G1 X44.162 Y153.547 E5.6152
G1 X44.815 Y152.815 E5.7253
G1 X45.547 Y152.162 E5.8354
G1 X46.347 Y151.594 E5.9455
G1 X47.205 Y151.120 E6.0556
G1 X48.111 Y150.744 E6.1657
G92 E0
M400
M42 P9 S0 ;turns extruder off
G92 E0
G1 X50.122 Y151.204 E0.1975
M400
M42 P9 S255 ;turns extruder on
G1 X50.122 Y151.204 E0.1975
G1 X51.000 Y151.155 E0.2963
G1 X51.878 Y151.204 E0.3950
G1 X52.746 Y151.352 E0.4938
G1 X53.591 Y151.595 E0.5926
G1 X54.404 Y151.932 E0.6913
G1 X55.174 Y152.357 E0.7901
G1 X55.891 Y152.867 E0.8888
G1 X56.547 Y153.453 E0.9876
G1 X57.134 Y154.109 E1.0863
G1 X57.643 Y154.826 E1.1851
G1 X58.068 Y155.596 E1.2838
G1 X58.405 Y156.409 E1.3826
G1 X58.648 Y157.254 E1.4814
G1 X58.796 Y158.122 E1.5801
G1 X58.845 Y159.000 E1.6789
G1 X58.796 Y159.878 E1.7776
G1 X58.648 Y160.746 E1.8764
G1 X58.405 Y161.591 E1.9751
G1 X58.068 Y162.404 E2.0739
G1 X57.643 Y163.174 E2.1726
G1 X57.134 Y163.891 E2.2714
G1 X56.547 Y164.547 E2.3701
G1 X55.891 Y165.134 E2.4689
G1 X55.174 Y165.643 E2.5676
G1 X54.404 Y166.068 E2.6664
G1 X53.591 Y166.405 E2.7652
G1 X52.746 Y166.648 E2.8639
G1 X51.878 Y166.796 E2.9627
G1 X51.000 Y166.845 E3.0614
G1 X50.122 Y166.796 E3.1602
G1 X49.255 Y166.648 E3.2589
G1 X48.409 Y166.405 E3.3577
G1 X47.596 Y166.068 E3.4564
G1 X46.826 Y165.643 E3.5552
G1 X46.109 Y165.134 E3.6539
G1 X45.453 Y164.547 E3.7527
G1 X44.866 Y163.891 E3.8515
G1 X44.357 Y163.174 E3.9502
G1 X43.932 Y162.404 E4.0490
G1 X43.595 Y161.591 E4.1477
G1 X43.352 Y160.746 E4.2465
G1 X43.204 Y159.878 E4.3452
G1 X43.155 Y159.000 E4.4440
G1 X43.204 Y158.122 E4.5427
G1 X43.352 Y157.254 E4.6415
G1 X43.595 Y156.409 E4.7402
G1 X43.932 Y155.596 E4.8390
G1 X44.357 Y154.826 E4.9378
G1 X44.866 Y154.109 E5.0365
G1 X45.453 Y153.453 E5.1353
G1 X46.109 Y152.867 E5.2340
G1 X46.826 Y152.357 E5.3328
G1 X47.596 Y151.932 E5.4315
G1 X48.409 Y151.595 E5.5303
G92 E0
M400
M42 P9 S0 ;turns extruder off
G92 E0
G1 X50.223 Y152.100 E0.1748
M400
M42 P9 S255 ;turns extruder on
G1 X50.223 Y152.100 E0.1748
G1 X51.000 Y152.056 E0.2622
G1 X51.777 Y152.100 E0.3496
G1 X52.545 Y152.230 E0.4371
G1 X53.293 Y152.446 E0.5245
G1 X54.013 Y152.744 E0.6119
G1 X54.694 Y153.121 E0.6993
G1 X55.329 Y153.571 E0.7867
G1 X55.910 Y154.090 E0.8741
G1 X56.429 Y154.671 E0.9615
G1 X56.879 Y155.306 E1.0489
G1 X57.256 Y155.987 E1.1363
G1 X57.554 Y156.707 E1.2237
G1 X57.770 Y157.455 E1.3111
G1 X57.900 Y158.223 E1.3985
G1 X57.944 Y159.000 E1.4860
G1 X57.900 Y159.777 E1.5734
G1 X57.770 Y160.545 E1.6608
G1 X57.554 Y161.293 E1.7482
G1 X57.256 Y162.013 E1.8356
G1 X56.879 Y162.694 E1.9230
G1 X56.429 Y163.329 E2.0104
G1 X55.910 Y163.910 E2.0978
G1 X55.329 Y164.429 E2.1852
G1 X54.694 Y164.879 E2.2726
G1 X54.013 Y165.256 E2.3600
G1 X53.293 Y165.554 E2.4474
G1 X52.545 Y165.770 E2.5349
G1 X51.777 Y165.900 E2.6222
G1 X51.000 Y165.944 E2.7097
G1 X50.223 Y165.900 E2.7971
G1 X49.455 Y165.770 E2.8844
G1 X48.707 Y165.554 E2.9719
G1 X47.987 Y165.256 E3.0593
G1 X47.306 Y164.879 E3.1467
G1 X46.671 Y164.429 E3.2341
G1 X46.090 Y163.910 E3.3215
G1 X45.571 Y163.329 E3.4089
G1 X45.121 Y162.694 E3.4963
G1 X44.744 Y162.013 E3.5837
G1 X44.446 Y161.293 E3.6711
G1 X44.230 Y160.545 E3.7586
G1 X44.100 Y159.777 E3.8459
G1 X44.056 Y159.000 E3.9334
G1 X44.100 Y158.222 E4.0208
G1 X44.230 Y157.455 E4.1082
G1 X44.446 Y156.707 E4.1956
G1 X44.744 Y155.987 E4.2830
G1 X45.121 Y155.306 E4.3704
G1 X45.571 Y154.671 E4.4578
G1 X46.090 Y154.090 E4.5452
G1 X46.671 Y153.571 E4.6326
G1 X47.306 Y153.121 E4.7200
G1 X47.987 Y152.744 E4.8074
G1 X48.706 Y152.446 E4.8948
G92 E0
M400
M42 P9 S0 ;turns extruder off
G92 E0
G1 X50.324 Y152.996 E0.1522
M400
M42 P9 S255 ;turns extruder on
G1 X50.324 Y152.996 E0.1522
G1 X51.000 Y152.958 E0.2282
G1 X51.676 Y152.996 E0.3042
G1 X52.345 Y153.109 E0.3803
G1 X52.996 Y153.297 E0.4564
G1 X53.622 Y153.556 E0.5324
G1 X54.215 Y153.884 E0.6085
G1 X54.767 Y154.276 E0.6846
G1 X55.272 Y154.727 E0.7606
G1 X55.724 Y155.233 E0.8367
G1 X56.116 Y155.785 E0.9128
G1 X56.444 Y156.378 E0.9888
G1 X56.703 Y157.004 E1.0649
G1 X56.891 Y157.656 E1.1409
G1 X57.004 Y158.323 E1.2170
G1 X57.042 Y159.000 E1.2931
G1 X57.004 Y159.677 E1.3691
G1 X56.891 Y160.344 E1.4452
G1 X56.703 Y160.996 E1.5212
G1 X56.444 Y161.622 E1.5973
G1 X56.116 Y162.215 E1.6734
G1 X55.724 Y162.767 E1.7494
G1 X55.272 Y163.272 E1.8255
G1 X54.767 Y163.724 E1.9016
G1 X54.215 Y164.116 E1.9776
G1 X53.622 Y164.444 E2.0537
G1 X52.996 Y164.703 E2.1297
G1 X52.344 Y164.891 E2.2058
G1 X51.677 Y165.004 E2.2818
G1 X51.000 Y165.042 E2.3579
G1 X50.324 Y165.004 E2.4339
G1 X49.656 Y164.891 E2.5100
G1 X49.004 Y164.703 E2.5861
G1 X48.378 Y164.444 E2.6621
G1 X47.785 Y164.116 E2.7382
G1 X47.233 Y163.724 E2.8142
G1 X46.728 Y163.272 E2.8903
G1 X46.276 Y162.767 E2.9664
G1 X45.884 Y162.215 E3.0424
G1 X45.556 Y161.622 E3.1185
G1 X45.297 Y160.996 E3.1945
G1 X45.109 Y160.344 E3.2706
G1 X44.996 Y159.677 E3.3467
G1 X44.958 Y159.000 E3.4227
G1 X44.996 Y158.323 E3.4988
G1 X45.109 Y157.656 E3.5749
G1 X45.297 Y157.005 E3.6509
G1 X45.556 Y156.378 E3.7270
G1 X45.884 Y155.785 E3.8030
G1 X46.276 Y155.233 E3.8791
G1 X46.728 Y154.727 E3.9552
G1 X47.233 Y154.276 E4.0312
G1 X47.785 Y153.884 E4.1073
