; G-Code generated by Simplify3D(R) Version 4.0.0
; Sep 30, 2019 at 10:54:28 AM
; Settings Summary
;   processName,Process1
;   applyToModels,AP_strand-30x60x1
;   profileName,Single_AP (modified)
;   profileVersion,2019-09-23 11:25:10
;   baseProfile,Default (modified)
;   printMaterial,PLA
;   printQuality,Medium
;   printExtruders,
;   extruderName,VAP 1,VAP 2
;   extruderToolheadNumber,0,1
;   extruderDiameter,0.6,0.6
;   extruderAutoWidth,0,0
;   extruderWidth,0.6,0.6
;   extrusionMultiplier,1,1
;   extruderUseRetract,1,1
;   extruderRetractionDistance,1,1
;   extruderExtraRestartDistance,0,0
;   extruderRetractionZLift,0,0
;   extruderRetractionSpeed,1800,1800
;   extruderUseCoasting,0,0
;   extruderCoastingDistance,0.2,0.2
;   extruderUseWipe,0,0
;   extruderWipeDistance,5,5
;   primaryExtruder,0
;   layerHeight,0.3
;   topSolidLayers,0
;   bottomSolidLayers,0
;   perimeterOutlines,1
;   printPerimetersInsideOut,1
;   startPointOption,2
;   startPointOriginX,0
;   startPointOriginY,0
;   sequentialIslands,0
;   spiralVaseMode,0
;   firstLayerHeightPercentage,10
;   firstLayerWidthPercentage,100
;   firstLayerUnderspeed,1
;   useRaft,0
;   raftExtruder,0
;   raftTopLayers,3
;   raftBaseLayers,2
;   raftOffset,3
;   raftSeparationDistance,0.14
;   raftTopInfill,100
;   aboveRaftSpeedMultiplier,0.3
;   useSkirt,1
;   skirtExtruder,0
;   skirtLayers,1
;   skirtOutlines,1
;   skirtOffset,5
;   usePrimePillar,0
;   primePillarExtruder,999
;   primePillarWidth,12
;   primePillarLocation,7
;   primePillarSpeedMultiplier,1
;   useOozeShield,0
;   oozeShieldExtruder,999
;   oozeShieldOffset,2
;   oozeShieldOutlines,1
;   oozeShieldSidewallShape,1
;   oozeShieldSidewallAngle,30
;   oozeShieldSpeedMultiplier,1
;   infillExtruder,0
;   internalInfillPattern,Rectilinear
;   externalInfillPattern,Rectilinear
;   infillPercentage,99
;   outlineOverlapPercentage,0
;   infillExtrusionWidthPercentage,100
;   minInfillLength,5
;   infillLayerInterval,1
;   internalInfillAngles,0
;   overlapInternalInfillAngles,0
;   externalInfillAngles,45,-45
;   generateSupport,0
;   supportExtruder,0
;   supportInfillPercentage,30
;   supportExtraInflation,0
;   supportBaseLayers,0
;   denseSupportExtruder,0
;   denseSupportLayers,0
;   denseSupportInfillPercentage,70
;   supportLayerInterval,1
;   supportHorizontalPartOffset,0.3
;   supportUpperSeparationLayers,1
;   supportLowerSeparationLayers,1
;   supportType,0
;   supportGridSpacing,4
;   maxOverhangAngle,45
;   supportAngles,0
;   temperatureName,VAP 1,VAP 2
;   temperatureNumber,0,1
;   temperatureSetpointCount,1,1
;   temperatureSetpointLayers,1,1
;   temperatureSetpointTemperatures,0,0
;   temperatureStabilizeAtStartup,1,1
;   temperatureHeatedBed,0,0
;   temperatureRelayBetweenLayers,0,0
;   temperatureRelayBetweenLoops,0,0
;   fanLayers
;   fanSpeeds
;   blipFanToFullPower,0
;   adjustSpeedForCooling,1
;   minSpeedLayerTime,15
;   minCoolingSpeedSlowdown,20
;   increaseFanForCooling,0
;   minFanLayerTime,45
;   maxCoolingFanSpeed,100
;   increaseFanForBridging,0
;   bridgingFanSpeed,100
;   use5D,1
;   relativeEdistances,0
;   allowEaxisZeroing,1
;   independentExtruderAxes,0
;   includeM10123,0
;   stickySupport,1
;   applyToolheadOffsets,1
;   gcodeXoffset,0
;   gcodeYoffset,0
;   gcodeZoffset,0
;   overrideMachineDefinition,1
;   machineTypeOverride,0
;   strokeXoverride,135
;   strokeYoverride,300
;   strokeZoverride,300
;   originOffsetXoverride,0
;   originOffsetYoverride,0
;   originOffsetZoverride,0
;   homeXdirOverride,-1
;   homeYdirOverride,-1
;   homeZdirOverride,-1
;   flipXoverride,1
;   flipYoverride,-1
;   flipZoverride,1
;   toolheadOffsets,0,0|-10,2|0,0|0,0|0,0|0,0
;   overrideFirmwareConfiguration,0
;   firmwareTypeOverride,RepRap (Marlin/Repetier/Sprinter)
;   GPXconfigOverride,r2
;   baudRateOverride,115200
;   overridePrinterModels,0
;   printerModelsOverride
;   startingGcode,
;   layerChangeGcode,
;   retractionGcode,
;   toolChangeGcode,
;   endingGcode,M104 S0 ; turn off extruder,M140 S0 ; turn off bed,M84 ; disable motors
;   exportFileFormat,gcode
;   celebration,0
;   celebrationSong,Random Song
;   postProcessing,
;   defaultSpeed,500
;   outlineUnderspeed,0.5
;   solidInfillUnderspeed,0.8
;   supportUnderspeed,0.8
;   rapidXYspeed,4800
;   rapidZspeed,1000
;   minBridgingArea,50
;   bridgingExtraInflation,0
;   bridgingExtrusionMultiplier,1
;   bridgingSpeedMultiplier,1
;   useFixedBridgingAngle,0
;   fixedBridgingAngle,0
;   applyBridgingToPerimeters,0
;   filamentDiameters,1.75|1.75|1.75|1.75|1.75|1.75
;   filamentPricesPerKg,46|46|46|46|46|46
;   filamentDensities,2|1.25|1.25|1.25|1.25|1.25
;   useMinPrintHeight,0
;   minPrintHeight,0
;   useMaxPrintHeight,0
;   maxPrintHeight,0
;   useDiaphragm,0
;   diaphragmLayerInterval,20
;   robustSlicing,1
;   mergeAllIntoSolid,0
;   onlyRetractWhenCrossingOutline,1
;   retractBetweenLayers,1
;   useRetractionMinTravel,0
;   retractionMinTravel,3
;   retractWhileWiping,0
;   onlyWipeOutlines,1
;   avoidCrossingOutline,0
;   maxMovementDetourFactor,3
;   toolChangeRetractionDistance,12
;   toolChangeExtraRestartDistance,-0.5
;   toolChangeRetractionSpeed,600
;   externalThinWallType,0
;   internalThinWallType,2
;   thinWallAllowedOverlapPercentage,10
;   singleExtrusionMinLength,1
;   singleExtrusionMinPrintingWidthPercentage,50
;   singleExtrusionMaxPrintingWidthPercentage,200
;   singleExtrusionEndpointExtension,0.2
;   horizontalSizeCompensation,0
G90
M82
M104 S0 T0
M104 S0 T1
G92 E0
G1 E-1.0000 F1800
G1 Z0.030 F1000
; process Process1
; layer 1, Z = 0.030
T0
; tool H0.300 W0.600
; skirt
G1 X97.759 Y175.246 F4800
G1 E0.0000 F540
G92 E0
G1 X97.869 Y175.200 E0.0089 F500
G1 X132.131 Y175.200 E2.5729
G1 X132.241 Y175.246 E2.5818
G1 X135.254 Y178.259 E2.9007
G1 X135.300 Y178.369 E2.9097
G1 X135.300 Y242.631 E7.7187
G1 X135.254 Y242.741 E7.7276
G1 X132.241 Y245.754 E8.0465
G1 X132.131 Y245.800 E8.0555
G1 X97.869 Y245.800 E10.6194
G1 X97.759 Y245.754 E10.6284
G1 X94.746 Y242.741 E10.9473
G1 X94.700 Y242.631 E10.9562
G1 X94.700 Y178.369 E15.7652
G1 X94.746 Y178.259 E15.7742
G1 X97.759 Y175.246 E16.0931
G92 E0
G1 E-1.0000 F1800
; outer perimeter
G1 X100.300 Y180.800 F4800
G1 E0.0000 F1800
G92 E0
G1 X129.700 Y180.800 E2.2002 F250
G1 X129.700 Y240.200 E6.6454
G1 X100.300 Y240.200 E8.8455
G1 X100.300 Y180.800 E13.2907
; infill
G1 X100.900 Y181.409 F4800
G92 E0
G1 X129.100 Y181.409 E2.1104 F500
G1 X129.100 Y182.015 E2.1557
G1 X100.900 Y182.015 E4.2661
G1 X100.900 Y182.621 E4.3114
G1 X129.100 Y182.621 E6.4218
G1 X129.100 Y183.227 E6.4671
G1 X100.900 Y183.227 E8.5775
G1 X100.900 Y183.833 E8.6228
G1 X129.100 Y183.833 E10.7332
G1 X129.100 Y184.439 E10.7786
G1 X100.900 Y184.439 E12.8889
G1 X100.900 Y185.045 E12.9343
G1 X129.100 Y185.045 E15.0446
G1 X129.100 Y185.652 E15.0900
G1 X100.900 Y185.652 E17.2003
G1 X100.900 Y186.258 E17.2457
G1 X129.100 Y186.258 E19.3560
G1 X129.100 Y186.864 E19.4014
G1 X100.900 Y186.864 E21.5117
G1 X100.900 Y187.470 E21.5571
G1 X129.100 Y187.470 E23.6675
G1 X129.100 Y188.076 E23.7128
G1 X100.900 Y188.076 E25.8232
G1 X100.900 Y188.682 E25.8685
G1 X129.100 Y188.682 E27.9789
G1 X129.100 Y189.288 E28.0242
G1 X100.900 Y189.288 E30.1346
G1 X100.900 Y189.894 E30.1799
G1 X129.100 Y189.894 E32.2903
G1 X129.100 Y190.500 E32.3357
G1 X100.900 Y190.500 E34.4460
G1 X100.900 Y191.106 E34.4914
G1 X129.100 Y191.106 E36.6017
G1 X129.100 Y191.712 E36.6471
G1 X100.900 Y191.712 E38.7574
G1 X100.900 Y192.318 E38.8028
G1 X129.100 Y192.318 E40.9131
G1 X129.100 Y192.924 E40.9585
G1 X100.900 Y192.924 E43.0689
G1 X100.900 Y193.530 E43.1142
G1 X129.100 Y193.530 E45.2246
G1 X129.100 Y194.136 E45.2699
G1 X100.900 Y194.136 E47.3803
G1 X100.900 Y194.742 E47.4256
G1 X129.100 Y194.742 E49.5360
G1 X129.100 Y195.348 E49.5813
G1 X100.900 Y195.348 E51.6917
G1 X100.900 Y195.955 E51.7370
G1 X129.100 Y195.955 E53.8474
G1 X129.100 Y196.561 E53.8928
G1 X100.900 Y196.561 E56.0031
G1 X100.900 Y197.167 E56.0485
G1 X129.100 Y197.167 E58.1588
G1 X129.100 Y197.773 E58.2042
G1 X100.900 Y197.773 E60.3145
G1 X100.900 Y198.379 E60.3599
G1 X129.100 Y198.379 E62.4702
G1 X129.100 Y198.985 E62.5156
G1 X100.900 Y198.985 E64.6260
G1 X100.900 Y199.591 E64.6713
G1 X129.100 Y199.591 E66.7817
G1 X129.100 Y200.197 E66.8270
G1 X100.900 Y200.197 E68.9374
G1 X100.900 Y200.803 E68.9827
G1 X129.100 Y200.803 E71.0931
G1 X129.100 Y201.409 E71.1384
G1 X100.900 Y201.409 E73.2488
G1 X100.900 Y202.015 E73.2942
G1 X129.100 Y202.015 E75.4045
G1 X129.100 Y202.621 E75.4499
G1 X100.900 Y202.621 E77.5602
G1 X100.900 Y203.227 E77.6056
G1 X129.100 Y203.227 E79.7159
G1 X129.100 Y203.833 E79.7613
G1 X100.900 Y203.833 E81.8716
G1 X100.900 Y204.439 E81.9170
G1 X129.100 Y204.439 E84.0273
G1 X129.100 Y205.045 E84.0727
G1 X100.900 Y205.045 E86.1831
G1 X100.900 Y205.652 E86.2284
G1 X129.100 Y205.652 E88.3388
G1 X129.100 Y206.258 E88.3841
G1 X100.900 Y206.258 E90.4945
G1 X100.900 Y206.864 E90.5398
G1 X129.100 Y206.864 E92.6502
G1 X129.100 Y207.470 E92.6955
G1 X100.900 Y207.470 E94.8059
G1 X100.900 Y208.076 E94.8513
G1 X129.100 Y208.076 E96.9616
G1 X129.100 Y208.682 E97.0070
G1 X100.900 Y208.682 E99.1173
G1 X100.900 Y209.288 E99.1627
G1 X129.100 Y209.288 E101.2730
G1 X129.100 Y209.894 E101.3184
G1 X100.900 Y209.894 E103.4287
G1 X100.900 Y210.500 E103.4741
G1 X129.100 Y210.500 E105.5844
G1 X129.100 Y211.106 E105.6298
G1 X100.900 Y211.106 E107.7402
G1 X100.900 Y211.712 E107.7855
G1 X129.100 Y211.712 E109.8959
G1 X129.100 Y212.318 E109.9412
G1 X100.900 Y212.318 E112.0516
G1 X100.900 Y212.924 E112.0969
G1 X129.100 Y212.924 E114.2073
G1 X129.100 Y213.530 E114.2526
G1 X100.900 Y213.530 E116.3630
G1 X100.900 Y214.136 E116.4084
G1 X129.100 Y214.136 E118.5187
G1 X129.100 Y214.742 E118.5641
G1 X100.900 Y214.742 E120.6744
G1 X100.900 Y215.348 E120.7198
G1 X129.100 Y215.348 E122.8301
G1 X129.100 Y215.955 E122.8755
G1 X100.900 Y215.955 E124.9858
G1 X100.900 Y216.561 E125.0312
G1 X129.100 Y216.561 E127.1416
G1 X129.100 Y217.167 E127.1869
G1 X100.900 Y217.167 E129.2973
G1 X100.900 Y217.773 E129.3426
G1 X129.100 Y217.773 E131.4530
G1 X129.100 Y218.379 E131.4983
G1 X100.900 Y218.379 E133.6087
G1 X100.900 Y218.985 E133.6540
G1 X129.100 Y218.985 E135.7644
G1 X129.100 Y219.591 E135.8097
G1 X100.900 Y219.591 E137.9201
G1 X100.900 Y220.197 E137.9655
G1 X129.100 Y220.197 E140.0758
G1 X129.100 Y220.803 E140.1212
G1 X100.900 Y220.803 E142.2315
G1 X100.900 Y221.409 E142.2769
G1 X129.100 Y221.409 E144.3872
G1 X129.100 Y222.015 E144.4326
G1 X100.900 Y222.015 E146.5429
G1 X100.900 Y222.621 E146.5883
G1 X129.100 Y222.621 E148.6987
G1 X129.100 Y223.227 E148.7440
G1 X100.900 Y223.227 E150.8544
G1 X100.900 Y223.833 E150.8997
G1 X129.100 Y223.833 E153.0101
G1 X129.100 Y224.439 E153.0554
G1 X100.900 Y224.439 E155.1658
G1 X100.900 Y225.045 E155.2111
G1 X129.100 Y225.045 E157.3215
G1 X129.100 Y225.652 E157.3669
G1 X100.900 Y225.652 E159.4772
G1 X100.900 Y226.258 E159.5226
G1 X129.100 Y226.258 E161.6329
G1 X129.100 Y226.864 E161.6783
G1 X100.900 Y226.864 E163.7886
G1 X100.900 Y227.470 E163.8340
G1 X129.100 Y227.470 E165.9443
G1 X129.100 Y228.076 E165.9897
G1 X100.900 Y228.076 E168.1000
G1 X100.900 Y228.682 E168.1454
G1 X129.100 Y228.682 E170.2558
G1 X129.100 Y229.288 E170.3011
G1 X100.900 Y229.288 E172.4115
G1 X100.900 Y229.894 E172.4568
G1 X129.100 Y229.894 E174.5672
G1 X129.100 Y230.500 E174.6125
G1 X100.900 Y230.500 E176.7229
G1 X100.900 Y231.106 E176.7682
G1 X129.100 Y231.106 E178.8786
G1 X129.100 Y231.712 E178.9240
G1 X100.900 Y231.712 E181.0343
G1 X100.900 Y232.318 E181.0797
G1 X129.100 Y232.318 E183.1900
G1 X129.100 Y232.924 E183.2354
G1 X100.900 Y232.924 E185.3457
G1 X100.900 Y233.530 E185.3911
G1 X129.100 Y233.530 E187.5014
G1 X129.100 Y234.136 E187.5468
G1 X100.900 Y234.136 E189.6572
G1 X100.900 Y234.742 E189.7025
G1 X129.100 Y234.742 E191.8129
G1 X129.100 Y235.348 E191.8582
G1 X100.900 Y235.348 E193.9686
G1 X100.900 Y235.955 E194.0139
G1 X129.100 Y235.955 E196.1243
G1 X129.100 Y236.561 E196.1696
G1 X100.900 Y236.561 E198.2800
G1 X100.900 Y237.167 E198.3253
G1 X129.100 Y237.167 E200.4357
G1 X129.100 Y237.773 E200.4811
G1 X100.900 Y237.773 E202.5914
G1 X100.900 Y238.379 E202.6368
G1 X129.100 Y238.379 E204.7471
G1 X129.100 Y238.985 E204.7925
G1 X100.900 Y238.985 E206.9028
G1 X100.900 Y239.591 E206.9482
G1 X129.100 Y239.591 E209.0585
G92 E0
G1 E-1.0000 F1800
; layer 2, Z = 0.330
; outer perimeter
G1 X129.700 Y240.200 F4800
G1 Z0.330 F1000
G1 E0.0000 F1800
G92 E0
G1 X100.300 Y240.200 E2.2002 F250
G1 X100.300 Y180.800 E6.6454
G1 X129.700 Y180.800 E8.8455
G1 X129.700 Y240.200 E13.2907
; infill
G1 X129.100 Y239.591 F4800
G92 E0
G1 X100.900 Y239.591 E2.1104 F500
G1 X100.900 Y238.985 E2.1557
G1 X129.100 Y238.985 E4.2661
G1 X129.100 Y238.379 E4.3114
G1 X100.900 Y238.379 E6.4218
G1 X100.900 Y237.773 E6.4671
G1 X129.100 Y237.773 E8.5775
G1 X129.100 Y237.167 E8.6228
G1 X100.900 Y237.167 E10.7332
G1 X100.900 Y236.561 E10.7786
G1 X129.100 Y236.561 E12.8889
G1 X129.100 Y235.955 E12.9343
G1 X100.900 Y235.955 E15.0446
G1 X100.900 Y235.348 E15.0900
G1 X129.100 Y235.348 E17.2003
G1 X129.100 Y234.742 E17.2457
G1 X100.900 Y234.742 E19.3560
G1 X100.900 Y234.136 E19.4014
G1 X129.100 Y234.136 E21.5117
G1 X129.100 Y233.530 E21.5571
G1 X100.900 Y233.530 E23.6675
G1 X100.900 Y232.924 E23.7128
G1 X129.100 Y232.924 E25.8232
G1 X129.100 Y232.318 E25.8685
G1 X100.900 Y232.318 E27.9789
G1 X100.900 Y231.712 E28.0242
G1 X129.100 Y231.712 E30.1346
G1 X129.100 Y231.106 E30.1799
G1 X100.900 Y231.106 E32.2903
G1 X100.900 Y230.500 E32.3357
G1 X129.100 Y230.500 E34.4460
G1 X129.100 Y229.894 E34.4914
G1 X100.900 Y229.894 E36.6017
G1 X100.900 Y229.288 E36.6471
G1 X129.100 Y229.288 E38.7574
G1 X129.100 Y228.682 E38.8028
G1 X100.900 Y228.682 E40.9131
G1 X100.900 Y228.076 E40.9585
G1 X129.100 Y228.076 E43.0689
G1 X129.100 Y227.470 E43.1142
G1 X100.900 Y227.470 E45.2246
G1 X100.900 Y226.864 E45.2699
G1 X129.100 Y226.864 E47.3803
G1 X129.100 Y226.258 E47.4256
G1 X100.900 Y226.258 E49.5360
G1 X100.900 Y225.652 E49.5813
G1 X129.100 Y225.652 E51.6917
G1 X129.100 Y225.045 E51.7370
G1 X100.900 Y225.045 E53.8474
G1 X100.900 Y224.439 E53.8928
G1 X129.100 Y224.439 E56.0031
G1 X129.100 Y223.833 E56.0485
G1 X100.900 Y223.833 E58.1588
G1 X100.900 Y223.227 E58.2042
G1 X129.100 Y223.227 E60.3145
G1 X129.100 Y222.621 E60.3599
G1 X100.900 Y222.621 E62.4702
G1 X100.900 Y222.015 E62.5156
G1 X129.100 Y222.015 E64.6260
G1 X129.100 Y221.409 E64.6713
G1 X100.900 Y221.409 E66.7817
G1 X100.900 Y220.803 E66.8270
G1 X129.100 Y220.803 E68.9374
G1 X129.100 Y220.197 E68.9827
G1 X100.900 Y220.197 E71.0931
G1 X100.900 Y219.591 E71.1384
G1 X129.100 Y219.591 E73.2488
G1 X129.100 Y218.985 E73.2942
G1 X100.900 Y218.985 E75.4045
G1 X100.900 Y218.379 E75.4499
G1 X129.100 Y218.379 E77.5602
G1 X129.100 Y217.773 E77.6056
G1 X100.900 Y217.773 E79.7159
G1 X100.900 Y217.167 E79.7613
G1 X129.100 Y217.167 E81.8716
G1 X129.100 Y216.561 E81.9170
G1 X100.900 Y216.561 E84.0273
G1 X100.900 Y215.955 E84.0727
G1 X129.100 Y215.955 E86.1831
G1 X129.100 Y215.348 E86.2284
G1 X100.900 Y215.348 E88.3388
G1 X100.900 Y214.742 E88.3841
G1 X129.100 Y214.742 E90.4945
G1 X129.100 Y214.136 E90.5398
G1 X100.900 Y214.136 E92.6502
G1 X100.900 Y213.530 E92.6955
G1 X129.100 Y213.530 E94.8059
G1 X129.100 Y212.924 E94.8513
G1 X100.900 Y212.924 E96.9616
G1 X100.900 Y212.318 E97.0070
G1 X129.100 Y212.318 E99.1173
G1 X129.100 Y211.712 E99.1627
G1 X100.900 Y211.712 E101.2730
G1 X100.900 Y211.106 E101.3184
G1 X129.100 Y211.106 E103.4287
G1 X129.100 Y210.500 E103.4741
