; G-Code generated by Simplify3D(R) Version 4.0.0
; Sep 16, 2019 at 12:27:14 PM
; Settings Summary
;   processName,Blue
;   applyToModels,strand_30x1x1
;   profileName,Single_1stPrint
;   profileVersion,2019-09-06 10:19:38
;   baseProfile,Default (modified)
;   printMaterial,PLA
;   printQuality,Medium
;   printExtruders,
;   extruderName,VAP 1,VAP 2
;   extruderToolheadNumber,0,1
;   extruderDiameter,0.6,0.5
;   extruderAutoWidth,1,1
;   extruderWidth,0.72,0.6
;   extrusionMultiplier,1,1
;   extruderUseRetract,1,1
;   extruderRetractionDistance,1,1
;   extruderExtraRestartDistance,0,0
;   extruderRetractionZLift,0,0
;   extruderRetractionSpeed,1800,1800
;   extruderUseCoasting,0,0
;   extruderCoastingDistance,0.2,0.2
;   extruderUseWipe,0,0
;   extruderWipeDistance,5,5
;   primaryExtruder,0
;   layerHeight,0.3
;   topSolidLayers,1
;   bottomSolidLayers,1
;   perimeterOutlines,3
;   printPerimetersInsideOut,1
;   startPointOption,2
;   startPointOriginX,0
;   startPointOriginY,0
;   sequentialIslands,0
;   spiralVaseMode,0
;   firstLayerHeightPercentage,10
;   firstLayerWidthPercentage,100
;   firstLayerUnderspeed,1
;   useRaft,0
;   raftExtruder,0
;   raftTopLayers,3
;   raftBaseLayers,2
;   raftOffset,3
;   raftSeparationDistance,0.14
;   raftTopInfill,100
;   aboveRaftSpeedMultiplier,0.3
;   useSkirt,0
;   skirtExtruder,0
;   skirtLayers,1
;   skirtOutlines,2
;   skirtOffset,4
;   usePrimePillar,0
;   primePillarExtruder,999
;   primePillarWidth,12
;   primePillarLocation,7
;   primePillarSpeedMultiplier,1
;   useOozeShield,0
;   oozeShieldExtruder,999
;   oozeShieldOffset,2
;   oozeShieldOutlines,1
;   oozeShieldSidewallShape,1
;   oozeShieldSidewallAngle,30
;   oozeShieldSpeedMultiplier,1
;   infillExtruder,0
;   internalInfillPattern,Rectilinear
;   externalInfillPattern,Rectilinear
;   infillPercentage,30
;   outlineOverlapPercentage,15
;   infillExtrusionWidthPercentage,100
;   minInfillLength,5
;   infillLayerInterval,1
;   internalInfillAngles,45,-45
;   overlapInternalInfillAngles,0
;   externalInfillAngles,45,-45
;   generateSupport,0
;   supportExtruder,0
;   supportInfillPercentage,30
;   supportExtraInflation,0
;   supportBaseLayers,0
;   denseSupportExtruder,0
;   denseSupportLayers,0
;   denseSupportInfillPercentage,70
;   supportLayerInterval,1
;   supportHorizontalPartOffset,0.3
;   supportUpperSeparationLayers,1
;   supportLowerSeparationLayers,1
;   supportType,0
;   supportGridSpacing,4
;   maxOverhangAngle,45
;   supportAngles,0
;   temperatureName,VAP 1,VAP 2
;   temperatureNumber,0,1
;   temperatureSetpointCount,1,1
;   temperatureSetpointLayers,1,1
;   temperatureSetpointTemperatures,0,0
;   temperatureStabilizeAtStartup,1,1
;   temperatureHeatedBed,0,0
;   temperatureRelayBetweenLayers,0,0
;   temperatureRelayBetweenLoops,0,0
;   fanLayers,1,2
;   fanSpeeds,0,100
;   blipFanToFullPower,0
;   adjustSpeedForCooling,1
;   minSpeedLayerTime,15
;   minCoolingSpeedSlowdown,20
;   increaseFanForCooling,0
;   minFanLayerTime,45
;   maxCoolingFanSpeed,100
;   increaseFanForBridging,0
;   bridgingFanSpeed,100
;   use5D,1
;   relativeEdistances,0
;   allowEaxisZeroing,1
;   independentExtruderAxes,0
;   includeM10123,0
;   stickySupport,1
;   applyToolheadOffsets,1
;   gcodeXoffset,0
;   gcodeYoffset,0
;   gcodeZoffset,0
;   overrideMachineDefinition,1
;   machineTypeOverride,0
;   strokeXoverride,135
;   strokeYoverride,300
;   strokeZoverride,300
;   originOffsetXoverride,0
;   originOffsetYoverride,0
;   originOffsetZoverride,0
;   homeXdirOverride,-1
;   homeYdirOverride,-1
;   homeZdirOverride,-1
;   flipXoverride,1
;   flipYoverride,-1
;   flipZoverride,1
;   toolheadOffsets,0,0|-10,2|0,0|0,0|0,0|0,0
;   overrideFirmwareConfiguration,0
;   firmwareTypeOverride,RepRap (Marlin/Repetier/Sprinter)
;   GPXconfigOverride,r2
;   baudRateOverride,115200
;   overridePrinterModels,0
;   printerModelsOverride
;   startingGcode,G28 ; home all axes
;   layerChangeGcode,
;   retractionGcode,
;   toolChangeGcode,
;   endingGcode,M104 S0 ; turn off extruder,M140 S0 ; turn off bed,M84 ; disable motors
;   exportFileFormat,gcode
;   celebration,0
;   celebrationSong,Random Song
;   postProcessing,
;   defaultSpeed,500
;   outlineUnderspeed,0.5
;   solidInfillUnderspeed,0.8
;   supportUnderspeed,0.8
;   rapidXYspeed,4800
;   rapidZspeed,1000
;   minBridgingArea,50
;   bridgingExtraInflation,0
;   bridgingExtrusionMultiplier,1
;   bridgingSpeedMultiplier,1
;   useFixedBridgingAngle,0
;   fixedBridgingAngle,0
;   applyBridgingToPerimeters,0
;   filamentDiameters,1.75|1.75|1.75|1.75|1.75|1.75
;   filamentPricesPerKg,46|46|46|46|46|46
;   filamentDensities,1.25|1.25|1.25|1.25|1.25|1.25
;   useMinPrintHeight,0
;   minPrintHeight,0
;   useMaxPrintHeight,0
;   maxPrintHeight,0
;   useDiaphragm,0
;   diaphragmLayerInterval,20
;   robustSlicing,1
;   mergeAllIntoSolid,0
;   onlyRetractWhenCrossingOutline,1
;   retractBetweenLayers,1
;   useRetractionMinTravel,0
;   retractionMinTravel,3
;   retractWhileWiping,0
;   onlyWipeOutlines,1
;   avoidCrossingOutline,0
;   maxMovementDetourFactor,3
;   toolChangeRetractionDistance,12
;   toolChangeExtraRestartDistance,-0.5
;   toolChangeRetractionSpeed,600
;   externalThinWallType,0
;   internalThinWallType,2
;   thinWallAllowedOverlapPercentage,10
;   singleExtrusionMinLength,1
;   singleExtrusionMinPrintingWidthPercentage,50
;   singleExtrusionMaxPrintingWidthPercentage,200
;   singleExtrusionEndpointExtension,0.2
;   horizontalSizeCompensation,0
G90
M82
M106 S0
M104 S0 T0
M104 S0 T1
G28 ; home all axes
G92 E0
G1 E-1.0000 F1800
G1 Z0.030 F1000
; process Blue
; layer 1, Z = 0.030
T0
; tool H0.300 W0.720
; outer perimeter
G1 X131.360 Y115.860 F4800
G1 E0.0000 F540
G92 E0
G1 X131.640 Y115.860 E0.0251 F236
G1 X131.640 Y145.140 E2.6546
G1 X131.360 Y145.140 E2.6797
G1 X131.360 Y115.860 E5.3091
G92 E0
G1 E-1.0000 F1800
; layer 2, Z = 0.330
M106 S255
G1 X131.360 Y115.860 F4800
G1 Z0.330 F1000
G1 E0.0000 F1800
G92 E0
G1 X131.640 Y115.860 E0.0251 F236
G1 X131.640 Y145.140 E2.6546
G1 X131.360 Y145.140 E2.6797
G1 X131.360 Y115.860 E5.3091
G92 E0
G1 E-1.0000 F1800
; layer 3, Z = 0.630
G1 X131.360 Y115.860 F4800
G1 Z0.630 F1000
G1 E0.0000 F1800
G92 E0
G1 X131.640 Y115.860 E0.0251 F236
G1 X131.640 Y145.140 E2.6546
G1 X131.360 Y145.140 E2.6797
G1 X131.360 Y115.860 E5.3091
G92 E0
G1 E-1.0000 F1800
; layer 4, Z = 0.930
G1 X131.360 Y115.860 F4800
G1 Z0.930 F1000
G1 E0.0000 F1800
G92 E0
G1 X131.640 Y115.860 E0.0251 F236
G1 X131.640 Y145.140 E2.6546
G1 X131.360 Y145.140 E2.6797
G1 X131.360 Y115.860 E5.3091
G92 E0
G1 E-1.0000 F1800
; layer end
M104 S0 ; turn off extruder
M140 S0 ; turn off bed
M84 ; disable motors
; Build Summary
;   Build time: 0 hours 1 minute
;   Filament length: 21.2 mm (0.02 m)
;   Plastic volume: 51.08 mm^3 (0.05 cc)
;   Plastic weight: 0.06 g (0.00 lb)
;   Material cost: 0.00
