; G-Code generated by Simplify3D(R) Version 4.0.0
; Sep 23, 2019 at 11:39:26 AM
; Settings Summary
;   processName,Process1
;   applyToModels,AP_strand-30x60x2
;   profileName,Single_AP
;   profileVersion,2019-09-17 14:16:57
;   baseProfile,Default (modified)
;   printMaterial,PLA
;   printQuality,Medium
;   printExtruders,
;   extruderName,VAP 1,VAP 2
;   extruderToolheadNumber,0,1
;   extruderDiameter,0.6,0.6
;   extruderAutoWidth,0,0
;   extruderWidth,0.6,0.6
;   extrusionMultiplier,1,1
;   extruderUseRetract,1,1
;   extruderRetractionDistance,1,1
;   extruderExtraRestartDistance,0,0
;   extruderRetractionZLift,0,0
;   extruderRetractionSpeed,1800,1800
;   extruderUseCoasting,0,0
;   extruderCoastingDistance,0.2,0.2
;   extruderUseWipe,0,0
;   extruderWipeDistance,5,5
;   primaryExtruder,0
;   layerHeight,0.3
;   topSolidLayers,0
;   bottomSolidLayers,0
;   perimeterOutlines,1
;   printPerimetersInsideOut,1
;   startPointOption,2
;   startPointOriginX,0
;   startPointOriginY,0
;   sequentialIslands,0
;   spiralVaseMode,0
;   firstLayerHeightPercentage,10
;   firstLayerWidthPercentage,100
;   firstLayerUnderspeed,1
;   useRaft,0
;   raftExtruder,0
;   raftTopLayers,3
;   raftBaseLayers,2
;   raftOffset,3
;   raftSeparationDistance,0.14
;   raftTopInfill,100
;   aboveRaftSpeedMultiplier,0.3
;   useSkirt,1
;   skirtExtruder,0
;   skirtLayers,1
;   skirtOutlines,1
;   skirtOffset,5
;   usePrimePillar,0
;   primePillarExtruder,999
;   primePillarWidth,12
;   primePillarLocation,7
;   primePillarSpeedMultiplier,1
;   useOozeShield,0
;   oozeShieldExtruder,999
;   oozeShieldOffset,2
;   oozeShieldOutlines,1
;   oozeShieldSidewallShape,1
;   oozeShieldSidewallAngle,30
;   oozeShieldSpeedMultiplier,1
;   infillExtruder,0
;   internalInfillPattern,Rectilinear
;   externalInfillPattern,Rectilinear
;   infillPercentage,50
;   outlineOverlapPercentage,0
;   infillExtrusionWidthPercentage,100
;   minInfillLength,5
;   infillLayerInterval,1
;   internalInfillAngles,0
;   overlapInternalInfillAngles,0
;   externalInfillAngles,45,-45
;   generateSupport,0
;   supportExtruder,0
;   supportInfillPercentage,30
;   supportExtraInflation,0
;   supportBaseLayers,0
;   denseSupportExtruder,0
;   denseSupportLayers,0
;   denseSupportInfillPercentage,70
;   supportLayerInterval,1
;   supportHorizontalPartOffset,0.3
;   supportUpperSeparationLayers,1
;   supportLowerSeparationLayers,1
;   supportType,0
;   supportGridSpacing,4
;   maxOverhangAngle,45
;   supportAngles,0
;   temperatureName,VAP 1,VAP 2
;   temperatureNumber,0,1
;   temperatureSetpointCount,1,1
;   temperatureSetpointLayers,1,1
;   temperatureSetpointTemperatures,0,0
;   temperatureStabilizeAtStartup,1,1
;   temperatureHeatedBed,0,0
;   temperatureRelayBetweenLayers,0,0
;   temperatureRelayBetweenLoops,0,0
;   fanLayers
;   fanSpeeds
;   blipFanToFullPower,0
;   adjustSpeedForCooling,1
;   minSpeedLayerTime,15
;   minCoolingSpeedSlowdown,20
;   increaseFanForCooling,0
;   minFanLayerTime,45
;   maxCoolingFanSpeed,100
;   increaseFanForBridging,0
;   bridgingFanSpeed,100
;   use5D,1
;   relativeEdistances,0
;   allowEaxisZeroing,1
;   independentExtruderAxes,0
;   includeM10123,0
;   stickySupport,1
;   applyToolheadOffsets,1
;   gcodeXoffset,0
;   gcodeYoffset,0
;   gcodeZoffset,0
;   overrideMachineDefinition,1
;   machineTypeOverride,0
;   strokeXoverride,135
;   strokeYoverride,300
;   strokeZoverride,300
;   originOffsetXoverride,0
;   originOffsetYoverride,0
;   originOffsetZoverride,0
;   homeXdirOverride,-1
;   homeYdirOverride,-1
;   homeZdirOverride,-1
;   flipXoverride,1
;   flipYoverride,-1
;   flipZoverride,1
;   toolheadOffsets,0,0|-10,2|0,0|0,0|0,0|0,0
;   overrideFirmwareConfiguration,0
;   firmwareTypeOverride,RepRap (Marlin/Repetier/Sprinter)
;   GPXconfigOverride,r2
;   baudRateOverride,115200
;   overridePrinterModels,0
;   printerModelsOverride
;   startingGcode,G28 ; home all axes
;   layerChangeGcode,
;   retractionGcode,
;   toolChangeGcode,
;   endingGcode,M104 S0 ; turn off extruder,M140 S0 ; turn off bed,M84 ; disable motors
;   exportFileFormat,gcode
;   celebration,0
;   celebrationSong,Random Song
;   postProcessing,
;   defaultSpeed,500
;   outlineUnderspeed,0.5
;   solidInfillUnderspeed,0.8
;   supportUnderspeed,0.8
;   rapidXYspeed,4800
;   rapidZspeed,1000
;   minBridgingArea,50
;   bridgingExtraInflation,0
;   bridgingExtrusionMultiplier,1
;   bridgingSpeedMultiplier,1
;   useFixedBridgingAngle,0
;   fixedBridgingAngle,0
;   applyBridgingToPerimeters,0
;   filamentDiameters,1.75|1.75|1.75|1.75|1.75|1.75
;   filamentPricesPerKg,46|46|46|46|46|46
;   filamentDensities,1.25|1.25|1.25|1.25|1.25|1.25
;   useMinPrintHeight,0
;   minPrintHeight,0
;   useMaxPrintHeight,0
;   maxPrintHeight,0
;   useDiaphragm,0
;   diaphragmLayerInterval,20
;   robustSlicing,1
;   mergeAllIntoSolid,0
;   onlyRetractWhenCrossingOutline,1
;   retractBetweenLayers,1
;   useRetractionMinTravel,0
;   retractionMinTravel,3
;   retractWhileWiping,0
;   onlyWipeOutlines,1
;   avoidCrossingOutline,0
;   maxMovementDetourFactor,3
;   toolChangeRetractionDistance,12
;   toolChangeExtraRestartDistance,-0.5
;   toolChangeRetractionSpeed,600
;   externalThinWallType,0
;   internalThinWallType,2
;   thinWallAllowedOverlapPercentage,10
;   singleExtrusionMinLength,1
;   singleExtrusionMinPrintingWidthPercentage,50
;   singleExtrusionMaxPrintingWidthPercentage,200
;   singleExtrusionEndpointExtension,0.2
;   horizontalSizeCompensation,0
G90
M82
M104 S0 T0
M104 S0 T1
G28 ; home all axes
G92 E0
G1 E-1.0000 F1800
G1 Z4.230 F1000
; process Process1
; layer 1, Z = 0.030
; layer 2, Z = 0.330
; layer 3, Z = 0.630
; layer 4, Z = 0.930
; layer 5, Z = 1.230
; layer 6, Z = 1.530
; layer 7, Z = 1.830
; layer 8, Z = 2.130
; layer 9, Z = 2.430
; layer 10, Z = 2.730
; layer 11, Z = 3.030
; layer 12, Z = 3.330
; layer 13, Z = 3.630
; layer 14, Z = 3.930
; layer 15, Z = 4.230
T0
; tool H0.300 W0.600
; outer perimeter
G1 X100.300 Y181.300 F4800
G1 E0.0000 F540
G92 E0
G1 X129.700 Y181.300 E2.2002 F250
G1 X129.700 Y240.700 E6.6454
G1 X100.300 Y240.700 E8.8455
G1 X100.300 Y181.300 E13.2907
; infill
G1 X100.900 Y182.200 F4800
G92 E0
G1 X129.100 Y182.200 E2.1104 F500
G1 X129.100 Y183.400 E2.2002
G1 X100.900 Y183.400 E4.3105
G1 X100.900 Y184.600 E4.4003
G1 X129.100 Y184.600 E6.5107
G1 X129.100 Y185.800 E6.6005
G1 X100.900 Y185.800 E8.7108
G1 X100.900 Y187.000 E8.8006
G1 X129.100 Y187.000 E10.9110
G1 X129.100 Y188.200 E11.0008
G1 X100.900 Y188.200 E13.1111
G1 X100.900 Y189.400 E13.2009
G1 X129.100 Y189.400 E15.3113
G1 X129.100 Y190.600 E15.4011
G1 X100.900 Y190.600 E17.5115
G1 X100.900 Y191.800 E17.6013
G1 X129.100 Y191.800 E19.7116
G1 X129.100 Y193.000 E19.8014
G1 X100.900 Y193.000 E21.9118
G1 X100.900 Y194.200 E22.0016
G1 X129.100 Y194.200 E24.1119
G1 X129.100 Y195.400 E24.2017
G1 X100.900 Y195.400 E26.3121
G1 X100.900 Y196.600 E26.4019
G1 X129.100 Y196.600 E28.5123
G1 X129.100 Y197.800 E28.6021
G1 X100.900 Y197.800 E30.7124
G1 X100.900 Y199.000 E30.8022
G1 X129.100 Y199.000 E32.9126
G1 X129.100 Y200.200 E33.0024
G1 X100.900 Y200.200 E35.1127
G1 X100.900 Y201.400 E35.2025
G1 X129.100 Y201.400 E37.3129
G1 X129.100 Y202.600 E37.4027
G1 X100.900 Y202.600 E39.5130
G1 X100.900 Y203.800 E39.6028
G1 X129.100 Y203.800 E41.7132
G1 X129.100 Y205.000 E41.8030
G1 X100.900 Y205.000 E43.9134
G1 X100.900 Y206.200 E44.0032
G1 X129.100 Y206.200 E46.1135
G1 X129.100 Y207.400 E46.2033
G1 X100.900 Y207.400 E48.3137
G1 X100.900 Y208.600 E48.4035
G1 X129.100 Y208.600 E50.5138
G1 X129.100 Y209.800 E50.6036
G1 X100.900 Y209.800 E52.7140
G1 X100.900 Y211.000 E52.8038
G1 X129.100 Y211.000 E54.9141
G1 X129.100 Y212.200 E55.0039
G1 X100.900 Y212.200 E57.1143
G1 X100.900 Y213.400 E57.2041
G1 X129.100 Y213.400 E59.3145
G1 X129.100 Y214.600 E59.4043
G1 X100.900 Y214.600 E61.5146
G1 X100.900 Y215.800 E61.6044
G1 X129.100 Y215.800 E63.7148
G1 X129.100 Y217.000 E63.8046
G1 X100.900 Y217.000 E65.9149
G1 X100.900 Y218.200 E66.0047
G1 X129.100 Y218.200 E68.1151
G1 X129.100 Y219.400 E68.2049
G1 X100.900 Y219.400 E70.3153
G1 X100.900 Y220.600 E70.4051
G1 X129.100 Y220.600 E72.5154
G1 X129.100 Y221.800 E72.6052
G1 X100.900 Y221.800 E74.7156
G1 X100.900 Y223.000 E74.8054
G1 X129.100 Y223.000 E76.9157
G1 X129.100 Y224.200 E77.0055
G1 X100.900 Y224.200 E79.1159
G1 X100.900 Y225.400 E79.2057
G1 X129.100 Y225.400 E81.3160
G1 X129.100 Y226.600 E81.4058
G1 X100.900 Y226.600 E83.5162
G1 X100.900 Y227.800 E83.6060
G1 X129.100 Y227.800 E85.7164
G1 X129.100 Y229.000 E85.8062
G1 X100.900 Y229.000 E87.9165
G1 X100.900 Y230.200 E88.0063
G1 X129.100 Y230.200 E90.1167
G1 X129.100 Y231.400 E90.2065
G1 X100.900 Y231.400 E92.3168
G1 X100.900 Y232.600 E92.4066
G1 X129.100 Y232.600 E94.5170
G1 X129.100 Y233.800 E94.6068
G1 X100.900 Y233.800 E96.7171
G1 X100.900 Y235.000 E96.8069
G1 X129.100 Y235.000 E98.9173
G1 X129.100 Y236.200 E99.0071
G1 X100.900 Y236.200 E101.1175
G1 X100.900 Y237.400 E101.2073
G1 X129.100 Y237.400 E103.3176
G1 X129.100 Y238.600 E103.4074
G1 X100.900 Y238.600 E105.5178
G1 X100.900 Y239.800 E105.6076
G1 X129.100 Y239.800 E107.7179
G92 E0
G1 E-1.0000 F1800
; layer 16, Z = 4.530
; outer perimeter
G1 X129.700 Y240.700 F4800
G1 Z4.530 F1000
G1 E0.0000 F1800
G92 E0
G1 X100.300 Y240.700 E2.2002 F250
G1 X100.300 Y181.300 E6.6454
G1 X129.700 Y181.300 E8.8455
G1 X129.700 Y240.700 E13.2907
; infill
G1 X129.100 Y239.800 F4800
G92 E0
G1 X100.900 Y239.800 E2.1104 F500
G1 X100.900 Y238.600 E2.2002
G1 X129.100 Y238.600 E4.3105
G1 X129.100 Y237.400 E4.4003
G1 X100.900 Y237.400 E6.5107
G1 X100.900 Y236.200 E6.6005
G1 X129.100 Y236.200 E8.7108
G1 X129.100 Y235.000 E8.8006
G1 X100.900 Y235.000 E10.9110
G1 X100.900 Y233.800 E11.0008
G1 X129.100 Y233.800 E13.1111
G1 X129.100 Y232.600 E13.2009
G1 X100.900 Y232.600 E15.3113
G1 X100.900 Y231.400 E15.4011
G1 X129.100 Y231.400 E17.5115
G1 X129.100 Y230.200 E17.6013
G1 X100.900 Y230.200 E19.7116
G1 X100.900 Y229.000 E19.8014
G1 X129.100 Y229.000 E21.9118
G1 X129.100 Y227.800 E22.0016
G1 X100.900 Y227.800 E24.1119
G1 X100.900 Y226.600 E24.2017
G1 X129.100 Y226.600 E26.3121
G1 X129.100 Y225.400 E26.4019
G1 X100.900 Y225.400 E28.5123
G1 X100.900 Y224.200 E28.6021
G1 X129.100 Y224.200 E30.7124
G1 X129.100 Y223.000 E30.8022
G1 X100.900 Y223.000 E32.9126
G1 X100.900 Y221.800 E33.0024
G1 X129.100 Y221.800 E35.1127
G1 X129.100 Y220.600 E35.2025
G1 X100.900 Y220.600 E37.3129
G1 X100.900 Y219.400 E37.4027
G1 X129.100 Y219.400 E39.5130
G1 X129.100 Y218.200 E39.6028
G1 X100.900 Y218.200 E41.7132
G1 X100.900 Y217.000 E41.8030
G1 X129.100 Y217.000 E43.9134
G1 X129.100 Y215.800 E44.0032
G1 X100.900 Y215.800 E46.1135
G1 X100.900 Y214.600 E46.2033
G1 X129.100 Y214.600 E48.3137
G1 X129.100 Y213.400 E48.4035
G1 X100.900 Y213.400 E50.5138
G1 X100.900 Y212.200 E50.6036
G1 X129.100 Y212.200 E52.7140
G1 X129.100 Y211.000 E52.8038
G1 X100.900 Y211.000 E54.9141
G1 X100.900 Y209.800 E55.0039
G1 X129.100 Y209.800 E57.1143
G1 X129.100 Y208.600 E57.2041
G1 X100.900 Y208.600 E59.3145
G1 X100.900 Y207.400 E59.4043
G1 X129.100 Y207.400 E61.5146
G1 X129.100 Y206.200 E61.6044
G1 X100.900 Y206.200 E63.7148
G1 X100.900 Y205.000 E63.8046
G1 X129.100 Y205.000 E65.9149
G1 X129.100 Y203.800 E66.0047
G1 X100.900 Y203.800 E68.1151
G1 X100.900 Y202.600 E68.2049
G1 X129.100 Y202.600 E70.3153
G1 X129.100 Y201.400 E70.4051
G1 X100.900 Y201.400 E72.5154
G1 X100.900 Y200.200 E72.6052
G1 X129.100 Y200.200 E74.7156
G1 X129.100 Y199.000 E74.8054
G1 X100.900 Y199.000 E76.9157
G1 X100.900 Y197.800 E77.0055
G1 X129.100 Y197.800 E79.1159
G1 X129.100 Y196.600 E79.2057
G1 X100.900 Y196.600 E81.3160
G1 X100.900 Y195.400 E81.4058
G1 X129.100 Y195.400 E83.5162
G1 X129.100 Y194.200 E83.6060
G1 X100.900 Y194.200 E85.7164
G1 X100.900 Y193.000 E85.8062
G1 X129.100 Y193.000 E87.9165
G1 X129.100 Y191.800 E88.0063
G1 X100.900 Y191.800 E90.1167
G1 X100.900 Y190.600 E90.2065
G1 X129.100 Y190.600 E92.3168
G1 X129.100 Y189.400 E92.4066
G1 X100.900 Y189.400 E94.5170
G1 X100.900 Y188.200 E94.6068
G1 X129.100 Y188.200 E96.7171
G1 X129.100 Y187.000 E96.8069
G1 X100.900 Y187.000 E98.9173
G1 X100.900 Y185.800 E99.0071
G1 X129.100 Y185.800 E101.1175
G1 X129.100 Y184.600 E101.2073
G1 X100.900 Y184.600 E103.3176
G1 X100.900 Y183.400 E103.4074
G1 X129.100 Y183.400 E105.5178
G1 X129.100 Y182.200 E105.6076
G1 X100.900 Y182.200 E107.7179
G92 E0
G1 E-1.0000 F1800
; layer 17, Z = 4.830
; outer perimeter
G1 X100.300 Y181.300 F4800
G1 Z4.830 F1000
G1 E0.0000 F1800
G92 E0
G1 X129.700 Y181.300 E2.2002 F250
G1 X129.700 Y240.700 E6.6454
G1 X100.300 Y240.700 E8.8455
G1 X100.300 Y181.300 E13.2907
; infill
G1 X100.900 Y182.200 F4800
G92 E0
G1 X129.100 Y182.200 E2.1104 F500
G1 X129.100 Y183.400 E2.2002
G1 X100.900 Y183.400 E4.3105
G1 X100.900 Y184.600 E4.4003
G1 X129.100 Y184.600 E6.5107
G1 X129.100 Y185.800 E6.6005
G1 X100.900 Y185.800 E8.7108
G1 X100.900 Y187.000 E8.8006
G1 X129.100 Y187.000 E10.9110
G1 X129.100 Y188.200 E11.0008
G1 X100.900 Y188.200 E13.1111
G1 X100.900 Y189.400 E13.2009
G1 X129.100 Y189.400 E15.3113
G1 X129.100 Y190.600 E15.4011
G1 X100.900 Y190.600 E17.5115
G1 X100.900 Y191.800 E17.6013
G1 X129.100 Y191.800 E19.7116
G1 X129.100 Y193.000 E19.8014
G1 X100.900 Y193.000 E21.9118
G1 X100.900 Y194.200 E22.0016
G1 X129.100 Y194.200 E24.1119
G1 X129.100 Y195.400 E24.2017
G1 X100.900 Y195.400 E26.3121
G1 X100.900 Y196.600 E26.4019
G1 X129.100 Y196.600 E28.5123
G1 X129.100 Y197.800 E28.6021
G1 X100.900 Y197.800 E30.7124
G1 X100.900 Y199.000 E30.8022
G1 X129.100 Y199.000 E32.9126
G1 X129.100 Y200.200 E33.0024
G1 X100.900 Y200.200 E35.1127
G1 X100.900 Y201.400 E35.2025
G1 X129.100 Y201.400 E37.3129
G1 X129.100 Y202.600 E37.4027
G1 X100.900 Y202.600 E39.5130
G1 X100.900 Y203.800 E39.6028
G1 X129.100 Y203.800 E41.7132
G1 X129.100 Y205.000 E41.8030
G1 X100.900 Y205.000 E43.9134
G1 X100.900 Y206.200 E44.0032
G1 X129.100 Y206.200 E46.1135
G1 X129.100 Y207.400 E46.2033
G1 X100.900 Y207.400 E48.3137
G1 X100.900 Y208.600 E48.4035
G1 X129.100 Y208.600 E50.5138
G1 X129.100 Y209.800 E50.6036
G1 X100.900 Y209.800 E52.7140
G1 X100.900 Y211.000 E52.8038
G1 X129.100 Y211.000 E54.9141
G1 X129.100 Y212.200 E55.0039
G1 X100.900 Y212.200 E57.1143
G1 X100.900 Y213.400 E57.2041
G1 X129.100 Y213.400 E59.3145
G1 X129.100 Y214.600 E59.4043
G1 X100.900 Y214.600 E61.5146
G1 X100.900 Y215.800 E61.6044
G1 X129.100 Y215.800 E63.7148
G1 X129.100 Y217.000 E63.8046
G1 X100.900 Y217.000 E65.9149
G1 X100.900 Y218.200 E66.0047
G1 X129.100 Y218.200 E68.1151
G1 X129.100 Y219.400 E68.2049
G1 X100.900 Y219.400 E70.3153
G1 X100.900 Y220.600 E70.4051
G1 X129.100 Y220.600 E72.5154
G1 X129.100 Y221.800 E72.6052
G1 X100.900 Y221.800 E74.7156
G1 X100.900 Y223.000 E74.8054
G1 X129.100 Y223.000 E76.9157
G1 X129.100 Y224.200 E77.0055
G1 X100.900 Y224.200 E79.1159
G1 X100.900 Y225.400 E79.2057
G1 X129.100 Y225.400 E81.3160
G1 X129.100 Y226.600 E81.4058
G1 X100.900 Y226.600 E83.5162
G1 X100.900 Y227.800 E83.6060
G1 X129.100 Y227.800 E85.7164
G1 X129.100 Y229.000 E85.8062
G1 X100.900 Y229.000 E87.9165
G1 X100.900 Y230.200 E88.0063
G1 X129.100 Y230.200 E90.1167
G1 X129.100 Y231.400 E90.2065
G1 X100.900 Y231.400 E92.3168
G1 X100.900 Y232.600 E92.4066
G1 X129.100 Y232.600 E94.5170
G1 X129.100 Y233.800 E94.6068
G1 X100.900 Y233.800 E96.7171
G1 X100.900 Y235.000 E96.8069
G1 X129.100 Y235.000 E98.9173
G1 X129.100 Y236.200 E99.0071
G1 X100.900 Y236.200 E101.1175
G1 X100.900 Y237.400 E101.2073
G1 X129.100 Y237.400 E103.3176
G1 X129.100 Y238.600 E103.4074
G1 X100.900 Y238.600 E105.5178
