; G-Code generated by Simplify3D(R) Version 4.0.0
; Nov 13, 2019 at 12:12:09 PM
; Settings Summary
;   processName,Process1
;   applyToModels,strand_15x15x1
;   profileName,Hybrid_111319
;   profileVersion,2019-09-23 11:25:10
;   baseProfile,Default (modified)
;   printMaterial,PLA
;   printQuality,Medium
;   printExtruders,
;   extruderName,VAP 1
;   extruderToolheadNumber,0
;   extruderDiameter,0.6
;   extruderAutoWidth,0
;   extruderWidth,0.6
;   extrusionMultiplier,1
;   extruderUseRetract,1
;   extruderRetractionDistance,1
;   extruderExtraRestartDistance,0
;   extruderRetractionZLift,0
;   extruderRetractionSpeed,1800
;   extruderUseCoasting,0
;   extruderCoastingDistance,0.2
;   extruderUseWipe,0
;   extruderWipeDistance,5
;   primaryExtruder,0
;   layerHeight,0.3
;   topSolidLayers,0
;   bottomSolidLayers,0
;   perimeterOutlines,1
;   printPerimetersInsideOut,1
;   startPointOption,2
;   startPointOriginX,0
;   startPointOriginY,0
;   sequentialIslands,0
;   spiralVaseMode,0
;   firstLayerHeightPercentage,100
;   firstLayerWidthPercentage,100
;   firstLayerUnderspeed,1
;   useRaft,0
;   raftExtruder,0
;   raftTopLayers,3
;   raftBaseLayers,2
;   raftOffset,3
;   raftSeparationDistance,0.14
;   raftTopInfill,100
;   aboveRaftSpeedMultiplier,0.3
;   useSkirt,0
;   skirtExtruder,0
;   skirtLayers,1
;   skirtOutlines,1
;   skirtOffset,5
;   usePrimePillar,0
;   primePillarExtruder,999
;   primePillarWidth,12
;   primePillarLocation,7
;   primePillarSpeedMultiplier,1
;   useOozeShield,0
;   oozeShieldExtruder,999
;   oozeShieldOffset,2
;   oozeShieldOutlines,1
;   oozeShieldSidewallShape,1
;   oozeShieldSidewallAngle,30
;   oozeShieldSpeedMultiplier,1
;   infillExtruder,0
;   internalInfillPattern,Rectilinear
;   externalInfillPattern,Rectilinear
;   infillPercentage,99
;   outlineOverlapPercentage,0
;   infillExtrusionWidthPercentage,100
;   minInfillLength,5
;   infillLayerInterval,1
;   internalInfillAngles,45,-45
;   overlapInternalInfillAngles,0
;   externalInfillAngles,45,-45
;   generateSupport,0
;   supportExtruder,0
;   supportInfillPercentage,30
;   supportExtraInflation,0
;   supportBaseLayers,0
;   denseSupportExtruder,0
;   denseSupportLayers,0
;   denseSupportInfillPercentage,70
;   supportLayerInterval,1
;   supportHorizontalPartOffset,0.3
;   supportUpperSeparationLayers,1
;   supportLowerSeparationLayers,1
;   supportType,0
;   supportGridSpacing,4
;   maxOverhangAngle,45
;   supportAngles,0
;   temperatureName,VAP 1
;   temperatureNumber,0
;   temperatureSetpointCount,1
;   temperatureSetpointLayers,1
;   temperatureSetpointTemperatures,0
;   temperatureStabilizeAtStartup,1
;   temperatureHeatedBed,0
;   temperatureRelayBetweenLayers,0
;   temperatureRelayBetweenLoops,0
;   fanLayers,1,2
;   fanSpeeds,0,100
;   blipFanToFullPower,0
;   adjustSpeedForCooling,1
;   minSpeedLayerTime,15
;   minCoolingSpeedSlowdown,20
;   increaseFanForCooling,0
;   minFanLayerTime,45
;   maxCoolingFanSpeed,100
;   increaseFanForBridging,0
;   bridgingFanSpeed,100
;   use5D,1
;   relativeEdistances,0
;   allowEaxisZeroing,1
;   independentExtruderAxes,0
;   includeM10123,0
;   stickySupport,1
;   applyToolheadOffsets,1
;   gcodeXoffset,0
;   gcodeYoffset,0
;   gcodeZoffset,0
;   overrideMachineDefinition,1
;   machineTypeOverride,0
;   strokeXoverride,135
;   strokeYoverride,300
;   strokeZoverride,300
;   originOffsetXoverride,0
;   originOffsetYoverride,0
;   originOffsetZoverride,0
;   homeXdirOverride,-1
;   homeYdirOverride,-1
;   homeZdirOverride,-1
;   flipXoverride,1
;   flipYoverride,-1
;   flipZoverride,1
;   toolheadOffsets,0,0|-41.5,-128.5|0,0|0,0|0,0|0,0
;   overrideFirmwareConfiguration,0
;   firmwareTypeOverride,RepRap (Marlin/Repetier/Sprinter)
;   GPXconfigOverride,r2
;   baudRateOverride,115200
;   overridePrinterModels,0
;   printerModelsOverride
;   startingGcode,
;   layerChangeGcode,
;   retractionGcode,
;   toolChangeGcode,
;   endingGcode,M104 S0 ; turn off extruder,M140 S0 ; turn off bed,M84 ; disable motors
;   exportFileFormat,gcode
;   celebration,0
;   celebrationSong,Random Song
;   postProcessing,
;   defaultSpeed,500
;   outlineUnderspeed,0.5
;   solidInfillUnderspeed,0.8
;   supportUnderspeed,0.8
;   rapidXYspeed,4800
;   rapidZspeed,1000
;   minBridgingArea,50
;   bridgingExtraInflation,0
;   bridgingExtrusionMultiplier,1
;   bridgingSpeedMultiplier,1
;   useFixedBridgingAngle,0
;   fixedBridgingAngle,0
;   applyBridgingToPerimeters,0
;   filamentDiameters,1.75|1.75|1.75|1.75|1.75|1.75
;   filamentPricesPerKg,46|46|46|46|46|46
;   filamentDensities,2|1.25|1.25|1.25|1.25|1.25
;   useMinPrintHeight,0
;   minPrintHeight,0
;   useMaxPrintHeight,0
;   maxPrintHeight,0
;   useDiaphragm,0
;   diaphragmLayerInterval,20
;   robustSlicing,1
;   mergeAllIntoSolid,0
;   onlyRetractWhenCrossingOutline,1
;   retractBetweenLayers,1
;   useRetractionMinTravel,0
;   retractionMinTravel,3
;   retractWhileWiping,0
;   onlyWipeOutlines,1
;   avoidCrossingOutline,0
;   maxMovementDetourFactor,3
;   toolChangeRetractionDistance,12
;   toolChangeExtraRestartDistance,-0.5
;   toolChangeRetractionSpeed,600
;   externalThinWallType,0
;   internalThinWallType,2
;   thinWallAllowedOverlapPercentage,10
;   singleExtrusionMinLength,1
;   singleExtrusionMinPrintingWidthPercentage,50
;   singleExtrusionMaxPrintingWidthPercentage,200
;   singleExtrusionEndpointExtension,0.2
;   horizontalSizeCompensation,0
G90
M82
M106 S0
M104 S0 T0
G92 E0
G1 E-1.0000 F1800
G1 Z0.200 F1000
; process Process2
; layer 1, Z = 0.200
M104 S220 T1
T1
; tool H0.200 W0.480
; outer perimeter
G1 X68.740 Y32.240 F4800
G1 E0.0000 F540
G92 E0
G1 X83.260 Y32.240 E0.6954 F900
G1 X83.260 Y46.760 E1.3909
G1 X68.740 Y46.760 E2.0863
G1 X68.740 Y32.240 E2.7817
; solid layer
G1 X82.118 Y32.720 F4800
G92 E0
G1 X82.780 Y33.382 E0.0449 F1440
G1 X82.780 Y34.061 E0.0774
G1 X81.439 Y32.720 E0.1682
G1 X80.760 Y32.720 E0.2007
G1 X82.780 Y34.740 E0.3376
G1 X82.780 Y35.419 E0.3701
G1 X80.081 Y32.720 E0.5529
G1 X79.402 Y32.720 E0.5854
G1 X82.780 Y36.098 E0.8142
G1 X82.780 Y36.776 E0.8467
G1 X78.724 Y32.720 E1.1214
G1 X78.045 Y32.720 E1.1539
G1 X82.780 Y37.455 E1.4747
G1 X82.780 Y38.134 E1.5072
G1 X77.366 Y32.720 E1.8739
G1 X76.687 Y32.720 E1.9064
G1 X82.780 Y38.813 E2.3191
G1 X82.780 Y39.492 E2.3516
G1 X76.008 Y32.720 E2.8103
G1 X75.329 Y32.720 E2.8428
G1 X82.780 Y40.171 E3.3475
G1 X82.780 Y40.849 E3.3800
G1 X74.651 Y32.720 E3.9306
G1 X73.972 Y32.720 E3.9631
G1 X82.780 Y41.528 E4.5597
G1 X82.780 Y42.207 E4.5922
G1 X73.293 Y32.720 E5.2348
G1 X72.614 Y32.720 E5.2673
G1 X82.780 Y42.886 E5.9559
G1 X82.780 Y43.565 E5.9884
G1 X71.935 Y32.720 E6.7230
G1 X71.256 Y32.720 E6.7555
G1 X82.780 Y44.244 E7.5360
G1 X82.780 Y44.922 E7.5685
G1 X70.578 Y32.720 E8.3950
G1 X69.899 Y32.720 E8.4275
G1 X82.780 Y45.601 E9.3000
G1 X82.780 Y46.280 E9.3325
G1 X69.220 Y32.720 E10.2510
G1 X69.220 Y33.399 E10.2835
G1 X82.101 Y46.280 E11.1560
G1 X81.422 Y46.280 E11.1885
G1 X69.220 Y34.078 E12.0150
G1 X69.220 Y34.756 E12.0475
G1 X80.744 Y46.280 E12.8280
G1 X80.065 Y46.280 E12.8605
G1 X69.220 Y35.435 E13.5951
G1 X69.220 Y36.114 E13.6276
G1 X79.386 Y46.280 E14.3162
G1 X78.707 Y46.280 E14.3487
G1 X69.220 Y36.793 E14.9913
G1 X69.220 Y37.472 E15.0238
G1 X78.028 Y46.280 E15.6204
G1 X77.349 Y46.280 E15.6529
G1 X69.220 Y38.151 E16.2035
G1 X69.220 Y38.829 E16.2361
G1 X76.671 Y46.280 E16.7407
G1 X75.992 Y46.280 E16.7732
G1 X69.220 Y39.508 E17.2319
G1 X69.220 Y40.187 E17.2644
G1 X75.313 Y46.280 E17.6771
G1 X74.634 Y46.280 E17.7096
G1 X69.220 Y40.866 E18.0763
G1 X69.220 Y41.545 E18.1088
G1 X73.955 Y46.280 E18.4296
G1 X73.276 Y46.280 E18.4621
G1 X69.220 Y42.224 E18.7369
G1 X69.220 Y42.902 E18.7694
G1 X72.598 Y46.280 E18.9981
G1 X71.919 Y46.280 E19.0307
G1 X69.220 Y43.581 E19.2135
G1 X69.220 Y44.260 E19.2460
G1 X71.240 Y46.280 E19.3828
G1 X70.561 Y46.280 E19.4153
G1 X69.220 Y44.939 E19.5061
G1 X69.220 Y45.618 E19.5387
G1 X69.882 Y46.280 E19.5835
G92 E0
G1 E-1.0000 F1800
; layer 2, Z = 0.400
M106 S255
; outer perimeter
G1 X68.740 Y46.760 F4800
G1 Z0.400 F1000
G1 E0.0000 F1800
G92 E0
G1 X68.740 Y32.240 E0.6954 F900
G1 X83.260 Y32.240 E1.3909
G1 X83.260 Y46.760 E2.0863
G1 X68.740 Y46.760 E2.7817
; infill
G1 X69.752 Y46.280 F4800
G92 E0
G1 X69.220 Y45.748 E0.0360 F1800
G1 X69.220 Y45.062 E0.0689
G1 X70.438 Y46.280 E0.1514
G1 X71.123 Y46.280 E0.1842
G1 X69.220 Y44.377 E0.3131
G1 X69.220 Y43.691 E0.3460
G1 X71.809 Y46.280 E0.5213
G1 X72.495 Y46.280 E0.5542
G1 X69.220 Y43.005 E0.7760
G1 X69.220 Y42.320 E0.8088
G1 X73.180 Y46.280 E1.0771
G1 X73.866 Y46.280 E1.1099
G1 X69.220 Y41.634 E1.4246
G1 X69.220 Y40.948 E1.4575
G1 X74.552 Y46.280 E1.8186
G1 X75.238 Y46.280 E1.8515
G1 X69.220 Y40.262 E2.2590
G1 X69.220 Y39.577 E2.2919
G1 X75.923 Y46.280 E2.7459
G1 X76.609 Y46.280 E2.7788
G1 X69.220 Y38.891 E3.2792
G1 X69.220 Y38.205 E3.3121
G1 X77.295 Y46.280 E3.8590
G1 X77.980 Y46.280 E3.8918
G1 X69.220 Y37.520 E4.4852
G1 X69.220 Y36.834 E4.5180
G1 X78.666 Y46.280 E5.1578
G1 X79.352 Y46.280 E5.1907
G1 X69.220 Y36.148 E5.8769
G1 X69.220 Y35.463 E5.9098
G1 X80.037 Y46.280 E6.6424
G1 X80.723 Y46.280 E6.6753
G1 X69.220 Y34.777 E7.4544
G1 X69.220 Y34.091 E7.4873
G1 X81.409 Y46.280 E8.3128
G1 X82.094 Y46.280 E8.3457
G1 X69.220 Y33.406 E9.2177
G1 X69.220 Y32.720 E9.2505
G1 X82.780 Y46.280 E10.1690
G1 X82.780 Y45.594 E10.2018
G1 X69.906 Y32.720 E11.0739
G1 X70.591 Y32.720 E11.1067
G1 X82.780 Y44.909 E11.9323
G1 X82.780 Y44.223 E11.9651
G1 X71.277 Y32.720 E12.7442
G1 X71.963 Y32.720 E12.7771
G1 X82.780 Y43.537 E13.5098
G1 X82.780 Y42.852 E13.5426
G1 X72.648 Y32.720 E14.2289
G1 X73.334 Y32.720 E14.2617
G1 X82.780 Y42.166 E14.9015
G1 X82.780 Y41.480 E14.9343
G1 X74.020 Y32.720 E15.5277
G1 X74.705 Y32.720 E15.5605
G1 X82.780 Y40.795 E16.1075
G1 X82.780 Y40.109 E16.1403
G1 X75.391 Y32.720 E16.6408
G1 X76.077 Y32.720 E16.6736
G1 X82.780 Y39.423 E17.1276
G1 X82.780 Y38.738 E17.1605
G1 X76.762 Y32.720 E17.5681
G1 X77.448 Y32.720 E17.6009
G1 X82.780 Y38.052 E17.9620
G1 X82.780 Y37.366 E17.9949
G1 X78.134 Y32.720 E18.3096
G1 X78.820 Y32.720 E18.3424
G1 X82.780 Y36.680 E18.6107
G1 X82.780 Y35.995 E18.6435
G1 X79.505 Y32.720 E18.8653
G1 X80.191 Y32.720 E18.8982
G1 X82.780 Y35.309 E19.0735
G1 X82.780 Y34.623 E19.1064
G1 X80.877 Y32.720 E19.2353
G1 X81.562 Y32.720 E19.2682
G1 X82.780 Y33.938 E19.3506
G1 X82.780 Y33.252 E19.3835
G1 X82.248 Y32.720 E19.4195
G92 E0
G1 E-1.0000 F1800
; layer 3, Z = 0.600
; outer perimeter
G1 X83.260 Y32.240 F4800
G1 Z0.600 F1000
G1 E0.0000 F1800
G92 E0
G1 X83.260 Y46.760 E0.6954 F900
G1 X68.740 Y46.760 E1.3909
G1 X68.740 Y32.240 E2.0863
G1 X83.260 Y32.240 E2.7817
; infill
G1 X82.780 Y45.748 F4800
G92 E0
G1 X82.248 Y46.280 E0.0360 F1800
G1 X81.562 Y46.280 E0.0689
G1 X82.780 Y45.062 E0.1514
G1 X82.780 Y44.377 E0.1842
G1 X80.877 Y46.280 E0.3131
G1 X80.191 Y46.280 E0.3460
G1 X82.780 Y43.691 E0.5213
G1 X82.780 Y43.005 E0.5542
G1 X79.505 Y46.280 E0.7760
G1 X78.820 Y46.280 E0.8088
G1 X82.780 Y42.320 E1.0771
G1 X82.780 Y41.634 E1.1099
G1 X78.134 Y46.280 E1.4246
G1 X77.448 Y46.280 E1.4575
G1 X82.780 Y40.948 E1.8186
G1 X82.780 Y40.263 E1.8514
G1 X76.763 Y46.280 E2.2590
G1 X76.077 Y46.280 E2.2919
G1 X82.780 Y39.577 E2.7459
G1 X82.780 Y38.891 E2.7787
G1 X75.391 Y46.280 E3.2792
G1 X74.705 Y46.280 E3.3120
G1 X82.780 Y38.205 E3.8589
G1 X82.780 Y37.520 E3.8918
G1 X74.020 Y46.280 E4.4851
G1 X73.334 Y46.280 E4.5180
G1 X82.780 Y36.834 E5.1578
G1 X82.780 Y36.148 E5.1906
G1 X72.648 Y46.280 E5.8769
G1 X71.963 Y46.280 E5.9097
G1 X82.780 Y35.463 E6.6424
G1 X82.780 Y34.777 E6.6752
G1 X71.277 Y46.280 E7.4544
G1 X70.591 Y46.280 E7.4872
G1 X82.780 Y34.091 E8.3128
G1 X82.780 Y33.406 E8.3456
G1 X69.906 Y46.280 E9.2176
G1 X69.220 Y46.280 E9.2505
G1 X82.780 Y32.720 E10.1689
G1 X82.094 Y32.720 E10.2018
G1 X69.220 Y45.594 E11.0738
G1 X69.220 Y44.909 E11.1066
G1 X81.409 Y32.720 E11.9322
G1 X80.723 Y32.720 E11.9650
G1 X69.220 Y44.223 E12.7442
G1 X69.220 Y43.537 E12.7770
G1 X80.037 Y32.720 E13.5097
G1 X79.352 Y32.720 E13.5426
G1 X69.220 Y42.852 E14.2288
G1 X69.220 Y42.166 E14.2616
G1 X78.666 Y32.720 E14.9015
G1 X77.980 Y32.720 E14.9343
G1 X69.220 Y41.480 E15.5277
G1 X69.220 Y40.795 E15.5605
G1 X77.295 Y32.720 E16.1074
G1 X76.609 Y32.720 E16.1403
G1 X69.220 Y40.109 E16.6407
G1 X69.220 Y39.423 E16.6736
G1 X75.923 Y32.720 E17.1276
G1 X75.238 Y32.720 E17.1604
G1 X69.220 Y38.738 E17.5680
G1 X69.220 Y38.052 E17.6009
G1 X74.552 Y32.720 E17.9620
G1 X73.866 Y32.720 E17.9949
G1 X69.220 Y37.366 E18.3096
G1 X69.220 Y36.681 E18.3424
G1 X73.181 Y32.720 E18.6107
G1 X72.495 Y32.720 E18.6435
G1 X69.220 Y35.995 E18.8653
G1 X69.220 Y35.309 E18.8982
G1 X71.809 Y32.720 E19.0735
G1 X71.123 Y32.720 E19.1064
G1 X69.220 Y34.623 E19.2353
G1 X69.220 Y33.938 E19.2681
G1 X70.438 Y32.720 E19.3506
G1 X69.752 Y32.720 E19.3835
G1 X69.220 Y33.252 E19.4195
G92 E0
G1 E-1.0000 F1800
; layer 4, Z = 0.800
; outer perimeter
G1 X68.740 Y32.240 F4800
G1 Z0.800 F1000
G1 E0.0000 F1800
G92 E0
G1 X83.260 Y32.240 E0.6954 F900
G1 X83.260 Y46.760 E1.3909
G1 X68.740 Y46.760 E2.0863
G1 X68.740 Y32.240 E2.7817
; infill
G1 X82.248 Y32.720 F4800
G92 E0
G1 X82.780 Y33.252 E0.0360 F1800
G1 X82.780 Y33.938 E0.0689
G1 X81.562 Y32.720 E0.1514
G1 X80.877 Y32.720 E0.1842
G1 X82.780 Y34.623 E0.3131
G1 X82.780 Y35.309 E0.3460
G1 X80.191 Y32.720 E0.5213
G1 X79.505 Y32.720 E0.5542
G1 X82.780 Y35.995 E0.7760
G1 X82.780 Y36.680 E0.8088
G1 X78.820 Y32.720 E1.0771
G1 X78.134 Y32.720 E1.1099
G1 X82.780 Y37.366 E1.4246
G1 X82.780 Y38.052 E1.4575
G1 X77.448 Y32.720 E1.8186
G1 X76.762 Y32.720 E1.8515
G1 X82.780 Y38.738 E2.2590
G1 X82.780 Y39.423 E2.2919
G1 X76.077 Y32.720 E2.7459
G1 X75.391 Y32.720 E2.7788
G1 X82.780 Y40.109 E3.2792
G1 X82.780 Y40.795 E3.3121
G1 X74.705 Y32.720 E3.8590
G1 X74.020 Y32.720 E3.8918
G1 X82.780 Y41.480 E4.4852
G1 X82.780 Y42.166 E4.5180
G1 X73.334 Y32.720 E5.1578
G1 X72.648 Y32.720 E5.1907
G1 X82.780 Y42.852 E5.8769
G1 X82.780 Y43.537 E5.9097
G1 X71.963 Y32.720 E6.6424
G1 X71.277 Y32.720 E6.6753
G1 X82.780 Y44.223 E7.4544
G1 X82.780 Y44.909 E7.4873
G1 X70.591 Y32.720 E8.3128
G1 X69.906 Y32.720 E8.3457
G1 X82.780 Y45.594 E9.2177
G1 X82.780 Y46.280 E9.2505
G1 X69.220 Y32.720 E10.1690
G1 X69.220 Y33.406 E10.2018
G1 X82.094 Y46.280 E11.0738
G1 X81.409 Y46.280 E11.1067
G1 X69.220 Y34.091 E11.9323
G1 X69.220 Y34.777 E11.9651
G1 X80.723 Y46.280 E12.7442
G1 X80.037 Y46.280 E12.7771
G1 X69.220 Y35.463 E13.5098
G1 X69.220 Y36.148 E13.5426
G1 X79.352 Y46.280 E14.2289
G1 X78.666 Y46.280 E14.2617
G1 X69.220 Y36.834 E14.9015
G1 X69.220 Y37.520 E14.9343
G1 X77.980 Y46.280 E15.5277
G1 X77.295 Y46.280 E15.5605
G1 X69.220 Y38.205 E16.1075
G1 X69.220 Y38.891 E16.1403
G1 X76.609 Y46.280 E16.6408
G1 X75.923 Y46.280 E16.6736
G1 X69.220 Y39.577 E17.1276
G1 X69.220 Y40.262 E17.1605
G1 X75.238 Y46.280 E17.5681
G1 X74.552 Y46.280 E17.6009
G1 X69.220 Y40.948 E17.9620
G1 X69.220 Y41.634 E17.9949
G1 X73.866 Y46.280 E18.3096
G1 X73.180 Y46.280 E18.3424
G1 X69.220 Y42.320 E18.6107
G1 X69.220 Y43.005 E18.6435
G1 X72.495 Y46.280 E18.8653
G1 X71.809 Y46.280 E18.8982
G1 X69.220 Y43.691 E19.0735
G1 X69.220 Y44.377 E19.1064
G1 X71.123 Y46.280 E19.2353
G1 X70.438 Y46.280 E19.2682
G1 X69.220 Y45.062 E19.3506
G1 X69.220 Y45.748 E19.3835
G1 X69.752 Y46.280 E19.4195
G92 E0
G1 E-1.0000 F1800
; layer 5, Z = 1.000
; outer perimeter
G1 X68.740 Y46.760 F4800
G1 Z1.000 F1000
G1 E0.0000 F1800
G92 E0
G1 X68.740 Y32.240 E0.6954 F900
G1 X83.260 Y32.240 E1.3909
G1 X83.260 Y46.760 E2.0863
G1 X68.740 Y46.760 E2.7817
; infill
G1 X69.220 Y33.252 F4800
