; G-Code generated by Simplify3D(R) Version 4.0.0
; Nov 13, 2019 at 8:10:49 AM
; Settings Summary
;   processName,Process1
;   applyToModels,strand_15x15x1
;   profileName,Hybrid_111319
;   profileVersion,2019-09-23 11:25:10
;   baseProfile,Default (modified)
;   printMaterial,PLA
;   printQuality,Medium
;   printExtruders,
;   extruderName,VAP 1
;   extruderToolheadNumber,0
;   extruderDiameter,0.6
;   extruderAutoWidth,0
;   extruderWidth,0.6
;   extrusionMultiplier,1
;   extruderUseRetract,1
;   extruderRetractionDistance,1
;   extruderExtraRestartDistance,0
;   extruderRetractionZLift,0
;   extruderRetractionSpeed,1800
;   extruderUseCoasting,0
;   extruderCoastingDistance,0.2
;   extruderUseWipe,0
;   extruderWipeDistance,5
;   primaryExtruder,0
;   layerHeight,0.3
;   topSolidLayers,0
;   bottomSolidLayers,0
;   perimeterOutlines,1
;   printPerimetersInsideOut,1
;   startPointOption,2
;   startPointOriginX,0
;   startPointOriginY,0
;   sequentialIslands,0
;   spiralVaseMode,0
;   firstLayerHeightPercentage,100
;   firstLayerWidthPercentage,100
;   firstLayerUnderspeed,1
;   useRaft,0
;   raftExtruder,0
;   raftTopLayers,3
;   raftBaseLayers,2
;   raftOffset,3
;   raftSeparationDistance,0.14
;   raftTopInfill,100
;   aboveRaftSpeedMultiplier,0.3
;   useSkirt,0
;   skirtExtruder,0
;   skirtLayers,1
;   skirtOutlines,1
;   skirtOffset,5
;   usePrimePillar,0
;   primePillarExtruder,999
;   primePillarWidth,12
;   primePillarLocation,7
;   primePillarSpeedMultiplier,1
;   useOozeShield,0
;   oozeShieldExtruder,999
;   oozeShieldOffset,2
;   oozeShieldOutlines,1
;   oozeShieldSidewallShape,1
;   oozeShieldSidewallAngle,30
;   oozeShieldSpeedMultiplier,1
;   infillExtruder,0
;   internalInfillPattern,Rectilinear
;   externalInfillPattern,Rectilinear
;   infillPercentage,99
;   outlineOverlapPercentage,0
;   infillExtrusionWidthPercentage,100
;   minInfillLength,5
;   infillLayerInterval,1
;   internalInfillAngles,45,-45
;   overlapInternalInfillAngles,0
;   externalInfillAngles,45,-45
;   generateSupport,0
;   supportExtruder,0
;   supportInfillPercentage,30
;   supportExtraInflation,0
;   supportBaseLayers,0
;   denseSupportExtruder,0
;   denseSupportLayers,0
;   denseSupportInfillPercentage,70
;   supportLayerInterval,1
;   supportHorizontalPartOffset,0.3
;   supportUpperSeparationLayers,1
;   supportLowerSeparationLayers,1
;   supportType,0
;   supportGridSpacing,4
;   maxOverhangAngle,45
;   supportAngles,0
;   temperatureName,VAP 1
;   temperatureNumber,0
;   temperatureSetpointCount,1
;   temperatureSetpointLayers,1
;   temperatureSetpointTemperatures,0
;   temperatureStabilizeAtStartup,1
;   temperatureHeatedBed,0
;   temperatureRelayBetweenLayers,0
;   temperatureRelayBetweenLoops,0
;   fanLayers,1,2
;   fanSpeeds,0,100
;   blipFanToFullPower,0
;   adjustSpeedForCooling,1
;   minSpeedLayerTime,15
;   minCoolingSpeedSlowdown,20
;   increaseFanForCooling,0
;   minFanLayerTime,45
;   maxCoolingFanSpeed,100
;   increaseFanForBridging,0
;   bridgingFanSpeed,100
;   use5D,1
;   relativeEdistances,0
;   allowEaxisZeroing,1
;   independentExtruderAxes,0
;   includeM10123,0
;   stickySupport,1
;   applyToolheadOffsets,1
;   gcodeXoffset,0
;   gcodeYoffset,0
;   gcodeZoffset,0
;   overrideMachineDefinition,1
;   machineTypeOverride,0
;   strokeXoverride,135
;   strokeYoverride,300
;   strokeZoverride,300
;   originOffsetXoverride,0
;   originOffsetYoverride,0
;   originOffsetZoverride,0
;   homeXdirOverride,-1
;   homeYdirOverride,-1
;   homeZdirOverride,-1
;   flipXoverride,1
;   flipYoverride,-1
;   flipZoverride,1
;   toolheadOffsets,0,0|-30.5,-128.5|0,0|0,0|0,0|0,0
;   overrideFirmwareConfiguration,0
;   firmwareTypeOverride,RepRap (Marlin/Repetier/Sprinter)
;   GPXconfigOverride,r2
;   baudRateOverride,115200
;   overridePrinterModels,0
;   printerModelsOverride
;   startingGcode,
;   layerChangeGcode,
;   retractionGcode,
;   toolChangeGcode,G1 X0 Y0;,,G1 E200 F800;
;   endingGcode,M104 S0 ; turn off extruder,M140 S0 ; turn off bed,M84 ; disable motors
;   exportFileFormat,gcode
;   celebration,0
;   celebrationSong,Random Song
;   postProcessing,
;   defaultSpeed,500
;   outlineUnderspeed,0.5
;   solidInfillUnderspeed,0.8
;   supportUnderspeed,0.8
;   rapidXYspeed,4800
;   rapidZspeed,1000
;   minBridgingArea,50
;   bridgingExtraInflation,0
;   bridgingExtrusionMultiplier,1
;   bridgingSpeedMultiplier,1
;   useFixedBridgingAngle,0
;   fixedBridgingAngle,0
;   applyBridgingToPerimeters,0
;   filamentDiameters,1.75|1.75|1.75|1.75|1.75|1.75
;   filamentPricesPerKg,46|46|46|46|46|46
;   filamentDensities,2|1.25|1.25|1.25|1.25|1.25
;   useMinPrintHeight,0
;   minPrintHeight,0
;   useMaxPrintHeight,0
;   maxPrintHeight,0
;   useDiaphragm,0
;   diaphragmLayerInterval,20
;   robustSlicing,1
;   mergeAllIntoSolid,0
;   onlyRetractWhenCrossingOutline,1
;   retractBetweenLayers,1
;   useRetractionMinTravel,0
;   retractionMinTravel,3
;   retractWhileWiping,0
;   onlyWipeOutlines,1
;   avoidCrossingOutline,0
;   maxMovementDetourFactor,3
;   toolChangeRetractionDistance,12
;   toolChangeExtraRestartDistance,-0.5
;   toolChangeRetractionSpeed,600
;   externalThinWallType,0
;   internalThinWallType,2
;   thinWallAllowedOverlapPercentage,10
;   singleExtrusionMinLength,1
;   singleExtrusionMinPrintingWidthPercentage,50
;   singleExtrusionMaxPrintingWidthPercentage,200
;   singleExtrusionEndpointExtension,0.2
;   horizontalSizeCompensation,0
G90
M82
M106 S0
M104 S0 T0
M140 S80
G92 E0
G1 E-1.0000 F1800
G1 Z0.200 F1000
; process Process2
; layer 1, Z = 0.200
M104 S220 T1
G1 X0 Y0;
G1 E100 F800;
T1
; tool H0.200 W0.480
; outer perimeter
G1 X59.740 Y22.240 F4800
G1 E0.0000 F540
G92 E0
M400
M42 P7 S255 ;turns UV on
G1 X74.260 Y22.240 E0.5795 F900
G1 X74.260 Y36.760 E1.1590
G1 X59.740 Y36.760 E1.7386
G1 X59.740 Y22.240 E2.3181
; solid layer
M400
M42 P7 S0 ;turns UV off
G1 X73.118 Y22.720 F4800
G92 E0
M400
M42 P7 S255 ;turns UV on
G1 X73.780 Y23.382 E0.0374 F1440
G1 X73.780 Y24.061 E0.0645
G1 X72.439 Y22.720 E0.1402
G1 X71.760 Y22.720 E0.1673
G1 X73.780 Y24.740 E0.2813
G1 X73.780 Y25.419 E0.3084
G1 X71.081 Y22.720 E0.4607
G1 X70.402 Y22.720 E0.4878
G1 X73.780 Y26.098 E0.6785
G1 X73.780 Y26.776 E0.7056
G1 X69.724 Y22.720 E0.9345
G1 X69.045 Y22.720 E0.9616
G1 X73.780 Y27.455 E1.2289
G1 X73.780 Y28.134 E1.2560
G1 X68.366 Y22.720 E1.5616
G1 X67.687 Y22.720 E1.5887
G1 X73.780 Y28.813 E1.9326
G1 X73.780 Y29.492 E1.9597
G1 X67.008 Y22.720 E2.3419
G1 X66.329 Y22.720 E2.3690
G1 X73.780 Y30.171 E2.7896
G1 X73.780 Y30.849 E2.8166
G1 X65.651 Y22.720 E3.2755
G1 X64.972 Y22.720 E3.3026
G1 X73.780 Y31.528 E3.7998
G1 X73.780 Y32.207 E3.8269
G1 X64.293 Y22.720 E4.3624
G1 X63.614 Y22.720 E4.3894
G1 X73.780 Y32.886 E4.9633
G1 X73.780 Y33.565 E4.9903
G1 X62.935 Y22.720 E5.6025
G1 X62.256 Y22.720 E5.6296
G1 X73.780 Y34.244 E6.2800
G1 X73.780 Y34.922 E6.3071
G1 X61.578 Y22.720 E6.9958
G1 X60.899 Y22.720 E7.0229
G1 X73.780 Y35.601 E7.7500
G1 X73.780 Y36.280 E7.7771
G1 X60.220 Y22.720 E8.5425
G1 X60.220 Y23.399 E8.5696
G1 X73.101 Y36.280 E9.2967
G1 X72.422 Y36.280 E9.3237
G1 X60.220 Y24.078 E10.0125
G1 X60.220 Y24.756 E10.0396
G1 X71.744 Y36.280 E10.6900
G1 X71.065 Y36.280 E10.7171
G1 X60.220 Y25.435 E11.3292
G1 X60.220 Y26.114 E11.3563
G1 X70.386 Y36.280 E11.9301
G1 X69.707 Y36.280 E11.9572
G1 X60.220 Y26.793 E12.4927
G1 X60.220 Y27.472 E12.5198
G1 X69.028 Y36.280 E13.0170
G1 X68.349 Y36.280 E13.0441
G1 X60.220 Y28.151 E13.5030
G1 X60.220 Y28.829 E13.5300
G1 X67.671 Y36.280 E13.9506
G1 X66.992 Y36.280 E13.9777
G1 X60.220 Y29.508 E14.3599
G1 X60.220 Y30.187 E14.3870
G1 X66.313 Y36.280 E14.7309
G1 X65.634 Y36.280 E14.7580
G1 X60.220 Y30.866 E15.0636
G1 X60.220 Y31.545 E15.0907
G1 X64.955 Y36.280 E15.3580
G1 X64.276 Y36.280 E15.3851
G1 X60.220 Y32.224 E15.6140
G1 X60.220 Y32.902 E15.6411
G1 X63.598 Y36.280 E15.8318
G1 X62.919 Y36.280 E15.8589
G1 X60.220 Y33.581 E16.0112
G1 X60.220 Y34.260 E16.0383
G1 X62.240 Y36.280 E16.1523
G1 X61.561 Y36.280 E16.1794
G1 X60.220 Y34.939 E16.2551
G1 X60.220 Y35.618 E16.2822
G1 X60.882 Y36.280 E16.3196
G92 E0
M400
M42 P7 S0 ;turns UV off
G1 E-1.0000 F1800
; layer 2, Z = 0.400
M106 S255
; outer perimeter
G1 X59.740 Y36.760 F4800
G1 Z0.400 F1000
G1 E0.0000 F1800
G92 E0
M400
M42 P7 S255 ;turns UV on
G1 X59.740 Y22.240 E0.5795 F900
G1 X74.260 Y22.240 E1.1590
G1 X74.260 Y36.760 E1.7386
G1 X59.740 Y36.760 E2.3181
; infill
M400
M42 P7 S0 ;turns UV off
G1 X60.752 Y36.280 F4800
G92 E0
M400
M42 P7 S255 ;turns UV on
G1 X60.220 Y35.748 E0.0300 F1800
G1 X60.220 Y35.062 E0.0574
G1 X61.438 Y36.280 E0.1261
G1 X62.123 Y36.280 E0.1535
G1 X60.220 Y34.377 E0.2609
G1 X60.220 Y33.691 E0.2883
G1 X62.809 Y36.280 E0.4345
G1 X63.495 Y36.280 E0.4618
G1 X60.220 Y33.005 E0.6467
G1 X60.220 Y32.320 E0.6740
G1 X64.180 Y36.280 E0.8976
G1 X64.866 Y36.280 E0.9249
G1 X60.220 Y31.634 E1.1872
G1 X60.220 Y30.948 E1.2146
G1 X65.552 Y36.280 E1.5155
G1 X66.238 Y36.280 E1.5429
G1 X60.220 Y30.262 E1.8825
G1 X60.220 Y29.577 E1.9099
G1 X66.923 Y36.280 E2.2883
G1 X67.609 Y36.280 E2.3156
G1 X60.220 Y28.891 E2.7327
G1 X60.220 Y28.205 E2.7601
G1 X68.295 Y36.280 E3.2158
G1 X68.980 Y36.280 E3.2432
G1 X60.220 Y27.520 E3.7377
G1 X60.220 Y26.834 E3.7650
G1 X69.666 Y36.280 E4.2982
G1 X70.352 Y36.280 E4.3256
G1 X60.220 Y26.148 E4.8974
G1 X60.220 Y25.463 E4.9248
G1 X71.037 Y36.280 E5.5354
G1 X71.723 Y36.280 E5.5627
G1 X60.220 Y24.777 E6.2120
G1 X60.220 Y24.091 E6.2394
G1 X72.409 Y36.280 E6.9274
G1 X73.094 Y36.280 E6.9547
G1 X60.220 Y23.406 E7.6814
G1 X60.220 Y22.720 E7.7088
G1 X73.780 Y36.280 E8.4742
G1 X73.780 Y35.594 E8.5015
G1 X60.906 Y22.720 E9.2282
G1 X61.591 Y22.720 E9.2556
G1 X73.780 Y34.909 E9.9436
G1 X73.780 Y34.223 E9.9709
G1 X62.277 Y22.720 E10.6202
G1 X62.963 Y22.720 E10.6476
G1 X73.780 Y33.537 E11.2581
G1 X73.780 Y32.852 E11.2855
G1 X63.648 Y22.720 E11.8574
G1 X64.334 Y22.720 E11.8847
G1 X73.780 Y32.166 E12.4179
G1 X73.780 Y31.480 E12.4453
G1 X65.020 Y22.720 E12.9397
G1 X65.705 Y22.720 E12.9671
G1 X73.780 Y30.795 E13.4229
G1 X73.780 Y30.109 E13.4502
G1 X66.391 Y22.720 E13.8673
G1 X67.077 Y22.720 E13.8947
G1 X73.780 Y29.423 E14.2730
G1 X73.780 Y28.738 E14.3004
G1 X67.762 Y22.720 E14.6401
G1 X68.448 Y22.720 E14.6674
G1 X73.780 Y28.052 E14.9684
G1 X73.780 Y27.366 E14.9957
G1 X69.134 Y22.720 E15.2580
G1 X69.820 Y22.720 E15.2854
G1 X73.780 Y26.680 E15.5089
G1 X73.780 Y25.995 E15.5363
G1 X70.505 Y22.720 E15.7211
G1 X71.191 Y22.720 E15.7485
G1 X73.780 Y25.309 E15.8946
G1 X73.780 Y24.623 E15.9220
G1 X71.877 Y22.720 E16.0294
G1 X72.562 Y22.720 E16.0568
G1 X73.780 Y23.938 E16.1255
G1 X73.780 Y23.252 E16.1529
G1 X73.248 Y22.720 E16.1829
G92 E0
M400
M42 P7 S0 ;turns UV off
G1 E-1.0000 F1800
; layer 3, Z = 0.600
; outer perimeter
G1 X74.260 Y22.240 F4800
G1 Z0.600 F1000
G1 E0.0000 F1800
G92 E0
M400
M42 P7 S255 ;turns UV on
G1 X74.260 Y36.760 E0.5795 F900
G1 X59.740 Y36.760 E1.1590
G1 X59.740 Y22.240 E1.7386
G1 X74.260 Y22.240 E2.3181
; infill
M400
M42 P7 S0 ;turns UV off
G1 X73.780 Y35.748 F4800
G92 E0
M400
M42 P7 S255 ;turns UV on
G1 X73.248 Y36.280 E0.0300 F1800
G1 X72.562 Y36.280 E0.0574
G1 X73.780 Y35.062 E0.1261
G1 X73.780 Y34.377 E0.1535
G1 X71.877 Y36.280 E0.2609
G1 X71.191 Y36.280 E0.2883
G1 X73.780 Y33.691 E0.4344
G1 X73.780 Y33.005 E0.4618
G1 X70.505 Y36.280 E0.6467
G1 X69.820 Y36.280 E0.6740
G1 X73.780 Y32.320 E0.8976
G1 X73.780 Y31.634 E0.9249
G1 X69.134 Y36.280 E1.1872
G1 X68.448 Y36.280 E1.2145
G1 X73.780 Y30.948 E1.5155
G1 X73.780 Y30.263 E1.5429
G1 X67.763 Y36.280 E1.8825
G1 X67.077 Y36.280 E1.9099
G1 X73.780 Y29.577 E2.2882
G1 X73.780 Y28.891 E2.3156
G1 X66.391 Y36.280 E2.7327
G1 X65.705 Y36.280 E2.7600
G1 X73.780 Y28.205 E3.2158
G1 X73.780 Y27.520 E3.2432
G1 X65.020 Y36.280 E3.7376
G1 X64.334 Y36.280 E3.7650
G1 X73.780 Y26.834 E4.2982
G1 X73.780 Y26.148 E4.3255
G1 X63.648 Y36.280 E4.8974
G1 X62.963 Y36.280 E4.9248
G1 X73.780 Y25.463 E5.5353
G1 X73.780 Y24.777 E5.5627
G1 X62.277 Y36.280 E6.2120
G1 X61.591 Y36.280 E6.2393
G1 X73.780 Y24.091 E6.9273
G1 X73.780 Y23.406 E6.9547
G1 X60.906 Y36.280 E7.6814
G1 X60.220 Y36.280 E7.7087
G1 X73.780 Y22.720 E8.4741
G1 X73.094 Y22.720 E8.5015
G1 X60.220 Y35.594 E9.2282
G1 X60.220 Y34.909 E9.2555
G1 X72.409 Y22.720 E9.9435
G1 X71.723 Y22.720 E9.9709
G1 X60.220 Y34.223 E10.6202
G1 X60.220 Y33.537 E10.6475
G1 X71.037 Y22.720 E11.2581
G1 X70.352 Y22.720 E11.2855
G1 X60.220 Y32.852 E11.8573
G1 X60.220 Y32.166 E11.8847
G1 X69.666 Y22.720 E12.4179
G1 X68.980 Y22.720 E12.4452
G1 X60.220 Y31.480 E12.9397
G1 X60.220 Y30.795 E12.9671
G1 X68.295 Y22.720 E13.4228
G1 X67.609 Y22.720 E13.4502
G1 X60.220 Y30.109 E13.8673
G1 X60.220 Y29.423 E13.8946
G1 X66.923 Y22.720 E14.2730
G1 X66.238 Y22.720 E14.3004
G1 X60.220 Y28.738 E14.6400
G1 X60.220 Y28.052 E14.6674
G1 X65.552 Y22.720 E14.9683
G1 X64.866 Y22.720 E14.9957
G1 X60.220 Y27.366 E15.2580
G1 X60.220 Y26.681 E15.2853
G1 X64.181 Y22.720 E15.5089
G1 X63.495 Y22.720 E15.5363
G1 X60.220 Y25.995 E15.7211
G1 X60.220 Y25.309 E15.7485
G1 X62.809 Y22.720 E15.8946
G1 X62.123 Y22.720 E15.9220
G1 X60.220 Y24.623 E16.0294
G1 X60.220 Y23.938 E16.0568
G1 X61.438 Y22.720 E16.1255
G1 X60.752 Y22.720 E16.1529
G1 X60.220 Y23.252 E16.1829
G92 E0
M400
M42 P7 S0 ;turns UV off
G1 E-1.0000 F1800
; layer 4, Z = 0.800
; outer perimeter
G1 X59.740 Y22.240 F4800
G1 Z0.800 F1000
G1 E0.0000 F1800
G92 E0
M400
M42 P7 S255 ;turns UV on
G1 X74.260 Y22.240 E0.5795 F900
G1 X74.260 Y36.760 E1.1590
G1 X59.740 Y36.760 E1.7386
G1 X59.740 Y22.240 E2.3181
; infill
M400
M42 P7 S0 ;turns UV off
G1 X73.248 Y22.720 F4800
G92 E0
M400
M42 P7 S255 ;turns UV on
G1 X73.780 Y23.252 E0.0300 F1800
G1 X73.780 Y23.938 E0.0574
G1 X72.562 Y22.720 E0.1261
G1 X71.877 Y22.720 E0.1535
G1 X73.780 Y24.623 E0.2609
G1 X73.780 Y25.309 E0.2883
G1 X71.191 Y22.720 E0.4345
G1 X70.505 Y22.720 E0.4618
G1 X73.780 Y25.995 E0.6467
G1 X73.780 Y26.680 E0.6740
G1 X69.820 Y22.720 E0.8976
G1 X69.134 Y22.720 E0.9249
G1 X73.780 Y27.366 E1.1872
G1 X73.780 Y28.052 E1.2146
G1 X68.448 Y22.720 E1.5155
G1 X67.762 Y22.720 E1.5429
G1 X73.780 Y28.738 E1.8825
G1 X73.780 Y29.423 E1.9099
G1 X67.077 Y22.720 E2.2883
G1 X66.391 Y22.720 E2.3156
G1 X73.780 Y30.109 E2.7327
G1 X73.780 Y30.795 E2.7601
G1 X65.705 Y22.720 E3.2158
G1 X65.020 Y22.720 E3.2432
G1 X73.780 Y31.480 E3.7377
G1 X73.780 Y32.166 E3.7650
G1 X64.334 Y22.720 E4.2982
G1 X63.648 Y22.720 E4.3256
G1 X73.780 Y32.852 E4.8974
G1 X73.780 Y33.537 E4.9248
G1 X62.963 Y22.720 E5.5354
G1 X62.277 Y22.720 E5.5627
G1 X73.780 Y34.223 E6.2120
G1 X73.780 Y34.909 E6.2394
G1 X61.591 Y22.720 E6.9274
G1 X60.906 Y22.720 E6.9547
G1 X73.780 Y35.594 E7.6814
G1 X73.780 Y36.280 E7.7088
G1 X60.220 Y22.720 E8.4742
G1 X60.220 Y23.406 E8.5015
G1 X73.094 Y36.280 E9.2282
G1 X72.409 Y36.280 E9.2556
G1 X60.220 Y24.091 E9.9436
G1 X60.220 Y24.777 E9.9709
G1 X71.723 Y36.280 E10.6202
G1 X71.037 Y36.280 E10.6476
G1 X60.220 Y25.463 E11.2581
G1 X60.220 Y26.148 E11.2855
G1 X70.352 Y36.280 E11.8574
G1 X69.666 Y36.280 E11.8847
G1 X60.220 Y26.834 E12.4179
G1 X60.220 Y27.520 E12.4453
G1 X68.980 Y36.280 E12.9397
G1 X68.295 Y36.280 E12.9671
G1 X60.220 Y28.205 E13.4229
G1 X60.220 Y28.891 E13.4502
G1 X67.609 Y36.280 E13.8673
G1 X66.923 Y36.280 E13.8947
G1 X60.220 Y29.577 E14.2730
G1 X60.220 Y30.262 E14.3004
G1 X66.238 Y36.280 E14.6401
G1 X65.552 Y36.280 E14.6674
G1 X60.220 Y30.948 E14.9684
G1 X60.220 Y31.634 E14.9957
G1 X64.866 Y36.280 E15.2580
G1 X64.180 Y36.280 E15.2854
G1 X60.220 Y32.320 E15.5089
G1 X60.220 Y33.005 E15.5363
G1 X63.495 Y36.280 E15.7211
