; G-Code generated by Simplify3D(R) Version 4.0.0
; Nov 13, 2019 at 11:54:17 AM
; Settings Summary
;   processName,Process1
;   applyToModels,strand_15x15x1
;   profileName,Hybrid_111319
;   profileVersion,2019-09-23 11:25:10
;   baseProfile,Default (modified)
;   printMaterial,PLA
;   printQuality,Medium
;   printExtruders,
;   extruderName,VAP 1
;   extruderToolheadNumber,0
;   extruderDiameter,0.6
;   extruderAutoWidth,0
;   extruderWidth,0.6
;   extrusionMultiplier,1
;   extruderUseRetract,1
;   extruderRetractionDistance,1
;   extruderExtraRestartDistance,0
;   extruderRetractionZLift,0
;   extruderRetractionSpeed,1800
;   extruderUseCoasting,0
;   extruderCoastingDistance,0.2
;   extruderUseWipe,0
;   extruderWipeDistance,5
;   primaryExtruder,0
;   layerHeight,0.3
;   topSolidLayers,0
;   bottomSolidLayers,0
;   perimeterOutlines,1
;   printPerimetersInsideOut,1
;   startPointOption,2
;   startPointOriginX,0
;   startPointOriginY,0
;   sequentialIslands,0
;   spiralVaseMode,0
;   firstLayerHeightPercentage,100
;   firstLayerWidthPercentage,100
;   firstLayerUnderspeed,1
;   useRaft,0
;   raftExtruder,0
;   raftTopLayers,3
;   raftBaseLayers,2
;   raftOffset,3
;   raftSeparationDistance,0.14
;   raftTopInfill,100
;   aboveRaftSpeedMultiplier,0.3
;   useSkirt,0
;   skirtExtruder,0
;   skirtLayers,1
;   skirtOutlines,1
;   skirtOffset,5
;   usePrimePillar,0
;   primePillarExtruder,999
;   primePillarWidth,12
;   primePillarLocation,7
;   primePillarSpeedMultiplier,1
;   useOozeShield,0
;   oozeShieldExtruder,999
;   oozeShieldOffset,2
;   oozeShieldOutlines,1
;   oozeShieldSidewallShape,1
;   oozeShieldSidewallAngle,30
;   oozeShieldSpeedMultiplier,1
;   infillExtruder,0
;   internalInfillPattern,Rectilinear
;   externalInfillPattern,Rectilinear
;   infillPercentage,99
;   outlineOverlapPercentage,0
;   infillExtrusionWidthPercentage,100
;   minInfillLength,5
;   infillLayerInterval,1
;   internalInfillAngles,45,-45
;   overlapInternalInfillAngles,0
;   externalInfillAngles,45,-45
;   generateSupport,0
;   supportExtruder,0
;   supportInfillPercentage,30
;   supportExtraInflation,0
;   supportBaseLayers,0
;   denseSupportExtruder,0
;   denseSupportLayers,0
;   denseSupportInfillPercentage,70
;   supportLayerInterval,1
;   supportHorizontalPartOffset,0.3
;   supportUpperSeparationLayers,1
;   supportLowerSeparationLayers,1
;   supportType,0
;   supportGridSpacing,4
;   maxOverhangAngle,45
;   supportAngles,0
;   temperatureName,VAP 1
;   temperatureNumber,0
;   temperatureSetpointCount,1
;   temperatureSetpointLayers,1
;   temperatureSetpointTemperatures,0
;   temperatureStabilizeAtStartup,1
;   temperatureHeatedBed,0
;   temperatureRelayBetweenLayers,0
;   temperatureRelayBetweenLoops,0
;   fanLayers,1,2
;   fanSpeeds,0,100
;   blipFanToFullPower,0
;   adjustSpeedForCooling,1
;   minSpeedLayerTime,15
;   minCoolingSpeedSlowdown,20
;   increaseFanForCooling,0
;   minFanLayerTime,45
;   maxCoolingFanSpeed,100
;   increaseFanForBridging,0
;   bridgingFanSpeed,100
;   use5D,1
;   relativeEdistances,0
;   allowEaxisZeroing,1
;   independentExtruderAxes,0
;   includeM10123,0
;   stickySupport,1
;   applyToolheadOffsets,1
;   gcodeXoffset,0
;   gcodeYoffset,0
;   gcodeZoffset,0
;   overrideMachineDefinition,1
;   machineTypeOverride,0
;   strokeXoverride,135
;   strokeYoverride,300
;   strokeZoverride,300
;   originOffsetXoverride,0
;   originOffsetYoverride,0
;   originOffsetZoverride,0
;   homeXdirOverride,-1
;   homeYdirOverride,-1
;   homeZdirOverride,-1
;   flipXoverride,1
;   flipYoverride,-1
;   flipZoverride,1
;   toolheadOffsets,0,0|-41.5,-128.5|0,0|0,0|0,0|0,0
;   overrideFirmwareConfiguration,0
;   firmwareTypeOverride,RepRap (Marlin/Repetier/Sprinter)
;   GPXconfigOverride,r2
;   baudRateOverride,115200
;   overridePrinterModels,0
;   printerModelsOverride
;   startingGcode,
;   layerChangeGcode,
;   retractionGcode,
;   toolChangeGcode,G1 X0 Y0;
;   endingGcode,M104 S0 ; turn off extruder,M140 S0 ; turn off bed,M84 ; disable motors
;   exportFileFormat,gcode
;   celebration,0
;   celebrationSong,Random Song
;   postProcessing,
;   defaultSpeed,500
;   outlineUnderspeed,0.5
;   solidInfillUnderspeed,0.8
;   supportUnderspeed,0.8
;   rapidXYspeed,4800
;   rapidZspeed,1000
;   minBridgingArea,50
;   bridgingExtraInflation,0
;   bridgingExtrusionMultiplier,1
;   bridgingSpeedMultiplier,1
;   useFixedBridgingAngle,0
;   fixedBridgingAngle,0
;   applyBridgingToPerimeters,0
;   filamentDiameters,1.75|1.75|1.75|1.75|1.75|1.75
;   filamentPricesPerKg,46|46|46|46|46|46
;   filamentDensities,2|1.25|1.25|1.25|1.25|1.25
;   useMinPrintHeight,0
;   minPrintHeight,0
;   useMaxPrintHeight,0
;   maxPrintHeight,0
;   useDiaphragm,0
;   diaphragmLayerInterval,20
;   robustSlicing,1
;   mergeAllIntoSolid,0
;   onlyRetractWhenCrossingOutline,1
;   retractBetweenLayers,1
;   useRetractionMinTravel,0
;   retractionMinTravel,3
;   retractWhileWiping,0
;   onlyWipeOutlines,1
;   avoidCrossingOutline,0
;   maxMovementDetourFactor,3
;   toolChangeRetractionDistance,12
;   toolChangeExtraRestartDistance,-0.5
;   toolChangeRetractionSpeed,600
;   externalThinWallType,0
;   internalThinWallType,2
;   thinWallAllowedOverlapPercentage,10
;   singleExtrusionMinLength,1
;   singleExtrusionMinPrintingWidthPercentage,50
;   singleExtrusionMaxPrintingWidthPercentage,200
;   singleExtrusionEndpointExtension,0.2
;   horizontalSizeCompensation,0
G90
M82
M106 S0
M104 S0 T0
G92 E0
G1 E-1.0000 F1800
G1 Z0.200 F1000
; process Process2
; layer 1, Z = 0.200
M104 S220 T1
T1
; tool H0.200 W0.480
; outer perimeter
G1 X48.740 Y22.240 F4800
G1 E0.0000 F540
G92 E0
M400
M42 P7 S255 ;turns UV on
G1 X63.260 Y22.240 E1.1590 F900
G1 X63.260 Y36.760 E2.3181
G1 X48.740 Y36.760 E3.4771
G1 X48.740 Y22.240 E4.6362
; solid layer
M400
M42 P7 S0 ;turns UV off
G1 X62.118 Y22.720 F4800
G92 E0
M400
M42 P7 S255 ;turns UV on
G1 X62.780 Y23.382 E0.0748 F1440
G1 X62.780 Y24.061 E0.1290
G1 X61.439 Y22.720 E0.2804
G1 X60.760 Y22.720 E0.3346
G1 X62.780 Y24.740 E0.5626
G1 X62.780 Y25.419 E0.6168
G1 X60.081 Y22.720 E0.9214
G1 X59.402 Y22.720 E0.9756
G1 X62.780 Y26.098 E1.3569
G1 X62.780 Y26.776 E1.4111
G1 X58.724 Y22.720 E1.8690
G1 X58.045 Y22.720 E1.9232
G1 X62.780 Y27.455 E2.4578
G1 X62.780 Y28.134 E2.5120
G1 X57.366 Y22.720 E3.1232
G1 X56.687 Y22.720 E3.1774
G1 X62.780 Y28.813 E3.8652
G1 X62.780 Y29.492 E3.9194
G1 X56.008 Y22.720 E4.6838
G1 X55.329 Y22.720 E4.7380
G1 X62.780 Y30.171 E5.5791
G1 X62.780 Y30.849 E5.6333
G1 X54.651 Y22.720 E6.5510
G1 X53.972 Y22.720 E6.6052
G1 X62.780 Y31.528 E7.5995
G1 X62.780 Y32.207 E7.6537
G1 X53.293 Y22.720 E8.7247
G1 X52.614 Y22.720 E8.7789
G1 X62.780 Y32.886 E9.9265
G1 X62.780 Y33.565 E9.9807
G1 X51.935 Y22.720 E11.2049
G1 X51.256 Y22.720 E11.2591
G1 X62.780 Y34.244 E12.5600
G1 X62.780 Y34.922 E12.6142
G1 X50.578 Y22.720 E13.9917
G1 X49.899 Y22.720 E14.0459
G1 X62.780 Y35.601 E15.5000
G1 X62.780 Y36.280 E15.5542
G1 X49.220 Y22.720 E17.0850
G1 X49.220 Y23.399 E17.1392
G1 X62.101 Y36.280 E18.5933
G1 X61.422 Y36.280 E18.6475
G1 X49.220 Y24.078 E20.0250
G1 X49.220 Y24.756 E20.0792
G1 X60.744 Y36.280 E21.3801
G1 X60.065 Y36.280 E21.4342
G1 X49.220 Y25.435 E22.6585
G1 X49.220 Y26.114 E22.7127
G1 X59.386 Y36.280 E23.8603
G1 X58.707 Y36.280 E23.9145
G1 X49.220 Y26.793 E24.9855
G1 X49.220 Y27.472 E25.0396
G1 X58.028 Y36.280 E26.0340
G1 X57.349 Y36.280 E26.0882
G1 X49.220 Y28.151 E27.0059
G1 X49.220 Y28.829 E27.0601
G1 X56.671 Y36.280 E27.9012
G1 X55.992 Y36.280 E27.9554
G1 X49.220 Y29.508 E28.7198
G1 X49.220 Y30.187 E28.7740
G1 X55.313 Y36.280 E29.4618
G1 X54.634 Y36.280 E29.5160
G1 X49.220 Y30.866 E30.1272
G1 X49.220 Y31.545 E30.1814
G1 X53.955 Y36.280 E30.7160
G1 X53.276 Y36.280 E30.7702
G1 X49.220 Y32.224 E31.2281
G1 X49.220 Y32.902 E31.2823
G1 X52.598 Y36.280 E31.6636
G1 X51.919 Y36.280 E31.7178
G1 X49.220 Y33.581 E32.0224
G1 X49.220 Y34.260 E32.0766
G1 X51.240 Y36.280 E32.3046
G1 X50.561 Y36.280 E32.3588
G1 X49.220 Y34.939 E32.5102
G1 X49.220 Y35.618 E32.5644
G1 X49.882 Y36.280 E32.6392
G92 E0
M400
M42 P7 S0 ;turns UV off
G1 E-1.0000 F1800
; layer 2, Z = 0.400
M106 S255
; outer perimeter
G1 X48.740 Y36.760 F4800
G1 Z0.400 F1000
G1 E0.0000 F1800
G92 E0
M400
M42 P7 S255 ;turns UV on
G1 X48.740 Y22.240 E1.1590 F900
G1 X63.260 Y22.240 E2.3181
G1 X63.260 Y36.760 E3.4771
G1 X48.740 Y36.760 E4.6362
; infill
M400
M42 P7 S0 ;turns UV off
G1 X49.752 Y36.280 F4800
G92 E0
M400
M42 P7 S255 ;turns UV on
G1 X49.220 Y35.748 E0.0601 F1800
G1 X49.220 Y35.062 E0.1148
G1 X50.438 Y36.280 E0.2523
G1 X51.123 Y36.280 E0.3070
G1 X49.220 Y34.377 E0.5219
G1 X49.220 Y33.691 E0.5766
G1 X51.809 Y36.280 E0.8689
G1 X52.495 Y36.280 E0.9236
G1 X49.220 Y33.005 E1.2933
G1 X49.220 Y32.320 E1.3481
G1 X53.180 Y36.280 E1.7952
G1 X53.866 Y36.280 E1.8499
G1 X49.220 Y31.634 E2.3744
G1 X49.220 Y30.948 E2.4291
G1 X54.552 Y36.280 E3.0310
G1 X55.238 Y36.280 E3.0858
G1 X49.220 Y30.262 E3.7651
G1 X49.220 Y29.577 E3.8198
G1 X55.923 Y36.280 E4.5765
G1 X56.609 Y36.280 E4.6313
G1 X49.220 Y28.891 E5.4654
G1 X49.220 Y28.205 E5.5201
G1 X57.295 Y36.280 E6.4316
G1 X57.980 Y36.280 E6.4864
G1 X49.220 Y27.520 E7.4753
G1 X49.220 Y26.834 E7.5300
G1 X58.666 Y36.280 E8.5964
G1 X59.352 Y36.280 E8.6511
G1 X49.220 Y26.148 E9.7949
G1 X49.220 Y25.463 E9.8496
G1 X60.037 Y36.280 E11.0707
G1 X60.723 Y36.280 E11.1255
G1 X49.220 Y24.777 E12.4240
G1 X49.220 Y24.091 E12.4788
G1 X61.409 Y36.280 E13.8547
G1 X62.094 Y36.280 E13.9095
G1 X49.220 Y23.406 E15.3628
G1 X49.220 Y22.720 E15.4176
G1 X62.780 Y36.280 E16.9483
G1 X62.780 Y35.594 E17.0031
G1 X49.906 Y22.720 E18.4564
G1 X50.591 Y22.720 E18.5112
G1 X62.780 Y34.909 E19.8871
G1 X62.780 Y34.223 E19.9418
G1 X51.277 Y22.720 E21.2404
G1 X51.963 Y22.720 E21.2951
G1 X62.780 Y33.537 E22.5163
G1 X62.780 Y32.852 E22.5710
G1 X52.648 Y22.720 E23.7148
G1 X53.334 Y22.720 E23.7695
G1 X62.780 Y32.166 E24.8358
G1 X62.780 Y31.480 E24.8906
G1 X54.020 Y22.720 E25.8795
G1 X54.705 Y22.720 E25.9342
G1 X62.780 Y30.795 E26.8458
G1 X62.780 Y30.109 E26.9005
G1 X55.391 Y22.720 E27.7346
G1 X56.077 Y22.720 E27.7893
G1 X62.780 Y29.423 E28.5461
G1 X62.780 Y28.738 E28.6008
G1 X56.762 Y22.720 E29.2801
G1 X57.448 Y22.720 E29.3348
G1 X62.780 Y28.052 E29.9367
G1 X62.780 Y27.366 E29.9915
G1 X58.134 Y22.720 E30.5160
G1 X58.820 Y22.720 E30.5707
G1 X62.780 Y26.680 E31.0178
G1 X62.780 Y25.995 E31.0725
G1 X59.505 Y22.720 E31.4422
G1 X60.191 Y22.720 E31.4970
G1 X62.780 Y25.309 E31.7892
G1 X62.780 Y24.623 E31.8440
G1 X60.877 Y22.720 E32.0589
G1 X61.562 Y22.720 E32.1136
G1 X62.780 Y23.938 E32.2511
G1 X62.780 Y23.252 E32.3058
G1 X62.248 Y22.720 E32.3659
G92 E0
M400
M42 P7 S0 ;turns UV off
G1 E-1.0000 F1800
; layer 3, Z = 0.600
; outer perimeter
G1 X63.260 Y22.240 F4800
G1 Z0.600 F1000
G1 E0.0000 F1800
G92 E0
M400
M42 P7 S255 ;turns UV on
G1 X63.260 Y36.760 E1.1590 F900
G1 X48.740 Y36.760 E2.3181
G1 X48.740 Y22.240 E3.4771
G1 X63.260 Y22.240 E4.6362
; infill
M400
M42 P7 S0 ;turns UV off
G1 X62.780 Y35.748 F4800
G92 E0
M400
M42 P7 S255 ;turns UV on
G1 X62.248 Y36.280 E0.0601 F1800
G1 X61.562 Y36.280 E0.1148
G1 X62.780 Y35.062 E0.2523
G1 X62.780 Y34.377 E0.3070
G1 X60.877 Y36.280 E0.5219
G1 X60.191 Y36.280 E0.5766
G1 X62.780 Y33.691 E0.8689
G1 X62.780 Y33.005 E0.9236
G1 X59.505 Y36.280 E1.2933
G1 X58.820 Y36.280 E1.3480
G1 X62.780 Y32.320 E1.7951
G1 X62.780 Y31.634 E1.8499
G1 X58.134 Y36.280 E2.3744
G1 X57.448 Y36.280 E2.4291
G1 X62.780 Y30.948 E3.0310
G1 X62.780 Y30.263 E3.0857
G1 X56.763 Y36.280 E3.7650
G1 X56.077 Y36.280 E3.8198
G1 X62.780 Y29.577 E4.5765
G1 X62.780 Y28.891 E4.6312
G1 X55.391 Y36.280 E5.4653
G1 X54.705 Y36.280 E5.5201
G1 X62.780 Y28.205 E6.4316
G1 X62.780 Y27.520 E6.4863
G1 X54.020 Y36.280 E7.4752
G1 X53.334 Y36.280 E7.5300
G1 X62.780 Y26.834 E8.5963
G1 X62.780 Y26.148 E8.6510
G1 X52.648 Y36.280 E9.7948
G1 X51.963 Y36.280 E9.8495
G1 X62.780 Y25.463 E11.0707
G1 X62.780 Y24.777 E11.1254
G1 X51.277 Y36.280 E12.4239
G1 X50.591 Y36.280 E12.4787
G1 X62.780 Y24.091 E13.8546
G1 X62.780 Y23.406 E13.9094
G1 X49.906 Y36.280 E15.3627
G1 X49.220 Y36.280 E15.4175
G1 X62.780 Y22.720 E16.9482
G1 X62.094 Y22.720 E17.0029
G1 X49.220 Y35.594 E18.4563
G1 X49.220 Y34.909 E18.5111
G1 X61.409 Y22.720 E19.8870
G1 X60.723 Y22.720 E19.9417
G1 X49.220 Y34.223 E21.2403
G1 X49.220 Y33.537 E21.2950
G1 X60.037 Y22.720 E22.5162
G1 X59.352 Y22.720 E22.5709
G1 X49.220 Y32.852 E23.7147
G1 X49.220 Y32.166 E23.7694
G1 X58.666 Y22.720 E24.8358
G1 X57.980 Y22.720 E24.8905
G1 X49.220 Y31.480 E25.8794
G1 X49.220 Y30.795 E25.9342
G1 X57.295 Y22.720 E26.8457
G1 X56.609 Y22.720 E26.9004
G1 X49.220 Y30.109 E27.7345
G1 X49.220 Y29.423 E27.7893
G1 X55.923 Y22.720 E28.5460
G1 X55.238 Y22.720 E28.6007
G1 X49.220 Y28.738 E29.2801
G1 X49.220 Y28.052 E29.3348
G1 X54.552 Y22.720 E29.9367
G1 X53.866 Y22.720 E29.9914
G1 X49.220 Y27.366 E30.5159
G1 X49.220 Y26.681 E30.5707
G1 X53.181 Y22.720 E31.0178
G1 X52.495 Y22.720 E31.0725
G1 X49.220 Y25.995 E31.4422
G1 X49.220 Y25.309 E31.4969
G1 X51.809 Y22.720 E31.7892
G1 X51.123 Y22.720 E31.8440
G1 X49.220 Y24.623 E32.0588
G1 X49.220 Y23.938 E32.1136
G1 X50.438 Y22.720 E32.2510
G1 X49.752 Y22.720 E32.3058
G1 X49.220 Y23.252 E32.3659
G92 E0
M400
M42 P7 S0 ;turns UV off
G1 E-1.0000 F1800
; layer 4, Z = 0.800
; outer perimeter
G1 X48.740 Y22.240 F4800
G1 Z0.800 F1000
G1 E0.0000 F1800
G92 E0
M400
M42 P7 S255 ;turns UV on
G1 X63.260 Y22.240 E1.1590 F900
G1 X63.260 Y36.760 E2.3181
G1 X48.740 Y36.760 E3.4771
G1 X48.740 Y22.240 E4.6362
; infill
M400
M42 P7 S0 ;turns UV off
G1 X62.248 Y22.720 F4800
G92 E0
M400
M42 P7 S255 ;turns UV on
G1 X62.780 Y23.252 E0.0601 F1800
G1 X62.780 Y23.938 E0.1148
G1 X61.562 Y22.720 E0.2523
G1 X60.877 Y22.720 E0.3070
G1 X62.780 Y24.623 E0.5219
G1 X62.780 Y25.309 E0.5766
G1 X60.191 Y22.720 E0.8689
G1 X59.505 Y22.720 E0.9236
G1 X62.780 Y25.995 E1.2933
G1 X62.780 Y26.680 E1.3481
G1 X58.820 Y22.720 E1.7952
G1 X58.134 Y22.720 E1.8499
G1 X62.780 Y27.366 E2.3744
G1 X62.780 Y28.052 E2.4291
G1 X57.448 Y22.720 E3.0310
G1 X56.762 Y22.720 E3.0858
G1 X62.780 Y28.738 E3.7651
G1 X62.780 Y29.423 E3.8198
G1 X56.077 Y22.720 E4.5765
G1 X55.391 Y22.720 E4.6313
G1 X62.780 Y30.109 E5.4654
G1 X62.780 Y30.795 E5.5201
G1 X54.705 Y22.720 E6.4316
G1 X54.020 Y22.720 E6.4864
G1 X62.780 Y31.480 E7.4753
G1 X62.780 Y32.166 E7.5300
G1 X53.334 Y22.720 E8.5964
G1 X52.648 Y22.720 E8.6511
G1 X62.780 Y32.852 E9.7948
G1 X62.780 Y33.537 E9.8496
G1 X51.963 Y22.720 E11.0707
G1 X51.277 Y22.720 E11.1255
G1 X62.780 Y34.223 E12.4240
G1 X62.780 Y34.909 E12.4788
G1 X50.591 Y22.720 E13.8547
G1 X49.906 Y22.720 E13.9094
G1 X62.780 Y35.594 E15.3628
G1 X62.780 Y36.280 E15.4175
G1 X49.220 Y22.720 E16.9483
G1 X49.220 Y23.406 E17.0030
G1 X62.094 Y36.280 E18.4564
G1 X61.409 Y36.280 E18.5111
G1 X49.220 Y24.091 E19.8871
G1 X49.220 Y24.777 E19.9418
G1 X60.723 Y36.280 E21.2404
G1 X60.037 Y36.280 E21.2951
G1 X49.220 Y25.463 E22.5163
G1 X49.220 Y26.148 E22.5710
G1 X59.352 Y36.280 E23.7148
G1 X58.666 Y36.280 E23.7695
G1 X49.220 Y26.834 E24.8358
G1 X49.220 Y27.520 E24.8906
G1 X57.980 Y36.280 E25.8795
G1 X57.295 Y36.280 E25.9342
G1 X49.220 Y28.205 E26.8458
G1 X49.220 Y28.891 E26.9005
G1 X56.609 Y36.280 E27.7346
G1 X55.923 Y36.280 E27.7893
G1 X49.220 Y29.577 E28.5461
G1 X49.220 Y30.262 E28.6008
G1 X55.238 Y36.280 E29.2801
G1 X54.552 Y36.280 E29.3348
G1 X49.220 Y30.948 E29.9367
G1 X49.220 Y31.634 E29.9915
G1 X53.866 Y36.280 E30.5160
G1 X53.180 Y36.280 E30.5707
G1 X49.220 Y32.320 E31.0178
G1 X49.220 Y33.005 E31.0725
G1 X52.495 Y36.280 E31.4422
