; G-Code generated by Simplify3D(R) Version 4.0.0
; Jul 17, 2019 at 8:09:40 AM
; Settings Summary
;   processName,Process1
;   applyToModels,hollow-5mm
;   profileName,Hybrid_1stPrint (modified)
;   profileVersion,2017-03-01 08:00:00
;   baseProfile,Default (modified)
;   printMaterial,PLA
;   printQuality,Medium
;   printExtruders,
;   extruderName,VAP Head,FDM Head
;   extruderToolheadNumber,1,0
;   extruderDiameter,0.35,0.5
;   extruderAutoWidth,0,0
;   extruderWidth,0.4,0.4
;   extrusionMultiplier,0.9,1
;   extruderUseRetract,1,1
;   extruderRetractionDistance,1,1
;   extruderExtraRestartDistance,0,0
;   extruderRetractionZLift,0,0
;   extruderRetractionSpeed,1800,1800
;   extruderUseCoasting,0,0
;   extruderCoastingDistance,0.2,0.2
;   extruderUseWipe,0,0
;   extruderWipeDistance,5,5
;   primaryExtruder,0
;   layerHeight,0.2
;   topSolidLayers,3
;   bottomSolidLayers,3
;   perimeterOutlines,2
;   printPerimetersInsideOut,1
;   startPointOption,2
;   startPointOriginX,0
;   startPointOriginY,0
;   sequentialIslands,0
;   spiralVaseMode,0
;   firstLayerHeightPercentage,10
;   firstLayerWidthPercentage,100
;   firstLayerUnderspeed,0.5
;   useRaft,0
;   raftExtruder,0
;   raftTopLayers,3
;   raftBaseLayers,2
;   raftOffset,3
;   raftSeparationDistance,0.14
;   raftTopInfill,100
;   aboveRaftSpeedMultiplier,0.3
;   useSkirt,1
;   skirtExtruder,0
;   skirtLayers,1
;   skirtOutlines,2
;   skirtOffset,4
;   usePrimePillar,0
;   primePillarExtruder,999
;   primePillarWidth,12
;   primePillarLocation,7
;   primePillarSpeedMultiplier,1
;   useOozeShield,0
;   oozeShieldExtruder,999
;   oozeShieldOffset,2
;   oozeShieldOutlines,1
;   oozeShieldSidewallShape,1
;   oozeShieldSidewallAngle,30
;   oozeShieldSpeedMultiplier,1
;   infillExtruder,0
;   internalInfillPattern,Rectilinear
;   externalInfillPattern,Rectilinear
;   infillPercentage,10
;   outlineOverlapPercentage,15
;   infillExtrusionWidthPercentage,100
;   minInfillLength,5
;   infillLayerInterval,1
;   internalInfillAngles,45,-45
;   overlapInternalInfillAngles,0
;   externalInfillAngles,45,-45
;   generateSupport,0
;   supportExtruder,0
;   supportInfillPercentage,30
;   supportExtraInflation,0
;   supportBaseLayers,0
;   denseSupportExtruder,0
;   denseSupportLayers,0
;   denseSupportInfillPercentage,70
;   supportLayerInterval,1
;   supportHorizontalPartOffset,0.3
;   supportUpperSeparationLayers,1
;   supportLowerSeparationLayers,1
;   supportType,0
;   supportGridSpacing,4
;   maxOverhangAngle,45
;   supportAngles,0
;   temperatureName,VAP Head,FDM Head
;   temperatureNumber,1,0
;   temperatureSetpointCount,1,1
;   temperatureSetpointLayers,1,1
;   temperatureSetpointTemperatures,0,205
;   temperatureStabilizeAtStartup,1,1
;   temperatureHeatedBed,0,0
;   temperatureRelayBetweenLayers,0,0
;   temperatureRelayBetweenLoops,0,0
;   fanLayers,1,2
;   fanSpeeds,0,100
;   blipFanToFullPower,0
;   adjustSpeedForCooling,1
;   minSpeedLayerTime,15
;   minCoolingSpeedSlowdown,20
;   increaseFanForCooling,0
;   minFanLayerTime,45
;   maxCoolingFanSpeed,100
;   increaseFanForBridging,0
;   bridgingFanSpeed,100
;   use5D,1
;   relativeEdistances,0
;   allowEaxisZeroing,1
;   independentExtruderAxes,0
;   includeM10123,0
;   stickySupport,1
;   applyToolheadOffsets,0
;   gcodeXoffset,0
;   gcodeYoffset,0
;   gcodeZoffset,0
;   overrideMachineDefinition,1
;   machineTypeOverride,0
;   strokeXoverride,135
;   strokeYoverride,300
;   strokeZoverride,300
;   originOffsetXoverride,0
;   originOffsetYoverride,0
;   originOffsetZoverride,0
;   homeXdirOverride,-1
;   homeYdirOverride,-1
;   homeZdirOverride,-1
;   flipXoverride,1
;   flipYoverride,-1
;   flipZoverride,1
;   toolheadOffsets,195,2|0,0|0,0|0,0|0,0|0,0
;   overrideFirmwareConfiguration,0
;   firmwareTypeOverride,RepRap (Marlin/Repetier/Sprinter)
;   GPXconfigOverride,r2
;   baudRateOverride,115200
;   overridePrinterModels,0
;   printerModelsOverride
;   startingGcode,G28 ; home all axes
;   layerChangeGcode,
;   retractionGcode,
;   toolChangeGcode,
;   endingGcode,M104 S0 ; turn off extruder,M140 S0 ; turn off bed,M84 ; disable motors
;   exportFileFormat,gcode
;   celebration,0
;   celebrationSong,Random Song
;   postProcessing,
;   defaultSpeed,3600
;   outlineUnderspeed,0.5
;   solidInfillUnderspeed,0.8
;   supportUnderspeed,0.8
;   rapidXYspeed,4800
;   rapidZspeed,1000
;   minBridgingArea,50
;   bridgingExtraInflation,0
;   bridgingExtrusionMultiplier,1
;   bridgingSpeedMultiplier,1
;   useFixedBridgingAngle,0
;   fixedBridgingAngle,0
;   applyBridgingToPerimeters,0
;   filamentDiameters,1.75|1.75|1.75|1.75|1.75|1.75
;   filamentPricesPerKg,46|46|46|46|46|46
;   filamentDensities,1.25|1.25|1.25|1.25|1.25|1.25
;   useMinPrintHeight,0
;   minPrintHeight,0
;   useMaxPrintHeight,0
;   maxPrintHeight,0
;   useDiaphragm,0
;   diaphragmLayerInterval,20
;   robustSlicing,1
;   mergeAllIntoSolid,0
;   onlyRetractWhenCrossingOutline,1
;   retractBetweenLayers,1
;   useRetractionMinTravel,0
;   retractionMinTravel,3
;   retractWhileWiping,0
;   onlyWipeOutlines,1
;   avoidCrossingOutline,0
;   maxMovementDetourFactor,3
;   toolChangeRetractionDistance,12
;   toolChangeExtraRestartDistance,-0.5
;   toolChangeRetractionSpeed,600
;   externalThinWallType,0
;   internalThinWallType,2
;   thinWallAllowedOverlapPercentage,10
;   singleExtrusionMinLength,1
;   singleExtrusionMinPrintingWidthPercentage,50
;   singleExtrusionMaxPrintingWidthPercentage,200
;   singleExtrusionEndpointExtension,0.2
;   horizontalSizeCompensation,0
G90
M82
M106 S0
M104 S0 T1
M104 S205 T0
M109 S205 T0
G28 ; home all axes
G92 E0
G1 E-1.0000 F1800
G1 Z0.020 F1000
; process Process1
; layer 1, Z = 0.020
T1
; tool H0.200 W0.400
; skirt
G1 X62.478 Y156.290 F4800
G1 E0.0000 F540
G92 E0
G1 X62.709 Y156.208 E0.0074 F1800
G1 X62.726 Y156.202 E0.0079
G1 X64.057 Y155.812 E0.0494
G1 X64.073 Y155.807 E0.0499
G1 X64.313 Y155.752 E0.0573
G1 X64.330 Y155.748 E0.0578
G1 X65.697 Y155.512 E0.0993
G1 X65.714 Y155.509 E0.0998
G1 X65.958 Y155.481 E0.1072
G1 X65.975 Y155.480 E0.1077
G1 X67.360 Y155.400 E0.1492
G1 X67.377 Y155.400 E0.1497
G1 X67.623 Y155.400 E0.1571
G1 X67.640 Y155.400 E0.1576
G1 X69.025 Y155.480 E0.1991
G1 X69.042 Y155.481 E0.1996
G1 X69.286 Y155.509 E0.2070
G1 X69.303 Y155.512 E0.2075
G1 X70.670 Y155.748 E0.2490
G1 X70.687 Y155.752 E0.2496
G1 X70.926 Y155.807 E0.2569
G1 X70.943 Y155.812 E0.2574
G1 X72.274 Y156.202 E0.2990
G1 X72.291 Y156.208 E0.2995
G1 X72.522 Y156.290 E0.3068
G1 X72.538 Y156.297 E0.3073
G1 X73.816 Y156.837 E0.3489
G1 X73.832 Y156.844 E0.3494
G1 X74.052 Y156.952 E0.3567
G1 X74.067 Y156.960 E0.3573
G1 X75.275 Y157.642 E0.3988
G1 X75.290 Y157.651 E0.3993
G1 X75.497 Y157.784 E0.4067
G1 X75.511 Y157.794 E0.4072
G1 X76.633 Y158.609 E0.4487
G1 X76.647 Y158.620 E0.4492
G1 X76.837 Y158.775 E0.4566
G1 X76.850 Y158.787 E0.4571
G1 X77.872 Y159.725 E0.4986
G1 X77.884 Y159.737 E0.4991
G1 X78.056 Y159.913 E0.5065
G1 X78.067 Y159.925 E0.5070
G1 X78.976 Y160.974 E0.5485
G1 X78.987 Y160.987 E0.5490
G1 X79.137 Y161.182 E0.5564
G1 X79.147 Y161.196 E0.5569
G1 X79.930 Y162.341 E0.5984
G1 X79.939 Y162.355 E0.5989
G1 X80.066 Y162.566 E0.6063
G1 X80.075 Y162.581 E0.6068
G1 X80.722 Y163.808 E0.6483
G1 X80.730 Y163.823 E0.6489
G1 X80.832 Y164.047 E0.6562
G1 X80.838 Y164.062 E0.6567
G1 X81.342 Y165.355 E0.6983
G1 X81.347 Y165.372 E0.6988
G1 X81.423 Y165.605 E0.7061
G1 X81.428 Y165.622 E0.7066
G1 X81.781 Y166.963 E0.7482
G1 X81.785 Y166.980 E0.7487
G1 X81.834 Y167.221 E0.7560
G1 X81.837 Y167.238 E0.7566
G1 X82.034 Y168.611 E0.7981
G1 X82.036 Y168.628 E0.7986
G1 X82.057 Y168.873 E0.8060
G1 X82.058 Y168.890 E0.8065
G1 X82.098 Y170.277 E0.8480
G1 X82.098 Y170.294 E0.8485
G1 X82.091 Y170.540 E0.8559
G1 X82.090 Y170.557 E0.8564
G1 X81.971 Y171.939 E0.8979
G1 X81.969 Y171.956 E0.8984
G1 X81.934 Y172.199 E0.9058
G1 X81.931 Y172.216 E0.9063
G1 X81.655 Y173.576 E0.9478
G1 X81.652 Y173.593 E0.9483
G1 X81.589 Y173.830 E0.9557
G1 X81.584 Y173.847 E0.9562
G1 X81.156 Y175.166 E0.9977
G1 X81.150 Y175.183 E0.9982
G1 X81.061 Y175.411 E1.0056
G1 X81.054 Y175.427 E1.0061
G1 X80.478 Y176.689 E1.0476
G1 X80.470 Y176.705 E1.0482
G1 X80.355 Y176.922 E1.0555
G1 X80.347 Y176.937 E1.0560
G1 X79.630 Y178.125 E1.0976
G1 X79.621 Y178.139 E1.0981
G1 X79.483 Y178.342 E1.1054
G1 X79.472 Y178.356 E1.1059
G1 X78.625 Y179.455 E1.1475
G1 X78.614 Y179.468 E1.1480
G1 X78.453 Y179.654 E1.1553
G1 X78.442 Y179.666 E1.1559
G1 X77.475 Y180.661 E1.1974
G1 X77.463 Y180.673 E1.1979
G1 X77.282 Y180.839 E1.2053
G1 X77.269 Y180.851 E1.2058
G1 X76.195 Y181.729 E1.2473
G1 X76.181 Y181.739 E1.2478
G1 X75.982 Y181.884 E1.2552
G1 X75.968 Y181.894 E1.2557
G1 X74.801 Y182.644 E1.2972
G1 X74.786 Y182.652 E1.2977
G1 X74.572 Y182.773 E1.3051
G1 X74.557 Y182.781 E1.3056
G1 X73.312 Y183.393 E1.3471
G1 X73.297 Y183.401 E1.3476
G1 X73.070 Y183.496 E1.3550
G1 X73.054 Y183.502 E1.3555
G1 X71.747 Y183.969 E1.3970
G1 X71.731 Y183.974 E1.3975
G1 X71.495 Y184.043 E1.4049
G1 X71.479 Y184.048 E1.4054
G1 X70.127 Y184.362 E1.4469
G1 X70.111 Y184.365 E1.4475
G1 X69.868 Y184.407 E1.4548
G1 X69.852 Y184.410 E1.4553
G1 X68.473 Y184.568 E1.4969
G1 X68.456 Y184.569 E1.4974
G1 X68.210 Y184.583 E1.5047
G1 X68.193 Y184.584 E1.5052
G1 X66.806 Y184.584 E1.5468
G1 X66.789 Y184.583 E1.5473
G1 X66.544 Y184.569 E1.5546
G1 X66.527 Y184.568 E1.5551
G1 X65.148 Y184.410 E1.5967
G1 X65.131 Y184.407 E1.5972
G1 X64.889 Y184.365 E1.6045
G1 X64.873 Y184.362 E1.6051
G1 X63.521 Y184.048 E1.6466
G1 X63.505 Y184.043 E1.6471
G1 X63.269 Y183.974 E1.6545
G1 X63.253 Y183.969 E1.6550
G1 X61.946 Y183.502 E1.6965
G1 X61.930 Y183.496 E1.6970
G1 X61.703 Y183.401 E1.7044
G1 X61.688 Y183.393 E1.7049
G1 X60.443 Y182.781 E1.7464
G1 X60.428 Y182.773 E1.7469
G1 X60.214 Y182.652 E1.7543
G1 X60.199 Y182.644 E1.7548
G1 X59.032 Y181.894 E1.7963
G1 X59.018 Y181.884 E1.7968
G1 X58.819 Y181.739 E1.8042
G1 X58.805 Y181.729 E1.8047
G1 X57.731 Y180.851 E1.8462
G1 X57.718 Y180.839 E1.8468
G1 X57.537 Y180.673 E1.8541
G1 X57.525 Y180.661 E1.8546
G1 X56.558 Y179.666 E1.8962
G1 X56.547 Y179.654 E1.8967
G1 X56.386 Y179.468 E1.9040
G1 X56.375 Y179.455 E1.9045
G1 X55.528 Y178.356 E1.9461
G1 X55.517 Y178.342 E1.9466
G1 X55.379 Y178.139 E1.9539
G1 X55.370 Y178.125 E1.9544
G1 X54.653 Y176.937 E1.9960
G1 X54.645 Y176.922 E1.9965
G1 X54.530 Y176.705 E2.0038
G1 X54.522 Y176.689 E2.0044
G1 X53.946 Y175.427 E2.0459
G1 X53.939 Y175.411 E2.0464
G1 X53.850 Y175.183 E2.0538
G1 X53.844 Y175.166 E2.0543
G1 X53.416 Y173.847 E2.0958
G1 X53.411 Y173.830 E2.0963
G1 X53.348 Y173.593 E2.1037
G1 X53.345 Y173.576 E2.1042
G1 X53.069 Y172.216 E2.1457
G1 X53.066 Y172.199 E2.1462
G1 X53.031 Y171.956 E2.1536
G1 X53.029 Y171.939 E2.1541
G1 X52.910 Y170.557 E2.1956
G1 X52.909 Y170.540 E2.1961
G1 X52.902 Y170.294 E2.2035
G1 X52.902 Y170.277 E2.2040
G1 X52.942 Y168.890 E2.2455
G1 X52.943 Y168.873 E2.2461
G1 X52.964 Y168.628 E2.2534
G1 X52.966 Y168.611 E2.2539
G1 X53.163 Y167.238 E2.2955
G1 X53.166 Y167.221 E2.2960
G1 X53.215 Y166.980 E2.3033
G1 X53.219 Y166.963 E2.3038
G1 X53.572 Y165.622 E2.3454
G1 X53.577 Y165.605 E2.3459
G1 X53.653 Y165.372 E2.3532
G1 X53.658 Y165.355 E2.3537
G1 X54.162 Y164.062 E2.3953
G1 X54.168 Y164.047 E2.3958
G1 X54.270 Y163.823 E2.4031
G1 X54.278 Y163.808 E2.4037
G1 X54.925 Y162.581 E2.4452
G1 X54.934 Y162.566 E2.4457
G1 X55.061 Y162.355 E2.4531
G1 X55.070 Y162.341 E2.4536
G1 X55.853 Y161.196 E2.4951
G1 X55.863 Y161.182 E2.4956
G1 X56.013 Y160.987 E2.5030
G1 X56.024 Y160.974 E2.5035
G1 X56.932 Y159.926 E2.5450
G1 X56.944 Y159.913 E2.5455
G1 X57.115 Y159.737 E2.5529
G1 X57.127 Y159.725 E2.5534
G1 X58.150 Y158.787 E2.5949
G1 X58.163 Y158.775 E2.5954
G1 X58.353 Y158.620 E2.6028
G1 X58.367 Y158.609 E2.6033
G1 X59.489 Y157.794 E2.6448
G1 X59.503 Y157.784 E2.6454
G1 X59.710 Y157.651 E2.6527
G1 X59.725 Y157.642 E2.6532
G1 X60.933 Y156.960 E2.6948
G1 X60.948 Y156.952 E2.6953
G1 X61.168 Y156.844 E2.7026
G1 X61.184 Y156.837 E2.7031
G1 X62.462 Y156.297 E2.7447
G1 X62.478 Y156.290 E2.7452
G1 X62.618 Y156.665 F4800
G92 E0
G1 X62.838 Y156.586 E0.0070 F1800
G1 X62.844 Y156.585 E0.0072
G1 X64.164 Y156.197 E0.0484
G1 X64.170 Y156.196 E0.0485
G1 X64.398 Y156.143 E0.0556
G1 X64.403 Y156.141 E0.0557
G1 X65.759 Y155.907 E0.0969
G1 X65.765 Y155.906 E0.0971
G1 X65.998 Y155.879 E0.1041
G1 X66.003 Y155.879 E0.1043
G1 X67.377 Y155.800 E0.1455
G1 X67.383 Y155.800 E0.1456
G1 X67.617 Y155.800 E0.1526
G1 X67.623 Y155.800 E0.1528
G1 X68.997 Y155.879 E0.1940
G1 X69.002 Y155.879 E0.1942
G1 X69.235 Y155.906 E0.2012
G1 X69.241 Y155.907 E0.2014
G1 X70.597 Y156.141 E0.2426
G1 X70.602 Y156.143 E0.2427
G1 X70.830 Y156.196 E0.2497
G1 X70.836 Y156.197 E0.2499
G1 X72.156 Y156.585 E0.2911
G1 X72.162 Y156.586 E0.2913
G1 X72.382 Y156.665 E0.2983
G1 X72.388 Y156.667 E0.2984
G1 X73.655 Y157.203 E0.3396
G1 X73.660 Y157.205 E0.3398
G1 X73.870 Y157.309 E0.3468
G1 X73.875 Y157.311 E0.3470
G1 X75.074 Y157.988 E0.3882
G1 X75.079 Y157.991 E0.3884
G1 X75.276 Y158.118 E0.3954
G1 X75.280 Y158.121 E0.3955
G1 X76.394 Y158.930 E0.4367
G1 X76.398 Y158.933 E0.4369
G1 X76.579 Y159.081 E0.4439
G1 X76.584 Y159.085 E0.4441
G1 X77.598 Y160.015 E0.4853
G1 X77.602 Y160.019 E0.4854
G1 X77.765 Y160.187 E0.4925
G1 X77.769 Y160.192 E0.4926
G1 X78.670 Y161.232 E0.5338
G1 X78.673 Y161.236 E0.5340
G1 X78.817 Y161.422 E0.5410
G1 X78.820 Y161.426 E0.5412
G1 X79.597 Y162.562 E0.5824
G1 X79.600 Y162.567 E0.5825
G1 X79.721 Y162.767 E0.5895
G1 X79.723 Y162.772 E0.5897
G1 X80.366 Y163.989 E0.6309
G1 X80.368 Y163.995 E0.6311
G1 X80.465 Y164.208 E0.6381
G1 X80.468 Y164.213 E0.6383
G1 X80.967 Y165.495 E0.6795
G1 X80.969 Y165.501 E0.6796
G1 X81.041 Y165.723 E0.6866
G1 X81.043 Y165.729 E0.6868
G1 X81.393 Y167.060 E0.7280
G1 X81.394 Y167.065 E0.7282
G1 X81.440 Y167.295 E0.7352
G1 X81.441 Y167.300 E0.7353
G1 X81.637 Y168.662 E0.7765
G1 X81.638 Y168.668 E0.7767
G1 X81.658 Y168.902 E0.7837
G1 X81.658 Y168.907 E0.7839
G1 X81.698 Y170.283 E0.8251
G1 X81.698 Y170.288 E0.8253
G1 X81.691 Y170.523 E0.8323
G1 X81.691 Y170.528 E0.8324
G1 X81.573 Y171.899 E0.8736
G1 X81.572 Y171.905 E0.8738
G1 X81.539 Y172.137 E0.8808
G1 X81.538 Y172.142 E0.8810
G1 X81.265 Y173.491 E0.9222
G1 X81.263 Y173.497 E0.9223
G1 X81.204 Y173.723 E0.9294
G1 X81.202 Y173.729 E0.9295
G1 X80.777 Y175.037 E0.9707
G1 X80.775 Y175.043 E0.9709
G1 X80.690 Y175.261 E0.9779
G1 X80.688 Y175.266 E0.9781
G1 X80.116 Y176.518 E1.0193
G1 X80.114 Y176.523 E1.0194
G1 X80.004 Y176.730 E1.0264
G1 X80.001 Y176.735 E1.0266
G1 X79.291 Y177.914 E1.0678
G1 X79.288 Y177.918 E1.0680
G1 X79.156 Y178.112 E1.0750
G1 X79.152 Y178.116 E1.0752
G1 X78.312 Y179.206 E1.1164
G1 X78.308 Y179.211 E1.1165
G1 X78.155 Y179.388 E1.1235
G1 X78.151 Y179.392 E1.1237
G1 X77.192 Y180.379 E1.1649
G1 X77.188 Y180.383 E1.1651
G1 X77.015 Y180.541 E1.1721
G1 X77.011 Y180.545 E1.1723
G1 X75.946 Y181.416 E1.2134
G1 X75.941 Y181.419 E1.2136
G1 X75.752 Y181.557 E1.2206
G1 X75.747 Y181.560 E1.2208
G1 X74.590 Y182.304 E1.2620
G1 X74.585 Y182.307 E1.2622
G1 X74.381 Y182.422 E1.2692
G1 X74.376 Y182.425 E1.2693
G1 X73.141 Y183.032 E1.3105
G1 X73.136 Y183.034 E1.3107
G1 X72.920 Y183.126 E1.3177
G1 X72.914 Y183.128 E1.3179
G1 X71.618 Y183.590 E1.3591
G1 X71.613 Y183.592 E1.3592
G1 X71.388 Y183.658 E1.3663
G1 X71.383 Y183.659 E1.3664
G1 X70.042 Y183.971 E1.4076
G1 X70.037 Y183.972 E1.4078
G1 X69.806 Y184.012 E1.4148
G1 X69.800 Y184.013 E1.4150
G1 X68.433 Y184.170 E1.4562
G1 X68.427 Y184.170 E1.4563
G1 X68.193 Y184.184 E1.4634
G1 X68.188 Y184.184 E1.4635
G1 X66.812 Y184.184 E1.5047
G1 X66.806 Y184.184 E1.5049
